(Exported by FreeCAD)
(Post Processor: grbl_post)
(Output Time:2021-05-11 19:53:19.506316)
(Begin preamble)
G17 G90
G21
(Begin operation: Fixture)
(Path: Fixture)
G54
(Finish operation: Fixture)
(Begin operation: claas_6mm_endmill003)
(Path: claas_6mm_endmill003)
(claas_6mm_endmill003)
(Begin toolchange)
( M6 T1.0 )
M3 S0.0
(Finish operation: claas_6mm_endmill003)
(Begin operation: Pocket_Shape002)
(Path: Pocket_Shape002)
(Pocket_Shape002)
G0 Z5.000
G0 X55.750 Y354.500
G0 Z3.000
G1 X55.750 Y354.500 Z-6.000
G1 X55.750 Y313.000 Z-6.000
G1 X39.250 Y313.000 Z-6.000
G1 X39.250 Y354.500 Z-6.000
G1 X55.750 Y354.500 Z-6.000
G1 X55.750 Y354.500 Z-6.000
G1 X47.265 Y354.500 Z-6.000
G1 X55.750 Y346.015 Z-6.000
G1 X55.750 Y337.529 Z-6.000
G1 X39.250 Y354.029 Z-6.000
G1 X39.250 Y345.544 Z-6.000
G1 X55.750 Y329.044 Z-6.000
G1 X55.750 Y320.559 Z-6.000
G1 X39.250 Y337.059 Z-6.000
G1 X39.250 Y328.574 Z-6.000
G1 X54.824 Y313.000 Z-6.000
G1 X46.338 Y313.000 Z-6.000
G1 X39.250 Y320.088 Z-6.000
G1 X39.250 Y313.000 Z-6.000
G1 X46.338 Y313.000 Z-6.000
G1 X46.338 Y313.000 Z-12.000
G1 X39.250 Y313.000 Z-12.000
G1 X39.250 Y320.088 Z-12.000
G1 X46.338 Y313.000 Z-12.000
G1 X54.824 Y313.000 Z-12.000
G1 X39.250 Y328.574 Z-12.000
G1 X39.250 Y337.059 Z-12.000
G1 X55.750 Y320.559 Z-12.000
G1 X55.750 Y329.044 Z-12.000
G1 X39.250 Y345.544 Z-12.000
G1 X39.250 Y354.029 Z-12.000
G1 X55.750 Y337.529 Z-12.000
G1 X55.750 Y346.015 Z-12.000
G1 X47.265 Y354.500 Z-12.000
G1 X55.750 Y354.500 Z-12.000
G1 X55.750 Y354.500 Z-12.000
G1 X55.750 Y313.000 Z-12.000
G1 X39.250 Y313.000 Z-12.000
G1 X39.250 Y354.500 Z-12.000
G1 X55.750 Y354.500 Z-12.000
G1 X55.750 Y354.500 Z-18.000
G1 X55.750 Y313.000 Z-18.000
G1 X39.250 Y313.000 Z-18.000
G1 X39.250 Y354.500 Z-18.000
G1 X55.750 Y354.500 Z-18.000
G1 X55.750 Y354.500 Z-18.000
G1 X47.265 Y354.500 Z-18.000
G1 X55.750 Y346.015 Z-18.000
G1 X55.750 Y337.529 Z-18.000
G1 X39.250 Y354.029 Z-18.000
G1 X39.250 Y345.544 Z-18.000
G1 X55.750 Y329.044 Z-18.000
G1 X55.750 Y320.559 Z-18.000
G1 X39.250 Y337.059 Z-18.000
G1 X39.250 Y328.574 Z-18.000
G1 X54.824 Y313.000 Z-18.000
G1 X46.338 Y313.000 Z-18.000
G1 X39.250 Y320.088 Z-18.000
G1 X39.250 Y313.000 Z-18.000
G1 X46.338 Y313.000 Z-18.000
G1 X46.338 Y313.000 Z-23.000
G1 X39.250 Y313.000 Z-23.000
G1 X39.250 Y320.088 Z-23.000
G1 X46.338 Y313.000 Z-23.000
G1 X54.824 Y313.000 Z-23.000
G1 X39.250 Y328.574 Z-23.000
G1 X39.250 Y337.059 Z-23.000
G1 X55.750 Y320.559 Z-23.000
G1 X55.750 Y329.044 Z-23.000
G1 X39.250 Y345.544 Z-23.000
G1 X39.250 Y354.029 Z-23.000
G1 X55.750 Y337.529 Z-23.000
G1 X55.750 Y346.015 Z-23.000
G1 X47.265 Y354.500 Z-23.000
G1 X55.750 Y354.500 Z-23.000
G1 X55.750 Y354.500 Z-23.000
G1 X55.750 Y313.000 Z-23.000
G1 X39.250 Y313.000 Z-23.000
G1 X39.250 Y354.500 Z-23.000
G1 X55.750 Y354.500 Z-23.000
G0 Z5.000
G0 Z5.000
(Finish operation: Pocket_Shape002)
(Begin postamble)
M5
G17 G90
M2
