(Exported by FreeCAD)
(Post Processor: grbl_post)
(Output Time:2021-05-11 19:53:31.160119)
(Begin preamble)
G17 G90
G21
(Begin operation: Fixture)
(Path: Fixture)
G54
(Finish operation: Fixture)
(Begin operation: claas_6mm_endmill009)
(Path: claas_6mm_endmill009)
(claas_6mm_endmill009)
(Begin toolchange)
( M6 T1.0 )
M3 S0.0
(Finish operation: claas_6mm_endmill009)
(Begin operation: Pocket_Shape005)
(Path: Pocket_Shape005)
(Pocket_Shape005)
G0 Z5.000
G0 X92.000 Y717.000
G0 Z3.000
G1 X92.000 Y717.000 Z-0.000
G1 X92.000 Y633.000 Z-0.000
G1 X74.250 Y633.000 Z-0.000
G1 X74.250 Y717.000 Z-0.000
G1 X92.000 Y717.000 Z-0.000
G0 Z5.000
G0 Y717.000 Z5.000
G0 Y717.000 Z3.000
G1 X92.000 Y717.000 Z-0.000
G1 X83.515 Y717.000 Z-0.000
G1 X92.000 Y708.515 Z-0.000
G1 X92.000 Y700.029 Z-0.000
G1 X75.029 Y717.000 Z-0.000
G1 X74.250 Y717.000 Z-0.000
G1 X74.250 Y709.294 Z-0.000
G1 X92.000 Y691.544 Z-0.000
G1 X92.000 Y683.059 Z-0.000
G1 X74.250 Y700.809 Z-0.000
G1 X74.250 Y692.324 Z-0.000
G1 X92.000 Y674.574 Z-0.000
G1 X92.000 Y666.088 Z-0.000
G1 X74.250 Y683.838 Z-0.000
G1 X74.250 Y675.353 Z-0.000
G1 X92.000 Y657.603 Z-0.000
G1 X92.000 Y649.118 Z-0.000
G1 X74.250 Y666.868 Z-0.000
G1 X74.250 Y658.382 Z-0.000
G1 X92.000 Y640.632 Z-0.000
G1 X92.000 Y633.000 Z-0.000
G1 X91.147 Y633.000 Z-0.000
G1 X74.250 Y649.897 Z-0.000
G1 X74.250 Y641.412 Z-0.000
G1 X74.250 Y633.000 Z-0.000
G1 X82.662 Y633.000 Z-0.000
G1 X74.250 Y641.412 Z-0.000
G0 Z5.000
G0 X20.750 Z5.000
G0 X20.750 Z3.000
G1 X20.750 Y641.412 Z-0.000
G1 X20.750 Y633.000 Z-0.000
G1 X3.000 Y633.000 Z-0.000
G1 X3.000 Y717.000 Z-0.000
G1 X20.750 Y717.000 Z-0.000
G1 X20.750 Y641.412 Z-0.000
G0 Z5.000
G0 X6.294 Y633.000 Z5.000
G0 X6.294 Y633.000 Z3.000
G1 X6.294 Y633.000 Z-0.000
G1 X3.000 Y636.294 Z-0.000
G1 X3.000 Y633.000 Z-0.000
G1 X6.294 Y633.000 Z-0.000
G1 X14.780 Y633.000 Z-0.000
G1 X3.000 Y644.780 Z-0.000
G1 X3.000 Y653.265 Z-0.000
G1 X20.750 Y635.515 Z-0.000
G1 X20.750 Y644.000 Z-0.000
G1 X3.000 Y661.750 Z-0.000
G1 X3.000 Y670.235 Z-0.000
G1 X20.750 Y652.485 Z-0.000
G1 X20.750 Y660.971 Z-0.000
G1 X3.000 Y678.721 Z-0.000
G1 X3.000 Y687.206 Z-0.000
G1 X20.750 Y669.456 Z-0.000
G1 X20.750 Y677.941 Z-0.000
G1 X3.000 Y695.691 Z-0.000
G1 X3.000 Y704.177 Z-0.000
G1 X20.750 Y686.427 Z-0.000
G1 X20.750 Y694.912 Z-0.000
G1 X3.000 Y712.662 Z-0.000
G1 X3.000 Y717.000 Z-0.000
G1 X7.147 Y717.000 Z-0.000
G1 X20.750 Y703.397 Z-0.000
G1 X20.750 Y711.882 Z-0.000
G1 X15.632 Y717.000 Z-0.000
G1 X20.750 Y717.000 Z-0.000
G1 X20.750 Y711.882 Z-0.000
G0 Z5.000
G0 Y87.000 Z5.000
G0 Y87.000 Z3.000
G1 X20.750 Y87.000 Z-0.000
G1 X20.750 Y3.000 Z-0.000
G1 X3.000 Y3.000 Z-0.000
G1 X3.000 Y87.000 Z-0.000
G1 X20.750 Y87.000 Z-0.000
G0 Z5.000
G0 Y83.972 Z5.000
G0 Y83.972 Z3.000
G1 X20.750 Y83.972 Z-0.000
G1 X20.750 Y87.000 Z-0.000
G1 X17.722 Y87.000 Z-0.000
G1 X20.750 Y83.972 Z-0.000
G1 X20.750 Y75.486 Z-0.000
G1 X9.236 Y87.000 Z-0.000
G1 X3.000 Y87.000 Z-0.000
G1 X3.000 Y84.751 Z-0.000
G1 X20.750 Y67.001 Z-0.000
G1 X20.750 Y58.516 Z-0.000
G1 X3.000 Y76.266 Z-0.000
G1 X3.000 Y67.781 Z-0.000
G1 X20.750 Y50.031 Z-0.000
G1 X20.750 Y41.545 Z-0.000
G1 X3.000 Y59.295 Z-0.000
G1 X3.000 Y50.810 Z-0.000
G1 X20.750 Y33.060 Z-0.000
G1 X20.750 Y24.575 Z-0.000
G1 X3.000 Y42.325 Z-0.000
G1 X3.000 Y33.839 Z-0.000
G1 X20.750 Y16.089 Z-0.000
G1 X20.750 Y7.604 Z-0.000
G1 X3.000 Y25.354 Z-0.000
G1 X3.000 Y16.869 Z-0.000
G1 X16.869 Y3.000 Z-0.000
G1 X8.384 Y3.000 Z-0.000
G1 X3.000 Y3.000 Z-0.000
G1 X3.000 Y8.384 Z-0.000
G1 X8.384 Y3.000 Z-0.000
G0 Z5.000
G0 X74.250 Z5.000
G0 X74.250 Z3.000
G1 X74.250 Y3.000 Z-0.000
G1 X74.250 Y87.000 Z-0.000
G1 X92.000 Y87.000 Z-0.000
G1 X92.000 Y3.000 Z-0.000
G1 X74.250 Y3.000 Z-0.000
G0 Z5.000
G0 X76.266 Z5.000
G0 X76.266 Z3.000
G1 X76.266 Y3.000 Z-0.000
G1 X74.250 Y5.016 Z-0.000
G1 X74.250 Y3.000 Z-0.000
G1 X76.266 Y3.000 Z-0.000
G1 X84.751 Y3.000 Z-0.000
G1 X74.250 Y13.501 Z-0.000
G1 X74.250 Y21.986 Z-0.000
G1 X92.000 Y4.236 Z-0.000
G1 X92.000 Y12.722 Z-0.000
G1 X74.250 Y30.472 Z-0.000
G1 X74.250 Y38.957 Z-0.000
G1 X92.000 Y21.207 Z-0.000
G1 X92.000 Y29.692 Z-0.000
G1 X74.250 Y47.442 Z-0.000
G1 X74.250 Y55.927 Z-0.000
G1 X92.000 Y38.177 Z-0.000
G1 X92.000 Y46.663 Z-0.000
G1 X74.250 Y64.413 Z-0.000
G1 X74.250 Y72.898 Z-0.000
G1 X92.000 Y55.148 Z-0.000
G1 X92.000 Y63.633 Z-0.000
G1 X74.250 Y81.383 Z-0.000
G1 X74.250 Y87.000 Z-0.000
G1 X77.119 Y87.000 Z-0.000
G1 X92.000 Y72.119 Z-0.000
G1 X92.000 Y80.604 Z-0.000
G1 X85.604 Y87.000 Z-0.000
G1 X92.000 Y87.000 Z-0.000
G1 X92.000 Y80.604 Z-0.000
G1 X92.000 Y80.604 Z-6.000
G1 X92.000 Y87.000 Z-6.000
G1 X85.604 Y87.000 Z-6.000
G1 X92.000 Y80.604 Z-6.000
G1 X92.000 Y72.119 Z-6.000
G1 X77.119 Y87.000 Z-6.000
G1 X74.250 Y87.000 Z-6.000
G1 X74.250 Y81.383 Z-6.000
G1 X92.000 Y63.633 Z-6.000
G1 X92.000 Y55.148 Z-6.000
G1 X74.250 Y72.898 Z-6.000
G1 X74.250 Y64.413 Z-6.000
G1 X92.000 Y46.663 Z-6.000
G1 X92.000 Y38.177 Z-6.000
G1 X74.250 Y55.927 Z-6.000
G1 X74.250 Y47.442 Z-6.000
G1 X92.000 Y29.692 Z-6.000
G1 X92.000 Y21.207 Z-6.000
G1 X74.250 Y38.957 Z-6.000
G1 X74.250 Y30.472 Z-6.000
G1 X92.000 Y12.722 Z-6.000
G1 X92.000 Y4.236 Z-6.000
G1 X74.250 Y21.986 Z-6.000
G1 X74.250 Y13.501 Z-6.000
G1 X84.751 Y3.000 Z-6.000
G1 X76.266 Y3.000 Z-6.000
G1 X74.250 Y3.000 Z-6.000
G1 X74.250 Y5.016 Z-6.000
G1 X76.266 Y3.000 Z-6.000
G1 X76.266 Y3.000 Z-6.000
G1 X74.250 Y3.000 Z-6.000
G1 X74.250 Y87.000 Z-6.000
G1 X92.000 Y87.000 Z-6.000
G1 X92.000 Y3.000 Z-6.000
G1 X76.266 Y3.000 Z-6.000
G0 Z5.000
G0 X20.750 Z5.000
G0 X20.750 Z3.000
G1 X20.750 Y3.000 Z-6.000
G1 X3.000 Y3.000 Z-6.000
G1 X3.000 Y87.000 Z-6.000
G1 X20.750 Y87.000 Z-6.000
G1 X20.750 Y3.000 Z-6.000
G0 Z5.000
G0 X8.384 Z5.000
G0 X8.384 Z3.000
G1 X8.384 Y3.000 Z-6.000
G1 X3.000 Y8.384 Z-6.000
G1 X3.000 Y3.000 Z-6.000
G1 X8.384 Y3.000 Z-6.000
G1 X16.869 Y3.000 Z-6.000
G1 X3.000 Y16.869 Z-6.000
G1 X3.000 Y25.354 Z-6.000
G1 X20.750 Y7.604 Z-6.000
G1 X20.750 Y16.089 Z-6.000
G1 X3.000 Y33.839 Z-6.000
G1 X3.000 Y42.325 Z-6.000
G1 X20.750 Y24.575 Z-6.000
G1 X20.750 Y33.060 Z-6.000
G1 X3.000 Y50.810 Z-6.000
G1 X3.000 Y59.295 Z-6.000
G1 X20.750 Y41.545 Z-6.000
G1 X20.750 Y50.031 Z-6.000
G1 X3.000 Y67.781 Z-6.000
G1 X3.000 Y76.266 Z-6.000
G1 X20.750 Y58.516 Z-6.000
G1 X20.750 Y67.001 Z-6.000
G1 X3.000 Y84.751 Z-6.000
G1 X3.000 Y87.000 Z-6.000
G1 X9.236 Y87.000 Z-6.000
G1 X20.750 Y75.486 Z-6.000
G1 X20.750 Y83.972 Z-6.000
G1 X17.722 Y87.000 Z-6.000
G1 X20.750 Y87.000 Z-6.000
G1 X20.750 Y83.972 Z-6.000
G0 Z5.000
G0 Y633.000 Z5.000
G0 Y633.000 Z3.000
G1 X20.750 Y633.000 Z-6.000
G1 X3.000 Y633.000 Z-6.000
G1 X3.000 Y717.000 Z-6.000
G1 X20.750 Y717.000 Z-6.000
G1 X20.750 Y633.000 Z-6.000
G0 Z5.000
G0 X6.294 Z5.000
G0 X6.294 Z3.000
G1 X6.294 Y633.000 Z-6.000
G1 X3.000 Y636.294 Z-6.000
G1 X3.000 Y633.000 Z-6.000
G1 X6.294 Y633.000 Z-6.000
G1 X14.780 Y633.000 Z-6.000
G1 X3.000 Y644.780 Z-6.000
G1 X3.000 Y653.265 Z-6.000
G1 X20.750 Y635.515 Z-6.000
G1 X20.750 Y644.000 Z-6.000
G1 X3.000 Y661.750 Z-6.000
G1 X3.000 Y670.235 Z-6.000
G1 X20.750 Y652.485 Z-6.000
G1 X20.750 Y660.971 Z-6.000
G1 X3.000 Y678.721 Z-6.000
G1 X3.000 Y687.206 Z-6.000
G1 X20.750 Y669.456 Z-6.000
G1 X20.750 Y677.941 Z-6.000
G1 X3.000 Y695.691 Z-6.000
G1 X3.000 Y704.177 Z-6.000
G1 X20.750 Y686.427 Z-6.000
G1 X20.750 Y694.912 Z-6.000
G1 X3.000 Y712.662 Z-6.000
G1 X3.000 Y717.000 Z-6.000
G1 X7.147 Y717.000 Z-6.000
G1 X20.750 Y703.397 Z-6.000
G1 X20.750 Y711.882 Z-6.000
G1 X15.632 Y717.000 Z-6.000
G1 X20.750 Y717.000 Z-6.000
G1 X20.750 Y711.882 Z-6.000
G0 Z5.000
G0 X74.250 Z5.000
G0 X74.250 Z3.000
G1 X74.250 Y711.882 Z-6.000
G1 X74.250 Y717.000 Z-6.000
G1 X92.000 Y717.000 Z-6.000
G1 X92.000 Y633.000 Z-6.000
G1 X74.250 Y633.000 Z-6.000
G1 X74.250 Y711.882 Z-6.000
G0 Z5.000
G0 X92.000 Y717.000 Z5.000
G0 X92.000 Y717.000 Z3.000
G1 X92.000 Y717.000 Z-6.000
G1 X83.515 Y717.000 Z-6.000
G1 X92.000 Y708.515 Z-6.000
G1 X92.000 Y700.029 Z-6.000
G1 X75.029 Y717.000 Z-6.000
G1 X74.250 Y717.000 Z-6.000
G1 X74.250 Y709.294 Z-6.000
G1 X92.000 Y691.544 Z-6.000
G1 X92.000 Y683.059 Z-6.000
G1 X74.250 Y700.809 Z-6.000
G1 X74.250 Y692.324 Z-6.000
G1 X92.000 Y674.574 Z-6.000
G1 X92.000 Y666.088 Z-6.000
G1 X74.250 Y683.838 Z-6.000
G1 X74.250 Y675.353 Z-6.000
G1 X92.000 Y657.603 Z-6.000
G1 X92.000 Y649.118 Z-6.000
G1 X74.250 Y666.868 Z-6.000
G1 X74.250 Y658.382 Z-6.000
G1 X92.000 Y640.632 Z-6.000
G1 X92.000 Y633.000 Z-6.000
G1 X91.147 Y633.000 Z-6.000
G1 X74.250 Y649.897 Z-6.000
G1 X74.250 Y641.412 Z-6.000
G1 X74.250 Y633.000 Z-6.000
G1 X82.662 Y633.000 Z-6.000
G1 X74.250 Y641.412 Z-6.000
G1 X74.250 Y641.412 Z-12.000
G1 X82.662 Y633.000 Z-12.000
G1 X74.250 Y633.000 Z-12.000
G1 X74.250 Y641.412 Z-12.000
G1 X74.250 Y649.897 Z-12.000
G1 X91.147 Y633.000 Z-12.000
G1 X92.000 Y633.000 Z-12.000
G1 X92.000 Y640.632 Z-12.000
G1 X74.250 Y658.382 Z-12.000
G1 X74.250 Y666.868 Z-12.000
G1 X92.000 Y649.118 Z-12.000
G1 X92.000 Y657.603 Z-12.000
G1 X74.250 Y675.353 Z-12.000
G1 X74.250 Y683.838 Z-12.000
G1 X92.000 Y666.088 Z-12.000
G1 X92.000 Y674.574 Z-12.000
G1 X74.250 Y692.324 Z-12.000
G1 X74.250 Y700.809 Z-12.000
G1 X92.000 Y683.059 Z-12.000
G1 X92.000 Y691.544 Z-12.000
G1 X74.250 Y709.294 Z-12.000
G1 X74.250 Y717.000 Z-12.000
G1 X75.029 Y717.000 Z-12.000
G1 X92.000 Y700.029 Z-12.000
G1 X92.000 Y708.515 Z-12.000
G1 X83.515 Y717.000 Z-12.000
G1 X92.000 Y717.000 Z-12.000
G0 Z5.000
G0 Y717.000 Z5.000
G0 Y717.000 Z3.000
G1 X92.000 Y717.000 Z-12.000
G1 X92.000 Y633.000 Z-12.000
G1 X74.250 Y633.000 Z-12.000
G1 X74.250 Y717.000 Z-12.000
G1 X92.000 Y717.000 Z-12.000
G0 Z5.000
G0 X20.750 Z5.000
G0 X20.750 Z3.000
G1 X20.750 Y717.000 Z-12.000
G1 X20.750 Y633.000 Z-12.000
G1 X3.000 Y633.000 Z-12.000
G1 X3.000 Y717.000 Z-12.000
G1 X20.750 Y717.000 Z-12.000
G0 Z5.000
G0 Y711.882 Z5.000
G0 Y711.882 Z3.000
G1 X20.750 Y711.882 Z-12.000
G1 X20.750 Y717.000 Z-12.000
G1 X15.632 Y717.000 Z-12.000
G1 X20.750 Y711.882 Z-12.000
G1 X20.750 Y703.397 Z-12.000
G1 X7.147 Y717.000 Z-12.000
G1 X3.000 Y717.000 Z-12.000
G1 X3.000 Y712.662 Z-12.000
G1 X20.750 Y694.912 Z-12.000
G1 X20.750 Y686.427 Z-12.000
G1 X3.000 Y704.177 Z-12.000
G1 X3.000 Y695.691 Z-12.000
G1 X20.750 Y677.941 Z-12.000
G1 X20.750 Y669.456 Z-12.000
G1 X3.000 Y687.206 Z-12.000
G1 X3.000 Y678.721 Z-12.000
G1 X20.750 Y660.971 Z-12.000
G1 X20.750 Y652.485 Z-12.000
G1 X3.000 Y670.235 Z-12.000
G1 X3.000 Y661.750 Z-12.000
G1 X20.750 Y644.000 Z-12.000
G1 X20.750 Y635.515 Z-12.000
G1 X3.000 Y653.265 Z-12.000
G1 X3.000 Y644.780 Z-12.000
G1 X14.780 Y633.000 Z-12.000
G1 X6.294 Y633.000 Z-12.000
G1 X3.000 Y633.000 Z-12.000
G1 X3.000 Y636.294 Z-12.000
G1 X6.294 Y633.000 Z-12.000
G0 Z5.000
G0 Y87.000 Z5.000
G0 Y87.000 Z3.000
G1 X6.294 Y87.000 Z-12.000
G1 X20.750 Y87.000 Z-12.000
G1 X20.750 Y3.000 Z-12.000
G1 X3.000 Y3.000 Z-12.000
G1 X3.000 Y87.000 Z-12.000
G1 X6.294 Y87.000 Z-12.000
G0 Z5.000
G0 X20.750 Y83.972 Z5.000
G0 X20.750 Y83.972 Z3.000
G1 X20.750 Y83.972 Z-12.000
G1 X20.750 Y87.000 Z-12.000
G1 X17.722 Y87.000 Z-12.000
G1 X20.750 Y83.972 Z-12.000
G1 X20.750 Y75.486 Z-12.000
G1 X9.236 Y87.000 Z-12.000
G1 X3.000 Y87.000 Z-12.000
G1 X3.000 Y84.751 Z-12.000
G1 X20.750 Y67.001 Z-12.000
G1 X20.750 Y58.516 Z-12.000
G1 X3.000 Y76.266 Z-12.000
G1 X3.000 Y67.781 Z-12.000
G1 X20.750 Y50.031 Z-12.000
G1 X20.750 Y41.545 Z-12.000
G1 X3.000 Y59.295 Z-12.000
G1 X3.000 Y50.810 Z-12.000
G1 X20.750 Y33.060 Z-12.000
G1 X20.750 Y24.575 Z-12.000
G1 X3.000 Y42.325 Z-12.000
G1 X3.000 Y33.839 Z-12.000
G1 X20.750 Y16.089 Z-12.000
G1 X20.750 Y7.604 Z-12.000
G1 X3.000 Y25.354 Z-12.000
G1 X3.000 Y16.869 Z-12.000
G1 X16.869 Y3.000 Z-12.000
G1 X8.384 Y3.000 Z-12.000
G1 X3.000 Y3.000 Z-12.000
G1 X3.000 Y8.384 Z-12.000
G1 X8.384 Y3.000 Z-12.000
G0 Z5.000
G0 X74.250 Z5.000
G0 X74.250 Z3.000
G1 X74.250 Y3.000 Z-12.000
G1 X74.250 Y87.000 Z-12.000
G1 X92.000 Y87.000 Z-12.000
G1 X92.000 Y3.000 Z-12.000
G1 X74.250 Y3.000 Z-12.000
G0 Z5.000
G0 X76.266 Z5.000
G0 X76.266 Z3.000
G1 X76.266 Y3.000 Z-12.000
G1 X74.250 Y5.016 Z-12.000
G1 X74.250 Y3.000 Z-12.000
G1 X76.266 Y3.000 Z-12.000
G1 X84.751 Y3.000 Z-12.000
G1 X74.250 Y13.501 Z-12.000
G1 X74.250 Y21.986 Z-12.000
G1 X92.000 Y4.236 Z-12.000
G1 X92.000 Y12.722 Z-12.000
G1 X74.250 Y30.472 Z-12.000
G1 X74.250 Y38.957 Z-12.000
G1 X92.000 Y21.207 Z-12.000
G1 X92.000 Y29.692 Z-12.000
G1 X74.250 Y47.442 Z-12.000
G1 X74.250 Y55.927 Z-12.000
G1 X92.000 Y38.177 Z-12.000
G1 X92.000 Y46.663 Z-12.000
G1 X74.250 Y64.413 Z-12.000
G1 X74.250 Y72.898 Z-12.000
G1 X92.000 Y55.148 Z-12.000
G1 X92.000 Y63.633 Z-12.000
G1 X74.250 Y81.383 Z-12.000
G1 X74.250 Y87.000 Z-12.000
G1 X77.119 Y87.000 Z-12.000
G1 X92.000 Y72.119 Z-12.000
G1 X92.000 Y80.604 Z-12.000
G1 X85.604 Y87.000 Z-12.000
G1 X92.000 Y87.000 Z-12.000
G1 X92.000 Y80.604 Z-12.000
G1 X92.000 Y80.604 Z-18.000
G1 X92.000 Y3.000 Z-18.000
G1 X74.250 Y3.000 Z-18.000
G1 X74.250 Y87.000 Z-18.000
G1 X92.000 Y87.000 Z-18.000
G1 X92.000 Y80.604 Z-18.000
G1 X92.000 Y80.604 Z-18.000
G1 X92.000 Y87.000 Z-18.000
G1 X85.604 Y87.000 Z-18.000
G1 X92.000 Y80.604 Z-18.000
G1 X92.000 Y72.119 Z-18.000
G1 X77.119 Y87.000 Z-18.000
G1 X74.250 Y87.000 Z-18.000
G1 X74.250 Y81.383 Z-18.000
G1 X92.000 Y63.633 Z-18.000
G1 X92.000 Y55.148 Z-18.000
G1 X74.250 Y72.898 Z-18.000
G1 X74.250 Y64.413 Z-18.000
G1 X92.000 Y46.663 Z-18.000
G1 X92.000 Y38.177 Z-18.000
G1 X74.250 Y55.927 Z-18.000
G1 X74.250 Y47.442 Z-18.000
G1 X92.000 Y29.692 Z-18.000
G1 X92.000 Y21.207 Z-18.000
G1 X74.250 Y38.957 Z-18.000
G1 X74.250 Y30.472 Z-18.000
G1 X92.000 Y12.722 Z-18.000
G1 X92.000 Y4.236 Z-18.000
G1 X74.250 Y21.986 Z-18.000
G1 X74.250 Y13.501 Z-18.000
G1 X84.751 Y3.000 Z-18.000
G1 X76.266 Y3.000 Z-18.000
G1 X74.250 Y3.000 Z-18.000
G1 X74.250 Y5.016 Z-18.000
G1 X76.266 Y3.000 Z-18.000
G0 Z5.000
G0 X20.750 Z5.000
G0 X20.750 Z3.000
G1 X20.750 Y3.000 Z-18.000
G1 X3.000 Y3.000 Z-18.000
G1 X3.000 Y87.000 Z-18.000
G1 X20.750 Y87.000 Z-18.000
G1 X20.750 Y3.000 Z-18.000
G0 Z5.000
G0 X8.384 Z5.000
G0 X8.384 Z3.000
G1 X8.384 Y3.000 Z-18.000
G1 X3.000 Y8.384 Z-18.000
G1 X3.000 Y3.000 Z-18.000
G1 X8.384 Y3.000 Z-18.000
G1 X16.869 Y3.000 Z-18.000
G1 X3.000 Y16.869 Z-18.000
G1 X3.000 Y25.354 Z-18.000
G1 X20.750 Y7.604 Z-18.000
G1 X20.750 Y16.089 Z-18.000
G1 X3.000 Y33.839 Z-18.000
G1 X3.000 Y42.325 Z-18.000
G1 X20.750 Y24.575 Z-18.000
G1 X20.750 Y33.060 Z-18.000
G1 X3.000 Y50.810 Z-18.000
G1 X3.000 Y59.295 Z-18.000
G1 X20.750 Y41.545 Z-18.000
G1 X20.750 Y50.031 Z-18.000
G1 X3.000 Y67.781 Z-18.000
G1 X3.000 Y76.266 Z-18.000
G1 X20.750 Y58.516 Z-18.000
G1 X20.750 Y67.001 Z-18.000
G1 X3.000 Y84.751 Z-18.000
G1 X3.000 Y87.000 Z-18.000
G1 X9.236 Y87.000 Z-18.000
G1 X20.750 Y75.486 Z-18.000
G1 X20.750 Y83.972 Z-18.000
G1 X17.722 Y87.000 Z-18.000
G1 X20.750 Y87.000 Z-18.000
G1 X20.750 Y83.972 Z-18.000
G0 Z5.000
G0 Y633.000 Z5.000
G0 Y633.000 Z3.000
G1 X20.750 Y633.000 Z-18.000
G1 X3.000 Y633.000 Z-18.000
G1 X3.000 Y717.000 Z-18.000
G1 X20.750 Y717.000 Z-18.000
G1 X20.750 Y633.000 Z-18.000
G0 Z5.000
G0 X6.294 Z5.000
G0 X6.294 Z3.000
G1 X6.294 Y633.000 Z-18.000
G1 X3.000 Y636.294 Z-18.000
G1 X3.000 Y633.000 Z-18.000
G1 X6.294 Y633.000 Z-18.000
G1 X14.780 Y633.000 Z-18.000
G1 X3.000 Y644.780 Z-18.000
G1 X3.000 Y653.265 Z-18.000
G1 X20.750 Y635.515 Z-18.000
G1 X20.750 Y644.000 Z-18.000
G1 X3.000 Y661.750 Z-18.000
G1 X3.000 Y670.235 Z-18.000
G1 X20.750 Y652.485 Z-18.000
G1 X20.750 Y660.971 Z-18.000
G1 X3.000 Y678.721 Z-18.000
G1 X3.000 Y687.206 Z-18.000
G1 X20.750 Y669.456 Z-18.000
G1 X20.750 Y677.941 Z-18.000
G1 X3.000 Y695.691 Z-18.000
G1 X3.000 Y704.177 Z-18.000
G1 X20.750 Y686.427 Z-18.000
G1 X20.750 Y694.912 Z-18.000
G1 X3.000 Y712.662 Z-18.000
G1 X3.000 Y717.000 Z-18.000
G1 X7.147 Y717.000 Z-18.000
G1 X20.750 Y703.397 Z-18.000
G1 X20.750 Y711.882 Z-18.000
G1 X15.632 Y717.000 Z-18.000
G1 X20.750 Y717.000 Z-18.000
G1 X20.750 Y711.882 Z-18.000
G0 Z5.000
G0 X74.250 Z5.000
G0 X74.250 Z3.000
G1 X74.250 Y711.882 Z-18.000
G1 X74.250 Y717.000 Z-18.000
G1 X92.000 Y717.000 Z-18.000
G1 X92.000 Y633.000 Z-18.000
G1 X74.250 Y633.000 Z-18.000
G1 X74.250 Y711.882 Z-18.000
G0 Z5.000
G0 X92.000 Y717.000 Z5.000
G0 X92.000 Y717.000 Z3.000
G1 X92.000 Y717.000 Z-18.000
G1 X83.515 Y717.000 Z-18.000
G1 X92.000 Y708.515 Z-18.000
G1 X92.000 Y700.029 Z-18.000
G1 X75.029 Y717.000 Z-18.000
G1 X74.250 Y717.000 Z-18.000
G1 X74.250 Y709.294 Z-18.000
G1 X92.000 Y691.544 Z-18.000
G1 X92.000 Y683.059 Z-18.000
G1 X74.250 Y700.809 Z-18.000
G1 X74.250 Y692.324 Z-18.000
G1 X92.000 Y674.574 Z-18.000
G1 X92.000 Y666.088 Z-18.000
G1 X74.250 Y683.838 Z-18.000
G1 X74.250 Y675.353 Z-18.000
G1 X92.000 Y657.603 Z-18.000
G1 X92.000 Y649.118 Z-18.000
G1 X74.250 Y666.868 Z-18.000
G1 X74.250 Y658.382 Z-18.000
G1 X92.000 Y640.632 Z-18.000
G1 X92.000 Y633.000 Z-18.000
G1 X91.147 Y633.000 Z-18.000
G1 X74.250 Y649.897 Z-18.000
G1 X74.250 Y641.412 Z-18.000
G1 X74.250 Y633.000 Z-18.000
G1 X82.662 Y633.000 Z-18.000
G1 X74.250 Y641.412 Z-18.000
G1 X74.250 Y641.412 Z-22.500
G1 X82.662 Y633.000 Z-22.500
G1 X74.250 Y633.000 Z-22.500
G1 X74.250 Y641.412 Z-22.500
G1 X74.250 Y649.897 Z-22.500
G1 X91.147 Y633.000 Z-22.500
G1 X92.000 Y633.000 Z-22.500
G1 X92.000 Y640.632 Z-22.500
G1 X74.250 Y658.382 Z-22.500
G1 X74.250 Y666.868 Z-22.500
G1 X92.000 Y649.118 Z-22.500
G1 X92.000 Y657.603 Z-22.500
G1 X74.250 Y675.353 Z-22.500
G1 X74.250 Y683.838 Z-22.500
G1 X92.000 Y666.088 Z-22.500
G1 X92.000 Y674.574 Z-22.500
G1 X74.250 Y692.324 Z-22.500
G1 X74.250 Y700.809 Z-22.500
G1 X92.000 Y683.059 Z-22.500
G1 X92.000 Y691.544 Z-22.500
G1 X74.250 Y709.294 Z-22.500
G1 X74.250 Y717.000 Z-22.500
G1 X75.029 Y717.000 Z-22.500
G1 X92.000 Y700.029 Z-22.500
G1 X92.000 Y708.515 Z-22.500
G1 X83.515 Y717.000 Z-22.500
G1 X92.000 Y717.000 Z-22.500
G0 Z5.000
G0 Y717.000 Z5.000
G0 Y717.000 Z3.000
G1 X92.000 Y717.000 Z-22.500
G1 X92.000 Y633.000 Z-22.500
G1 X74.250 Y633.000 Z-22.500
G1 X74.250 Y717.000 Z-22.500
G1 X92.000 Y717.000 Z-22.500
G0 Z5.000
G0 X20.750 Z5.000
G0 X20.750 Z3.000
G1 X20.750 Y717.000 Z-22.500
G1 X20.750 Y633.000 Z-22.500
G1 X3.000 Y633.000 Z-22.500
G1 X3.000 Y717.000 Z-22.500
G1 X20.750 Y717.000 Z-22.500
G0 Z5.000
G0 Y711.882 Z5.000
G0 Y711.882 Z3.000
G1 X20.750 Y711.882 Z-22.500
G1 X20.750 Y717.000 Z-22.500
G1 X15.632 Y717.000 Z-22.500
G1 X20.750 Y711.882 Z-22.500
G1 X20.750 Y703.397 Z-22.500
G1 X7.147 Y717.000 Z-22.500
G1 X3.000 Y717.000 Z-22.500
G1 X3.000 Y712.662 Z-22.500
G1 X20.750 Y694.912 Z-22.500
G1 X20.750 Y686.427 Z-22.500
G1 X3.000 Y704.177 Z-22.500
G1 X3.000 Y695.691 Z-22.500
G1 X20.750 Y677.941 Z-22.500
G1 X20.750 Y669.456 Z-22.500
G1 X3.000 Y687.206 Z-22.500
G1 X3.000 Y678.721 Z-22.500
G1 X20.750 Y660.971 Z-22.500
G1 X20.750 Y652.485 Z-22.500
G1 X3.000 Y670.235 Z-22.500
G1 X3.000 Y661.750 Z-22.500
G1 X20.750 Y644.000 Z-22.500
G1 X20.750 Y635.515 Z-22.500
G1 X3.000 Y653.265 Z-22.500
G1 X3.000 Y644.780 Z-22.500
G1 X14.780 Y633.000 Z-22.500
G1 X6.294 Y633.000 Z-22.500
G1 X3.000 Y633.000 Z-22.500
G1 X3.000 Y636.294 Z-22.500
G1 X6.294 Y633.000 Z-22.500
G0 Z5.000
G0 Y87.000 Z5.000
G0 Y87.000 Z3.000
G1 X6.294 Y87.000 Z-22.500
G1 X20.750 Y87.000 Z-22.500
G1 X20.750 Y3.000 Z-22.500
G1 X3.000 Y3.000 Z-22.500
G1 X3.000 Y87.000 Z-22.500
G1 X6.294 Y87.000 Z-22.500
G0 Z5.000
G0 X20.750 Y83.972 Z5.000
G0 X20.750 Y83.972 Z3.000
G1 X20.750 Y83.972 Z-22.500
G1 X20.750 Y87.000 Z-22.500
G1 X17.722 Y87.000 Z-22.500
G1 X20.750 Y83.972 Z-22.500
G1 X20.750 Y75.486 Z-22.500
G1 X9.236 Y87.000 Z-22.500
G1 X3.000 Y87.000 Z-22.500
G1 X3.000 Y84.751 Z-22.500
G1 X20.750 Y67.001 Z-22.500
G1 X20.750 Y58.516 Z-22.500
G1 X3.000 Y76.266 Z-22.500
G1 X3.000 Y67.781 Z-22.500
G1 X20.750 Y50.031 Z-22.500
G1 X20.750 Y41.545 Z-22.500
G1 X3.000 Y59.295 Z-22.500
G1 X3.000 Y50.810 Z-22.500
G1 X20.750 Y33.060 Z-22.500
G1 X20.750 Y24.575 Z-22.500
G1 X3.000 Y42.325 Z-22.500
G1 X3.000 Y33.839 Z-22.500
G1 X20.750 Y16.089 Z-22.500
G1 X20.750 Y7.604 Z-22.500
G1 X3.000 Y25.354 Z-22.500
G1 X3.000 Y16.869 Z-22.500
G1 X16.869 Y3.000 Z-22.500
G1 X8.384 Y3.000 Z-22.500
G1 X3.000 Y3.000 Z-22.500
G1 X3.000 Y8.384 Z-22.500
G1 X8.384 Y3.000 Z-22.500
G0 Z5.000
G0 X74.250 Z5.000
G0 X74.250 Z3.000
G1 X74.250 Y3.000 Z-22.500
G1 X74.250 Y87.000 Z-22.500
G1 X92.000 Y87.000 Z-22.500
G1 X92.000 Y3.000 Z-22.500
G1 X74.250 Y3.000 Z-22.500
G0 Z5.000
G0 X76.266 Z5.000
G0 X76.266 Z3.000
G1 X76.266 Y3.000 Z-22.500
G1 X74.250 Y5.016 Z-22.500
G1 X74.250 Y3.000 Z-22.500
G1 X76.266 Y3.000 Z-22.500
G1 X84.751 Y3.000 Z-22.500
G1 X74.250 Y13.501 Z-22.500
G1 X74.250 Y21.986 Z-22.500
G1 X92.000 Y4.236 Z-22.500
G1 X92.000 Y12.722 Z-22.500
G1 X74.250 Y30.472 Z-22.500
G1 X74.250 Y38.957 Z-22.500
G1 X92.000 Y21.207 Z-22.500
G1 X92.000 Y29.692 Z-22.500
G1 X74.250 Y47.442 Z-22.500
G1 X74.250 Y55.927 Z-22.500
G1 X92.000 Y38.177 Z-22.500
G1 X92.000 Y46.663 Z-22.500
G1 X74.250 Y64.413 Z-22.500
G1 X74.250 Y72.898 Z-22.500
G1 X92.000 Y55.148 Z-22.500
G1 X92.000 Y63.633 Z-22.500
G1 X74.250 Y81.383 Z-22.500
G1 X74.250 Y87.000 Z-22.500
G1 X77.119 Y87.000 Z-22.500
G1 X92.000 Y72.119 Z-22.500
G1 X92.000 Y80.604 Z-22.500
G1 X85.604 Y87.000 Z-22.500
G1 X92.000 Y87.000 Z-22.500
G1 X92.000 Y80.604 Z-22.500
G0 Z5.000
G0 Z5.000
(Finish operation: Pocket_Shape005)
(Begin operation: Pocket_Shape006)
(Path: Pocket_Shape006)
(Pocket_Shape006)
G0 Z5.000
G0 X92.000 Y627.000
G0 Z3.000
G1 X92.000 Y627.000 Z-6.000
G1 X92.000 Y93.000 Z-6.000
G1 X3.000 Y93.000 Z-6.000
G1 X3.000 Y627.000 Z-6.000
G1 X92.000 Y627.000 Z-6.000
G0 Z5.000
G0 Y627.000 Z5.000
G0 Y627.000 Z3.000
G1 X92.000 Y627.000 Z-6.000
G1 X83.515 Y627.000 Z-6.000
G1 X92.000 Y618.515 Z-6.000
G1 X92.000 Y610.029 Z-6.000
G1 X75.029 Y627.000 Z-6.000
G1 X66.544 Y627.000 Z-6.000
G1 X92.000 Y601.544 Z-6.000
G1 X92.000 Y593.059 Z-6.000
G1 X58.059 Y627.000 Z-6.000
G1 X49.574 Y627.000 Z-6.000
G1 X92.000 Y584.574 Z-6.000
G1 X92.000 Y576.088 Z-6.000
G1 X41.088 Y627.000 Z-6.000
G1 X32.603 Y627.000 Z-6.000
G1 X92.000 Y567.603 Z-6.000
G1 X92.000 Y559.118 Z-6.000
G1 X24.118 Y627.000 Z-6.000
G1 X15.632 Y627.000 Z-6.000
G1 X92.000 Y550.632 Z-6.000
G1 X92.000 Y542.147 Z-6.000
G1 X7.147 Y627.000 Z-6.000
G1 X3.000 Y627.000 Z-6.000
G1 X3.000 Y622.662 Z-6.000
G1 X92.000 Y533.662 Z-6.000
G1 X92.000 Y525.177 Z-6.000
G1 X3.000 Y614.177 Z-6.000
G1 X3.000 Y605.691 Z-6.000
G1 X92.000 Y516.691 Z-6.000
G1 X92.000 Y508.206 Z-6.000
G1 X3.000 Y597.206 Z-6.000
G1 X3.000 Y588.721 Z-6.000
G1 X92.000 Y499.721 Z-6.000
G1 X92.000 Y491.235 Z-6.000
G1 X3.000 Y580.235 Z-6.000
G1 X3.000 Y571.750 Z-6.000
G1 X92.000 Y482.750 Z-6.000
G1 X92.000 Y474.265 Z-6.000
G1 X3.000 Y563.265 Z-6.000
G1 X3.000 Y554.780 Z-6.000
G1 X92.000 Y465.780 Z-6.000
G1 X92.000 Y457.294 Z-6.000
G1 X3.000 Y546.294 Z-6.000
G1 X3.000 Y537.809 Z-6.000
G1 X92.000 Y448.809 Z-6.000
G1 X92.000 Y440.324 Z-6.000
G1 X3.000 Y529.324 Z-6.000
G1 X3.000 Y520.839 Z-6.000
G1 X92.000 Y431.839 Z-6.000
G1 X92.000 Y423.353 Z-6.000
G1 X3.000 Y512.353 Z-6.000
G1 X3.000 Y503.868 Z-6.000
G1 X92.000 Y414.868 Z-6.000
G1 X92.000 Y406.383 Z-6.000
G1 X3.000 Y495.383 Z-6.000
G1 X3.000 Y486.897 Z-6.000
G1 X92.000 Y397.897 Z-6.000
G1 X92.000 Y389.412 Z-6.000
G1 X3.000 Y478.412 Z-6.000
G1 X3.000 Y469.927 Z-6.000
G1 X92.000 Y380.927 Z-6.000
G1 X92.000 Y372.442 Z-6.000
G1 X3.000 Y461.442 Z-6.000
G1 X3.000 Y452.956 Z-6.000
G1 X92.000 Y363.956 Z-6.000
G1 X92.000 Y355.471 Z-6.000
G1 X3.000 Y444.471 Z-6.000
G1 X3.000 Y435.986 Z-6.000
G1 X92.000 Y346.986 Z-6.000
G1 X92.000 Y338.500 Z-6.000
G1 X3.000 Y427.500 Z-6.000
G1 X3.000 Y419.015 Z-6.000
G1 X92.000 Y330.015 Z-6.000
G1 X92.000 Y321.530 Z-6.000
G1 X3.000 Y410.530 Z-6.000
G1 X3.000 Y402.045 Z-6.000
G1 X92.000 Y313.045 Z-6.000
G1 X92.000 Y304.559 Z-6.000
G1 X3.000 Y393.559 Z-6.000
G1 X3.000 Y385.074 Z-6.000
G1 X92.000 Y296.074 Z-6.000
G1 X92.000 Y287.589 Z-6.000
G1 X3.000 Y376.589 Z-6.000
G1 X3.000 Y368.103 Z-6.000
G1 X92.000 Y279.103 Z-6.000
G1 X92.000 Y270.618 Z-6.000
G1 X3.000 Y359.618 Z-6.000
G1 X3.000 Y351.133 Z-6.000
G1 X92.000 Y262.133 Z-6.000
G1 X92.000 Y253.648 Z-6.000
G1 X3.000 Y342.648 Z-6.000
G1 X3.000 Y334.162 Z-6.000
G1 X92.000 Y245.162 Z-6.000
G1 X92.000 Y236.677 Z-6.000
G1 X3.000 Y325.677 Z-6.000
G1 X3.000 Y317.192 Z-6.000
G1 X92.000 Y228.192 Z-6.000
G1 X92.000 Y219.706 Z-6.000
G1 X3.000 Y308.706 Z-6.000
G1 X3.000 Y300.221 Z-6.000
G1 X92.000 Y211.221 Z-6.000
G1 X92.000 Y202.736 Z-6.000
G1 X3.000 Y291.736 Z-6.000
G1 X3.000 Y283.251 Z-6.000
G1 X92.000 Y194.251 Z-6.000
G1 X92.000 Y185.765 Z-6.000
G1 X3.000 Y274.765 Z-6.000
G1 X3.000 Y266.280 Z-6.000
G1 X92.000 Y177.280 Z-6.000
G1 X92.000 Y168.795 Z-6.000
G1 X3.000 Y257.795 Z-6.000
G1 X3.000 Y249.310 Z-6.000
G1 X92.000 Y160.310 Z-6.000
G1 X92.000 Y151.824 Z-6.000
G1 X3.000 Y240.824 Z-6.000
G1 X3.000 Y232.339 Z-6.000
G1 X92.000 Y143.339 Z-6.000
G1 X92.000 Y134.854 Z-6.000
G1 X3.000 Y223.854 Z-6.000
G1 X3.000 Y215.368 Z-6.000
G1 X92.000 Y126.368 Z-6.000
G1 X92.000 Y117.883 Z-6.000
G1 X3.000 Y206.883 Z-6.000
G1 X3.000 Y198.398 Z-6.000
G1 X92.000 Y109.398 Z-6.000
G1 X92.000 Y100.913 Z-6.000
G1 X3.000 Y189.913 Z-6.000
G1 X3.000 Y181.427 Z-6.000
G1 X91.427 Y93.000 Z-6.000
G1 X82.942 Y93.000 Z-6.000
G1 X3.000 Y172.942 Z-6.000
G1 X3.000 Y164.457 Z-6.000
G1 X74.457 Y93.000 Z-6.000
G1 X65.971 Y93.000 Z-6.000
G1 X3.000 Y155.971 Z-6.000
G1 X3.000 Y147.486 Z-6.000
G1 X57.486 Y93.000 Z-6.000
G1 X49.001 Y93.000 Z-6.000
G1 X3.000 Y139.001 Z-6.000
G1 X3.000 Y130.516 Z-6.000
G1 X40.516 Y93.000 Z-6.000
G1 X32.030 Y93.000 Z-6.000
G1 X3.000 Y122.030 Z-6.000
G1 X3.000 Y113.545 Z-6.000
G1 X23.545 Y93.000 Z-6.000
G1 X15.060 Y93.000 Z-6.000
G1 X3.000 Y105.060 Z-6.000
G1 X3.000 Y96.574 Z-6.000
G1 X6.574 Y93.000 Z-6.000
G1 X3.000 Y93.000 Z-6.000
G1 X3.000 Y96.574 Z-6.000
G1 X3.000 Y96.574 Z-12.000
G1 X3.000 Y93.000 Z-12.000
G1 X6.574 Y93.000 Z-12.000
G1 X3.000 Y96.574 Z-12.000
G1 X3.000 Y105.060 Z-12.000
G1 X15.060 Y93.000 Z-12.000
G1 X23.545 Y93.000 Z-12.000
G1 X3.000 Y113.545 Z-12.000
G1 X3.000 Y122.030 Z-12.000
G1 X32.030 Y93.000 Z-12.000
G1 X40.516 Y93.000 Z-12.000
G1 X3.000 Y130.516 Z-12.000
G1 X3.000 Y139.001 Z-12.000
G1 X49.001 Y93.000 Z-12.000
G1 X57.486 Y93.000 Z-12.000
G1 X3.000 Y147.486 Z-12.000
G1 X3.000 Y155.971 Z-12.000
G1 X65.971 Y93.000 Z-12.000
G1 X74.457 Y93.000 Z-12.000
G1 X3.000 Y164.457 Z-12.000
G1 X3.000 Y172.942 Z-12.000
G1 X82.942 Y93.000 Z-12.000
G1 X91.427 Y93.000 Z-12.000
G1 X3.000 Y181.427 Z-12.000
G1 X3.000 Y189.913 Z-12.000
G1 X92.000 Y100.913 Z-12.000
G1 X92.000 Y109.398 Z-12.000
G1 X3.000 Y198.398 Z-12.000
G1 X3.000 Y206.883 Z-12.000
G1 X92.000 Y117.883 Z-12.000
G1 X92.000 Y126.368 Z-12.000
G1 X3.000 Y215.368 Z-12.000
G1 X3.000 Y223.854 Z-12.000
G1 X92.000 Y134.854 Z-12.000
G1 X92.000 Y143.339 Z-12.000
G1 X3.000 Y232.339 Z-12.000
G1 X3.000 Y240.824 Z-12.000
G1 X92.000 Y151.824 Z-12.000
G1 X92.000 Y160.310 Z-12.000
G1 X3.000 Y249.310 Z-12.000
G1 X3.000 Y257.795 Z-12.000
G1 X92.000 Y168.795 Z-12.000
G1 X92.000 Y177.280 Z-12.000
G1 X3.000 Y266.280 Z-12.000
G1 X3.000 Y274.765 Z-12.000
G1 X92.000 Y185.765 Z-12.000
G1 X92.000 Y194.251 Z-12.000
G1 X3.000 Y283.251 Z-12.000
G1 X3.000 Y291.736 Z-12.000
G1 X92.000 Y202.736 Z-12.000
G1 X92.000 Y211.221 Z-12.000
G1 X3.000 Y300.221 Z-12.000
G1 X3.000 Y308.706 Z-12.000
G1 X92.000 Y219.706 Z-12.000
G1 X92.000 Y228.192 Z-12.000
G1 X3.000 Y317.192 Z-12.000
G1 X3.000 Y325.677 Z-12.000
G1 X92.000 Y236.677 Z-12.000
G1 X92.000 Y245.162 Z-12.000
G1 X3.000 Y334.162 Z-12.000
G1 X3.000 Y342.648 Z-12.000
G1 X92.000 Y253.648 Z-12.000
G1 X92.000 Y262.133 Z-12.000
G1 X3.000 Y351.133 Z-12.000
G1 X3.000 Y359.618 Z-12.000
G1 X92.000 Y270.618 Z-12.000
G1 X92.000 Y279.103 Z-12.000
G1 X3.000 Y368.103 Z-12.000
G1 X3.000 Y376.589 Z-12.000
G1 X92.000 Y287.589 Z-12.000
G1 X92.000 Y296.074 Z-12.000
G1 X3.000 Y385.074 Z-12.000
G1 X3.000 Y393.559 Z-12.000
G1 X92.000 Y304.559 Z-12.000
G1 X92.000 Y313.045 Z-12.000
G1 X3.000 Y402.045 Z-12.000
G1 X3.000 Y410.530 Z-12.000
G1 X92.000 Y321.530 Z-12.000
G1 X92.000 Y330.015 Z-12.000
G1 X3.000 Y419.015 Z-12.000
G1 X3.000 Y427.500 Z-12.000
G1 X92.000 Y338.500 Z-12.000
G1 X92.000 Y346.986 Z-12.000
G1 X3.000 Y435.986 Z-12.000
G1 X3.000 Y444.471 Z-12.000
G1 X92.000 Y355.471 Z-12.000
G1 X92.000 Y363.956 Z-12.000
G1 X3.000 Y452.956 Z-12.000
G1 X3.000 Y461.442 Z-12.000
G1 X92.000 Y372.442 Z-12.000
G1 X92.000 Y380.927 Z-12.000
G1 X3.000 Y469.927 Z-12.000
G1 X3.000 Y478.412 Z-12.000
G1 X92.000 Y389.412 Z-12.000
G1 X92.000 Y397.897 Z-12.000
G1 X3.000 Y486.897 Z-12.000
G1 X3.000 Y495.383 Z-12.000
G1 X92.000 Y406.383 Z-12.000
G1 X92.000 Y414.868 Z-12.000
G1 X3.000 Y503.868 Z-12.000
G1 X3.000 Y512.353 Z-12.000
G1 X92.000 Y423.353 Z-12.000
G1 X92.000 Y431.839 Z-12.000
G1 X3.000 Y520.839 Z-12.000
G1 X3.000 Y529.324 Z-12.000
G1 X92.000 Y440.324 Z-12.000
G1 X92.000 Y448.809 Z-12.000
G1 X3.000 Y537.809 Z-12.000
G1 X3.000 Y546.294 Z-12.000
G1 X92.000 Y457.294 Z-12.000
G1 X92.000 Y465.780 Z-12.000
G1 X3.000 Y554.780 Z-12.000
G1 X3.000 Y563.265 Z-12.000
G1 X92.000 Y474.265 Z-12.000
G1 X92.000 Y482.750 Z-12.000
G1 X3.000 Y571.750 Z-12.000
G1 X3.000 Y580.235 Z-12.000
G1 X92.000 Y491.235 Z-12.000
G1 X92.000 Y499.721 Z-12.000
G1 X3.000 Y588.721 Z-12.000
G1 X3.000 Y597.206 Z-12.000
G1 X92.000 Y508.206 Z-12.000
G1 X92.000 Y516.691 Z-12.000
G1 X3.000 Y605.691 Z-12.000
G1 X3.000 Y614.177 Z-12.000
G1 X92.000 Y525.177 Z-12.000
G1 X92.000 Y533.662 Z-12.000
G1 X3.000 Y622.662 Z-12.000
G1 X3.000 Y627.000 Z-12.000
G1 X7.147 Y627.000 Z-12.000
G1 X92.000 Y542.147 Z-12.000
G1 X92.000 Y550.632 Z-12.000
G1 X15.632 Y627.000 Z-12.000
G1 X24.118 Y627.000 Z-12.000
G1 X92.000 Y559.118 Z-12.000
G1 X92.000 Y567.603 Z-12.000
G1 X32.603 Y627.000 Z-12.000
G1 X41.088 Y627.000 Z-12.000
G1 X92.000 Y576.088 Z-12.000
G1 X92.000 Y584.574 Z-12.000
G1 X49.574 Y627.000 Z-12.000
G1 X58.059 Y627.000 Z-12.000
G1 X92.000 Y593.059 Z-12.000
G1 X92.000 Y601.544 Z-12.000
G1 X66.544 Y627.000 Z-12.000
G1 X75.029 Y627.000 Z-12.000
G1 X92.000 Y610.029 Z-12.000
G1 X92.000 Y618.515 Z-12.000
G1 X83.515 Y627.000 Z-12.000
G1 X92.000 Y627.000 Z-12.000
G0 Z5.000
G0 Y627.000 Z5.000
G0 Y627.000 Z3.000
G1 X92.000 Y627.000 Z-12.000
G1 X92.000 Y93.000 Z-12.000
G1 X3.000 Y93.000 Z-12.000
G1 X3.000 Y627.000 Z-12.000
G1 X92.000 Y627.000 Z-12.000
G1 X92.000 Y627.000 Z-18.000
G1 X92.000 Y93.000 Z-18.000
G1 X3.000 Y93.000 Z-18.000
G1 X3.000 Y627.000 Z-18.000
G1 X92.000 Y627.000 Z-18.000
G0 Z5.000
G0 Y627.000 Z5.000
G0 Y627.000 Z3.000
G1 X92.000 Y627.000 Z-18.000
G1 X83.515 Y627.000 Z-18.000
G1 X92.000 Y618.515 Z-18.000
G1 X92.000 Y610.029 Z-18.000
G1 X75.029 Y627.000 Z-18.000
G1 X66.544 Y627.000 Z-18.000
G1 X92.000 Y601.544 Z-18.000
G1 X92.000 Y593.059 Z-18.000
G1 X58.059 Y627.000 Z-18.000
G1 X49.574 Y627.000 Z-18.000
G1 X92.000 Y584.574 Z-18.000
G1 X92.000 Y576.088 Z-18.000
G1 X41.088 Y627.000 Z-18.000
G1 X32.603 Y627.000 Z-18.000
G1 X92.000 Y567.603 Z-18.000
G1 X92.000 Y559.118 Z-18.000
G1 X24.118 Y627.000 Z-18.000
G1 X15.632 Y627.000 Z-18.000
G1 X92.000 Y550.632 Z-18.000
G1 X92.000 Y542.147 Z-18.000
G1 X7.147 Y627.000 Z-18.000
G1 X3.000 Y627.000 Z-18.000
G1 X3.000 Y622.662 Z-18.000
G1 X92.000 Y533.662 Z-18.000
G1 X92.000 Y525.177 Z-18.000
G1 X3.000 Y614.177 Z-18.000
G1 X3.000 Y605.691 Z-18.000
G1 X92.000 Y516.691 Z-18.000
G1 X92.000 Y508.206 Z-18.000
G1 X3.000 Y597.206 Z-18.000
G1 X3.000 Y588.721 Z-18.000
G1 X92.000 Y499.721 Z-18.000
G1 X92.000 Y491.235 Z-18.000
G1 X3.000 Y580.235 Z-18.000
G1 X3.000 Y571.750 Z-18.000
G1 X92.000 Y482.750 Z-18.000
G1 X92.000 Y474.265 Z-18.000
G1 X3.000 Y563.265 Z-18.000
G1 X3.000 Y554.780 Z-18.000
G1 X92.000 Y465.780 Z-18.000
G1 X92.000 Y457.294 Z-18.000
G1 X3.000 Y546.294 Z-18.000
G1 X3.000 Y537.809 Z-18.000
G1 X92.000 Y448.809 Z-18.000
G1 X92.000 Y440.324 Z-18.000
G1 X3.000 Y529.324 Z-18.000
G1 X3.000 Y520.839 Z-18.000
G1 X92.000 Y431.839 Z-18.000
G1 X92.000 Y423.353 Z-18.000
G1 X3.000 Y512.353 Z-18.000
G1 X3.000 Y503.868 Z-18.000
G1 X92.000 Y414.868 Z-18.000
G1 X92.000 Y406.383 Z-18.000
G1 X3.000 Y495.383 Z-18.000
G1 X3.000 Y486.897 Z-18.000
G1 X92.000 Y397.897 Z-18.000
G1 X92.000 Y389.412 Z-18.000
G1 X3.000 Y478.412 Z-18.000
G1 X3.000 Y469.927 Z-18.000
G1 X92.000 Y380.927 Z-18.000
G1 X92.000 Y372.442 Z-18.000
G1 X3.000 Y461.442 Z-18.000
G1 X3.000 Y452.956 Z-18.000
G1 X92.000 Y363.956 Z-18.000
G1 X92.000 Y355.471 Z-18.000
G1 X3.000 Y444.471 Z-18.000
G1 X3.000 Y435.986 Z-18.000
G1 X92.000 Y346.986 Z-18.000
G1 X92.000 Y338.500 Z-18.000
G1 X3.000 Y427.500 Z-18.000
G1 X3.000 Y419.015 Z-18.000
G1 X92.000 Y330.015 Z-18.000
G1 X92.000 Y321.530 Z-18.000
G1 X3.000 Y410.530 Z-18.000
G1 X3.000 Y402.045 Z-18.000
G1 X92.000 Y313.045 Z-18.000
G1 X92.000 Y304.559 Z-18.000
G1 X3.000 Y393.559 Z-18.000
G1 X3.000 Y385.074 Z-18.000
G1 X92.000 Y296.074 Z-18.000
G1 X92.000 Y287.589 Z-18.000
G1 X3.000 Y376.589 Z-18.000
G1 X3.000 Y368.103 Z-18.000
G1 X92.000 Y279.103 Z-18.000
G1 X92.000 Y270.618 Z-18.000
G1 X3.000 Y359.618 Z-18.000
G1 X3.000 Y351.133 Z-18.000
G1 X92.000 Y262.133 Z-18.000
G1 X92.000 Y253.648 Z-18.000
G1 X3.000 Y342.648 Z-18.000
G1 X3.000 Y334.162 Z-18.000
G1 X92.000 Y245.162 Z-18.000
G1 X92.000 Y236.677 Z-18.000
G1 X3.000 Y325.677 Z-18.000
G1 X3.000 Y317.192 Z-18.000
G1 X92.000 Y228.192 Z-18.000
G1 X92.000 Y219.706 Z-18.000
G1 X3.000 Y308.706 Z-18.000
G1 X3.000 Y300.221 Z-18.000
G1 X92.000 Y211.221 Z-18.000
G1 X92.000 Y202.736 Z-18.000
G1 X3.000 Y291.736 Z-18.000
G1 X3.000 Y283.251 Z-18.000
G1 X92.000 Y194.251 Z-18.000
G1 X92.000 Y185.765 Z-18.000
G1 X3.000 Y274.765 Z-18.000
G1 X3.000 Y266.280 Z-18.000
G1 X92.000 Y177.280 Z-18.000
G1 X92.000 Y168.795 Z-18.000
G1 X3.000 Y257.795 Z-18.000
G1 X3.000 Y249.310 Z-18.000
G1 X92.000 Y160.310 Z-18.000
G1 X92.000 Y151.824 Z-18.000
G1 X3.000 Y240.824 Z-18.000
G1 X3.000 Y232.339 Z-18.000
G1 X92.000 Y143.339 Z-18.000
G1 X92.000 Y134.854 Z-18.000
G1 X3.000 Y223.854 Z-18.000
G1 X3.000 Y215.368 Z-18.000
G1 X92.000 Y126.368 Z-18.000
G1 X92.000 Y117.883 Z-18.000
G1 X3.000 Y206.883 Z-18.000
G1 X3.000 Y198.398 Z-18.000
G1 X92.000 Y109.398 Z-18.000
G1 X92.000 Y100.913 Z-18.000
G1 X3.000 Y189.913 Z-18.000
G1 X3.000 Y181.427 Z-18.000
G1 X91.427 Y93.000 Z-18.000
G1 X82.942 Y93.000 Z-18.000
G1 X3.000 Y172.942 Z-18.000
G1 X3.000 Y164.457 Z-18.000
G1 X74.457 Y93.000 Z-18.000
G1 X65.971 Y93.000 Z-18.000
G1 X3.000 Y155.971 Z-18.000
G1 X3.000 Y147.486 Z-18.000
G1 X57.486 Y93.000 Z-18.000
G1 X49.001 Y93.000 Z-18.000
G1 X3.000 Y139.001 Z-18.000
G1 X3.000 Y130.516 Z-18.000
G1 X40.516 Y93.000 Z-18.000
G1 X32.030 Y93.000 Z-18.000
G1 X3.000 Y122.030 Z-18.000
G1 X3.000 Y113.545 Z-18.000
G1 X23.545 Y93.000 Z-18.000
G1 X15.060 Y93.000 Z-18.000
G1 X3.000 Y105.060 Z-18.000
G1 X3.000 Y96.574 Z-18.000
G1 X6.574 Y93.000 Z-18.000
G1 X3.000 Y93.000 Z-18.000
G1 X3.000 Y96.574 Z-18.000
G1 X3.000 Y96.574 Z-24.000
G1 X3.000 Y627.000 Z-24.000
G1 X92.000 Y627.000 Z-24.000
G1 X92.000 Y93.000 Z-24.000
G1 X3.000 Y93.000 Z-24.000
G1 X3.000 Y96.574 Z-24.000
G1 X3.000 Y96.574 Z-24.000
G1 X3.000 Y93.000 Z-24.000
G1 X6.574 Y93.000 Z-24.000
G1 X3.000 Y96.574 Z-24.000
G1 X3.000 Y105.060 Z-24.000
G1 X15.060 Y93.000 Z-24.000
G1 X23.545 Y93.000 Z-24.000
G1 X3.000 Y113.545 Z-24.000
G1 X3.000 Y122.030 Z-24.000
G1 X32.030 Y93.000 Z-24.000
G1 X40.516 Y93.000 Z-24.000
G1 X3.000 Y130.516 Z-24.000
G1 X3.000 Y139.001 Z-24.000
G1 X49.001 Y93.000 Z-24.000
G1 X57.486 Y93.000 Z-24.000
G1 X3.000 Y147.486 Z-24.000
G1 X3.000 Y155.971 Z-24.000
G1 X65.971 Y93.000 Z-24.000
G1 X74.457 Y93.000 Z-24.000
G1 X3.000 Y164.457 Z-24.000
G1 X3.000 Y172.942 Z-24.000
G1 X82.942 Y93.000 Z-24.000
G1 X91.427 Y93.000 Z-24.000
G1 X3.000 Y181.427 Z-24.000
G1 X3.000 Y189.913 Z-24.000
G1 X92.000 Y100.913 Z-24.000
G1 X92.000 Y109.398 Z-24.000
G1 X3.000 Y198.398 Z-24.000
G1 X3.000 Y206.883 Z-24.000
G1 X92.000 Y117.883 Z-24.000
G1 X92.000 Y126.368 Z-24.000
G1 X3.000 Y215.368 Z-24.000
G1 X3.000 Y223.854 Z-24.000
G1 X92.000 Y134.854 Z-24.000
G1 X92.000 Y143.339 Z-24.000
G1 X3.000 Y232.339 Z-24.000
G1 X3.000 Y240.824 Z-24.000
G1 X92.000 Y151.824 Z-24.000
G1 X92.000 Y160.310 Z-24.000
G1 X3.000 Y249.310 Z-24.000
G1 X3.000 Y257.795 Z-24.000
G1 X92.000 Y168.795 Z-24.000
G1 X92.000 Y177.280 Z-24.000
G1 X3.000 Y266.280 Z-24.000
G1 X3.000 Y274.765 Z-24.000
G1 X92.000 Y185.765 Z-24.000
G1 X92.000 Y194.251 Z-24.000
G1 X3.000 Y283.251 Z-24.000
G1 X3.000 Y291.736 Z-24.000
G1 X92.000 Y202.736 Z-24.000
G1 X92.000 Y211.221 Z-24.000
G1 X3.000 Y300.221 Z-24.000
G1 X3.000 Y308.706 Z-24.000
G1 X92.000 Y219.706 Z-24.000
G1 X92.000 Y228.192 Z-24.000
G1 X3.000 Y317.192 Z-24.000
G1 X3.000 Y325.677 Z-24.000
G1 X92.000 Y236.677 Z-24.000
G1 X92.000 Y245.162 Z-24.000
G1 X3.000 Y334.162 Z-24.000
G1 X3.000 Y342.648 Z-24.000
G1 X92.000 Y253.648 Z-24.000
G1 X92.000 Y262.133 Z-24.000
G1 X3.000 Y351.133 Z-24.000
G1 X3.000 Y359.618 Z-24.000
G1 X92.000 Y270.618 Z-24.000
G1 X92.000 Y279.103 Z-24.000
G1 X3.000 Y368.103 Z-24.000
G1 X3.000 Y376.589 Z-24.000
G1 X92.000 Y287.589 Z-24.000
G1 X92.000 Y296.074 Z-24.000
G1 X3.000 Y385.074 Z-24.000
G1 X3.000 Y393.559 Z-24.000
G1 X92.000 Y304.559 Z-24.000
G1 X92.000 Y313.045 Z-24.000
G1 X3.000 Y402.045 Z-24.000
G1 X3.000 Y410.530 Z-24.000
G1 X92.000 Y321.530 Z-24.000
G1 X92.000 Y330.015 Z-24.000
G1 X3.000 Y419.015 Z-24.000
G1 X3.000 Y427.500 Z-24.000
G1 X92.000 Y338.500 Z-24.000
G1 X92.000 Y346.986 Z-24.000
G1 X3.000 Y435.986 Z-24.000
G1 X3.000 Y444.471 Z-24.000
G1 X92.000 Y355.471 Z-24.000
G1 X92.000 Y363.956 Z-24.000
G1 X3.000 Y452.956 Z-24.000
G1 X3.000 Y461.442 Z-24.000
G1 X92.000 Y372.442 Z-24.000
G1 X92.000 Y380.927 Z-24.000
G1 X3.000 Y469.927 Z-24.000
G1 X3.000 Y478.412 Z-24.000
G1 X92.000 Y389.412 Z-24.000
G1 X92.000 Y397.897 Z-24.000
G1 X3.000 Y486.897 Z-24.000
G1 X3.000 Y495.383 Z-24.000
G1 X92.000 Y406.383 Z-24.000
G1 X92.000 Y414.868 Z-24.000
G1 X3.000 Y503.868 Z-24.000
G1 X3.000 Y512.353 Z-24.000
G1 X92.000 Y423.353 Z-24.000
G1 X92.000 Y431.839 Z-24.000
G1 X3.000 Y520.839 Z-24.000
G1 X3.000 Y529.324 Z-24.000
G1 X92.000 Y440.324 Z-24.000
G1 X92.000 Y448.809 Z-24.000
G1 X3.000 Y537.809 Z-24.000
G1 X3.000 Y546.294 Z-24.000
G1 X92.000 Y457.294 Z-24.000
G1 X92.000 Y465.780 Z-24.000
G1 X3.000 Y554.780 Z-24.000
G1 X3.000 Y563.265 Z-24.000
G1 X92.000 Y474.265 Z-24.000
G1 X92.000 Y482.750 Z-24.000
G1 X3.000 Y571.750 Z-24.000
G1 X3.000 Y580.235 Z-24.000
G1 X92.000 Y491.235 Z-24.000
G1 X92.000 Y499.721 Z-24.000
G1 X3.000 Y588.721 Z-24.000
G1 X3.000 Y597.206 Z-24.000
G1 X92.000 Y508.206 Z-24.000
G1 X92.000 Y516.691 Z-24.000
G1 X3.000 Y605.691 Z-24.000
G1 X3.000 Y614.177 Z-24.000
G1 X92.000 Y525.177 Z-24.000
G1 X92.000 Y533.662 Z-24.000
G1 X3.000 Y622.662 Z-24.000
G1 X3.000 Y627.000 Z-24.000
G1 X7.147 Y627.000 Z-24.000
G1 X92.000 Y542.147 Z-24.000
G1 X92.000 Y550.632 Z-24.000
G1 X15.632 Y627.000 Z-24.000
G1 X24.118 Y627.000 Z-24.000
G1 X92.000 Y559.118 Z-24.000
G1 X92.000 Y567.603 Z-24.000
G1 X32.603 Y627.000 Z-24.000
G1 X41.088 Y627.000 Z-24.000
G1 X92.000 Y576.088 Z-24.000
G1 X92.000 Y584.574 Z-24.000
G1 X49.574 Y627.000 Z-24.000
G1 X58.059 Y627.000 Z-24.000
G1 X92.000 Y593.059 Z-24.000
G1 X92.000 Y601.544 Z-24.000
G1 X66.544 Y627.000 Z-24.000
G1 X75.029 Y627.000 Z-24.000
G1 X92.000 Y610.029 Z-24.000
G1 X92.000 Y618.515 Z-24.000
G1 X83.515 Y627.000 Z-24.000
G1 X92.000 Y627.000 Z-24.000
G1 X92.000 Y627.000 Z-30.000
G1 X83.515 Y627.000 Z-30.000
G1 X92.000 Y618.515 Z-30.000
G1 X92.000 Y610.029 Z-30.000
G1 X75.029 Y627.000 Z-30.000
G1 X66.544 Y627.000 Z-30.000
G1 X92.000 Y601.544 Z-30.000
G1 X92.000 Y593.059 Z-30.000
G1 X58.059 Y627.000 Z-30.000
G1 X49.574 Y627.000 Z-30.000
G1 X92.000 Y584.574 Z-30.000
G1 X92.000 Y576.088 Z-30.000
G1 X41.088 Y627.000 Z-30.000
G1 X32.603 Y627.000 Z-30.000
G1 X92.000 Y567.603 Z-30.000
G1 X92.000 Y559.118 Z-30.000
G1 X24.118 Y627.000 Z-30.000
G1 X15.632 Y627.000 Z-30.000
G1 X92.000 Y550.632 Z-30.000
G1 X92.000 Y542.147 Z-30.000
G1 X7.147 Y627.000 Z-30.000
G1 X3.000 Y627.000 Z-30.000
G1 X3.000 Y622.662 Z-30.000
G1 X92.000 Y533.662 Z-30.000
G1 X92.000 Y525.177 Z-30.000
G1 X3.000 Y614.177 Z-30.000
G1 X3.000 Y605.691 Z-30.000
G1 X92.000 Y516.691 Z-30.000
G1 X92.000 Y508.206 Z-30.000
G1 X3.000 Y597.206 Z-30.000
G1 X3.000 Y588.721 Z-30.000
G1 X92.000 Y499.721 Z-30.000
G1 X92.000 Y491.235 Z-30.000
G1 X3.000 Y580.235 Z-30.000
G1 X3.000 Y571.750 Z-30.000
G1 X92.000 Y482.750 Z-30.000
G1 X92.000 Y474.265 Z-30.000
G1 X3.000 Y563.265 Z-30.000
G1 X3.000 Y554.780 Z-30.000
G1 X92.000 Y465.780 Z-30.000
G1 X92.000 Y457.294 Z-30.000
G1 X3.000 Y546.294 Z-30.000
G1 X3.000 Y537.809 Z-30.000
G1 X92.000 Y448.809 Z-30.000
G1 X92.000 Y440.324 Z-30.000
G1 X3.000 Y529.324 Z-30.000
G1 X3.000 Y520.839 Z-30.000
G1 X92.000 Y431.839 Z-30.000
G1 X92.000 Y423.353 Z-30.000
G1 X3.000 Y512.353 Z-30.000
G1 X3.000 Y503.868 Z-30.000
G1 X92.000 Y414.868 Z-30.000
G1 X92.000 Y406.383 Z-30.000
G1 X3.000 Y495.383 Z-30.000
G1 X3.000 Y486.897 Z-30.000
G1 X92.000 Y397.897 Z-30.000
G1 X92.000 Y389.412 Z-30.000
G1 X3.000 Y478.412 Z-30.000
G1 X3.000 Y469.927 Z-30.000
G1 X92.000 Y380.927 Z-30.000
G1 X92.000 Y372.442 Z-30.000
G1 X3.000 Y461.442 Z-30.000
G1 X3.000 Y452.956 Z-30.000
G1 X92.000 Y363.956 Z-30.000
G1 X92.000 Y355.471 Z-30.000
G1 X3.000 Y444.471 Z-30.000
G1 X3.000 Y435.986 Z-30.000
G1 X92.000 Y346.986 Z-30.000
G1 X92.000 Y338.500 Z-30.000
G1 X3.000 Y427.500 Z-30.000
G1 X3.000 Y419.015 Z-30.000
G1 X92.000 Y330.015 Z-30.000
G1 X92.000 Y321.530 Z-30.000
G1 X3.000 Y410.530 Z-30.000
G1 X3.000 Y402.045 Z-30.000
G1 X92.000 Y313.045 Z-30.000
G1 X92.000 Y304.559 Z-30.000
G1 X3.000 Y393.559 Z-30.000
G1 X3.000 Y385.074 Z-30.000
G1 X92.000 Y296.074 Z-30.000
G1 X92.000 Y287.589 Z-30.000
G1 X3.000 Y376.589 Z-30.000
G1 X3.000 Y368.103 Z-30.000
G1 X92.000 Y279.103 Z-30.000
G1 X92.000 Y270.618 Z-30.000
G1 X3.000 Y359.618 Z-30.000
G1 X3.000 Y351.133 Z-30.000
G1 X92.000 Y262.133 Z-30.000
G1 X92.000 Y253.648 Z-30.000
G1 X3.000 Y342.648 Z-30.000
G1 X3.000 Y334.162 Z-30.000
G1 X92.000 Y245.162 Z-30.000
G1 X92.000 Y236.677 Z-30.000
G1 X3.000 Y325.677 Z-30.000
G1 X3.000 Y317.192 Z-30.000
G1 X92.000 Y228.192 Z-30.000
G1 X92.000 Y219.706 Z-30.000
G1 X3.000 Y308.706 Z-30.000
G1 X3.000 Y300.221 Z-30.000
G1 X92.000 Y211.221 Z-30.000
G1 X92.000 Y202.736 Z-30.000
G1 X3.000 Y291.736 Z-30.000
G1 X3.000 Y283.251 Z-30.000
G1 X92.000 Y194.251 Z-30.000
G1 X92.000 Y185.765 Z-30.000
G1 X3.000 Y274.765 Z-30.000
G1 X3.000 Y266.280 Z-30.000
G1 X92.000 Y177.280 Z-30.000
G1 X92.000 Y168.795 Z-30.000
G1 X3.000 Y257.795 Z-30.000
G1 X3.000 Y249.310 Z-30.000
G1 X92.000 Y160.310 Z-30.000
G1 X92.000 Y151.824 Z-30.000
G1 X3.000 Y240.824 Z-30.000
G1 X3.000 Y232.339 Z-30.000
G1 X92.000 Y143.339 Z-30.000
G1 X92.000 Y134.854 Z-30.000
G1 X3.000 Y223.854 Z-30.000
G1 X3.000 Y215.368 Z-30.000
G1 X92.000 Y126.368 Z-30.000
G1 X92.000 Y117.883 Z-30.000
G1 X3.000 Y206.883 Z-30.000
G1 X3.000 Y198.398 Z-30.000
G1 X92.000 Y109.398 Z-30.000
G1 X92.000 Y100.913 Z-30.000
G1 X3.000 Y189.913 Z-30.000
G1 X3.000 Y181.427 Z-30.000
G1 X91.427 Y93.000 Z-30.000
G1 X82.942 Y93.000 Z-30.000
G1 X3.000 Y172.942 Z-30.000
G1 X3.000 Y164.457 Z-30.000
G1 X74.457 Y93.000 Z-30.000
G1 X65.971 Y93.000 Z-30.000
G1 X3.000 Y155.971 Z-30.000
G1 X3.000 Y147.486 Z-30.000
G1 X57.486 Y93.000 Z-30.000
G1 X49.001 Y93.000 Z-30.000
G1 X3.000 Y139.001 Z-30.000
G1 X3.000 Y130.516 Z-30.000
G1 X40.516 Y93.000 Z-30.000
G1 X32.030 Y93.000 Z-30.000
G1 X3.000 Y122.030 Z-30.000
G1 X3.000 Y113.545 Z-30.000
G1 X23.545 Y93.000 Z-30.000
G1 X15.060 Y93.000 Z-30.000
G1 X3.000 Y105.060 Z-30.000
G1 X3.000 Y96.574 Z-30.000
G1 X6.574 Y93.000 Z-30.000
G1 X3.000 Y93.000 Z-30.000
G1 X3.000 Y96.574 Z-30.000
G1 X3.000 Y96.574 Z-30.000
G1 X3.000 Y627.000 Z-30.000
G1 X92.000 Y627.000 Z-30.000
G1 X92.000 Y93.000 Z-30.000
G1 X3.000 Y93.000 Z-30.000
G1 X3.000 Y96.574 Z-30.000
G1 X3.000 Y96.574 Z-36.000
G1 X3.000 Y93.000 Z-36.000
G1 X6.574 Y93.000 Z-36.000
G1 X3.000 Y96.574 Z-36.000
G1 X3.000 Y105.060 Z-36.000
G1 X15.060 Y93.000 Z-36.000
G1 X23.545 Y93.000 Z-36.000
G1 X3.000 Y113.545 Z-36.000
G1 X3.000 Y122.030 Z-36.000
G1 X32.030 Y93.000 Z-36.000
G1 X40.516 Y93.000 Z-36.000
G1 X3.000 Y130.516 Z-36.000
G1 X3.000 Y139.001 Z-36.000
G1 X49.001 Y93.000 Z-36.000
G1 X57.486 Y93.000 Z-36.000
G1 X3.000 Y147.486 Z-36.000
G1 X3.000 Y155.971 Z-36.000
G1 X65.971 Y93.000 Z-36.000
G1 X74.457 Y93.000 Z-36.000
G1 X3.000 Y164.457 Z-36.000
G1 X3.000 Y172.942 Z-36.000
G1 X82.942 Y93.000 Z-36.000
G1 X91.427 Y93.000 Z-36.000
G1 X3.000 Y181.427 Z-36.000
G1 X3.000 Y189.913 Z-36.000
G1 X92.000 Y100.913 Z-36.000
G1 X92.000 Y109.398 Z-36.000
G1 X3.000 Y198.398 Z-36.000
G1 X3.000 Y206.883 Z-36.000
G1 X92.000 Y117.883 Z-36.000
G1 X92.000 Y126.368 Z-36.000
G1 X3.000 Y215.368 Z-36.000
G1 X3.000 Y223.854 Z-36.000
G1 X92.000 Y134.854 Z-36.000
G1 X92.000 Y143.339 Z-36.000
G1 X3.000 Y232.339 Z-36.000
G1 X3.000 Y240.824 Z-36.000
G1 X92.000 Y151.824 Z-36.000
G1 X92.000 Y160.310 Z-36.000
G1 X3.000 Y249.310 Z-36.000
G1 X3.000 Y257.795 Z-36.000
G1 X92.000 Y168.795 Z-36.000
G1 X92.000 Y177.280 Z-36.000
G1 X3.000 Y266.280 Z-36.000
G1 X3.000 Y274.765 Z-36.000
G1 X92.000 Y185.765 Z-36.000
G1 X92.000 Y194.251 Z-36.000
G1 X3.000 Y283.251 Z-36.000
G1 X3.000 Y291.736 Z-36.000
G1 X92.000 Y202.736 Z-36.000
G1 X92.000 Y211.221 Z-36.000
G1 X3.000 Y300.221 Z-36.000
G1 X3.000 Y308.706 Z-36.000
G1 X92.000 Y219.706 Z-36.000
G1 X92.000 Y228.192 Z-36.000
G1 X3.000 Y317.192 Z-36.000
G1 X3.000 Y325.677 Z-36.000
G1 X92.000 Y236.677 Z-36.000
G1 X92.000 Y245.162 Z-36.000
G1 X3.000 Y334.162 Z-36.000
G1 X3.000 Y342.648 Z-36.000
G1 X92.000 Y253.648 Z-36.000
G1 X92.000 Y262.133 Z-36.000
G1 X3.000 Y351.133 Z-36.000
G1 X3.000 Y359.618 Z-36.000
G1 X92.000 Y270.618 Z-36.000
G1 X92.000 Y279.103 Z-36.000
G1 X3.000 Y368.103 Z-36.000
G1 X3.000 Y376.589 Z-36.000
G1 X92.000 Y287.589 Z-36.000
G1 X92.000 Y296.074 Z-36.000
G1 X3.000 Y385.074 Z-36.000
G1 X3.000 Y393.559 Z-36.000
G1 X92.000 Y304.559 Z-36.000
G1 X92.000 Y313.045 Z-36.000
G1 X3.000 Y402.045 Z-36.000
G1 X3.000 Y410.530 Z-36.000
G1 X92.000 Y321.530 Z-36.000
G1 X92.000 Y330.015 Z-36.000
G1 X3.000 Y419.015 Z-36.000
G1 X3.000 Y427.500 Z-36.000
G1 X92.000 Y338.500 Z-36.000
G1 X92.000 Y346.986 Z-36.000
G1 X3.000 Y435.986 Z-36.000
G1 X3.000 Y444.471 Z-36.000
G1 X92.000 Y355.471 Z-36.000
G1 X92.000 Y363.956 Z-36.000
G1 X3.000 Y452.956 Z-36.000
G1 X3.000 Y461.442 Z-36.000
G1 X92.000 Y372.442 Z-36.000
G1 X92.000 Y380.927 Z-36.000
G1 X3.000 Y469.927 Z-36.000
G1 X3.000 Y478.412 Z-36.000
G1 X92.000 Y389.412 Z-36.000
G1 X92.000 Y397.897 Z-36.000
G1 X3.000 Y486.897 Z-36.000
G1 X3.000 Y495.383 Z-36.000
G1 X92.000 Y406.383 Z-36.000
G1 X92.000 Y414.868 Z-36.000
G1 X3.000 Y503.868 Z-36.000
G1 X3.000 Y512.353 Z-36.000
G1 X92.000 Y423.353 Z-36.000
G1 X92.000 Y431.839 Z-36.000
G1 X3.000 Y520.839 Z-36.000
G1 X3.000 Y529.324 Z-36.000
G1 X92.000 Y440.324 Z-36.000
G1 X92.000 Y448.809 Z-36.000
G1 X3.000 Y537.809 Z-36.000
G1 X3.000 Y546.294 Z-36.000
G1 X92.000 Y457.294 Z-36.000
G1 X92.000 Y465.780 Z-36.000
G1 X3.000 Y554.780 Z-36.000
G1 X3.000 Y563.265 Z-36.000
G1 X92.000 Y474.265 Z-36.000
G1 X92.000 Y482.750 Z-36.000
G1 X3.000 Y571.750 Z-36.000
G1 X3.000 Y580.235 Z-36.000
G1 X92.000 Y491.235 Z-36.000
G1 X92.000 Y499.721 Z-36.000
G1 X3.000 Y588.721 Z-36.000
G1 X3.000 Y597.206 Z-36.000
G1 X92.000 Y508.206 Z-36.000
G1 X92.000 Y516.691 Z-36.000
G1 X3.000 Y605.691 Z-36.000
G1 X3.000 Y614.177 Z-36.000
G1 X92.000 Y525.177 Z-36.000
G1 X92.000 Y533.662 Z-36.000
G1 X3.000 Y622.662 Z-36.000
G1 X3.000 Y627.000 Z-36.000
G1 X7.147 Y627.000 Z-36.000
G1 X92.000 Y542.147 Z-36.000
G1 X92.000 Y550.632 Z-36.000
G1 X15.632 Y627.000 Z-36.000
G1 X24.118 Y627.000 Z-36.000
G1 X92.000 Y559.118 Z-36.000
G1 X92.000 Y567.603 Z-36.000
G1 X32.603 Y627.000 Z-36.000
G1 X41.088 Y627.000 Z-36.000
G1 X92.000 Y576.088 Z-36.000
G1 X92.000 Y584.574 Z-36.000
G1 X49.574 Y627.000 Z-36.000
G1 X58.059 Y627.000 Z-36.000
G1 X92.000 Y593.059 Z-36.000
G1 X92.000 Y601.544 Z-36.000
G1 X66.544 Y627.000 Z-36.000
G1 X75.029 Y627.000 Z-36.000
G1 X92.000 Y610.029 Z-36.000
G1 X92.000 Y618.515 Z-36.000
G1 X83.515 Y627.000 Z-36.000
G1 X92.000 Y627.000 Z-36.000
G0 Z5.000
G0 Y627.000 Z5.000
G0 Y627.000 Z3.000
G1 X92.000 Y627.000 Z-36.000
G1 X92.000 Y93.000 Z-36.000
G1 X3.000 Y93.000 Z-36.000
G1 X3.000 Y627.000 Z-36.000
G1 X92.000 Y627.000 Z-36.000
G1 X92.000 Y627.000 Z-42.000
G1 X92.000 Y93.000 Z-42.000
G1 X3.000 Y93.000 Z-42.000
G1 X3.000 Y627.000 Z-42.000
G1 X92.000 Y627.000 Z-42.000
G0 Z5.000
G0 Y627.000 Z5.000
G0 Y627.000 Z3.000
G1 X92.000 Y627.000 Z-42.000
G1 X83.515 Y627.000 Z-42.000
G1 X92.000 Y618.515 Z-42.000
G1 X92.000 Y610.029 Z-42.000
G1 X75.029 Y627.000 Z-42.000
G1 X66.544 Y627.000 Z-42.000
G1 X92.000 Y601.544 Z-42.000
G1 X92.000 Y593.059 Z-42.000
G1 X58.059 Y627.000 Z-42.000
G1 X49.574 Y627.000 Z-42.000
G1 X92.000 Y584.574 Z-42.000
G1 X92.000 Y576.088 Z-42.000
G1 X41.088 Y627.000 Z-42.000
G1 X32.603 Y627.000 Z-42.000
G1 X92.000 Y567.603 Z-42.000
G1 X92.000 Y559.118 Z-42.000
G1 X24.118 Y627.000 Z-42.000
G1 X15.632 Y627.000 Z-42.000
G1 X92.000 Y550.632 Z-42.000
G1 X92.000 Y542.147 Z-42.000
G1 X7.147 Y627.000 Z-42.000
G1 X3.000 Y627.000 Z-42.000
G1 X3.000 Y622.662 Z-42.000
G1 X92.000 Y533.662 Z-42.000
G1 X92.000 Y525.177 Z-42.000
G1 X3.000 Y614.177 Z-42.000
G1 X3.000 Y605.691 Z-42.000
G1 X92.000 Y516.691 Z-42.000
G1 X92.000 Y508.206 Z-42.000
G1 X3.000 Y597.206 Z-42.000
G1 X3.000 Y588.721 Z-42.000
G1 X92.000 Y499.721 Z-42.000
G1 X92.000 Y491.235 Z-42.000
G1 X3.000 Y580.235 Z-42.000
G1 X3.000 Y571.750 Z-42.000
G1 X92.000 Y482.750 Z-42.000
G1 X92.000 Y474.265 Z-42.000
G1 X3.000 Y563.265 Z-42.000
G1 X3.000 Y554.780 Z-42.000
G1 X92.000 Y465.780 Z-42.000
G1 X92.000 Y457.294 Z-42.000
G1 X3.000 Y546.294 Z-42.000
G1 X3.000 Y537.809 Z-42.000
G1 X92.000 Y448.809 Z-42.000
G1 X92.000 Y440.324 Z-42.000
G1 X3.000 Y529.324 Z-42.000
G1 X3.000 Y520.839 Z-42.000
G1 X92.000 Y431.839 Z-42.000
G1 X92.000 Y423.353 Z-42.000
G1 X3.000 Y512.353 Z-42.000
G1 X3.000 Y503.868 Z-42.000
G1 X92.000 Y414.868 Z-42.000
G1 X92.000 Y406.383 Z-42.000
G1 X3.000 Y495.383 Z-42.000
G1 X3.000 Y486.897 Z-42.000
G1 X92.000 Y397.897 Z-42.000
G1 X92.000 Y389.412 Z-42.000
G1 X3.000 Y478.412 Z-42.000
G1 X3.000 Y469.927 Z-42.000
G1 X92.000 Y380.927 Z-42.000
G1 X92.000 Y372.442 Z-42.000
G1 X3.000 Y461.442 Z-42.000
G1 X3.000 Y452.956 Z-42.000
G1 X92.000 Y363.956 Z-42.000
G1 X92.000 Y355.471 Z-42.000
G1 X3.000 Y444.471 Z-42.000
G1 X3.000 Y435.986 Z-42.000
G1 X92.000 Y346.986 Z-42.000
G1 X92.000 Y338.500 Z-42.000
G1 X3.000 Y427.500 Z-42.000
G1 X3.000 Y419.015 Z-42.000
G1 X92.000 Y330.015 Z-42.000
G1 X92.000 Y321.530 Z-42.000
G1 X3.000 Y410.530 Z-42.000
G1 X3.000 Y402.045 Z-42.000
G1 X92.000 Y313.045 Z-42.000
G1 X92.000 Y304.559 Z-42.000
G1 X3.000 Y393.559 Z-42.000
G1 X3.000 Y385.074 Z-42.000
G1 X92.000 Y296.074 Z-42.000
G1 X92.000 Y287.589 Z-42.000
G1 X3.000 Y376.589 Z-42.000
G1 X3.000 Y368.103 Z-42.000
G1 X92.000 Y279.103 Z-42.000
G1 X92.000 Y270.618 Z-42.000
G1 X3.000 Y359.618 Z-42.000
G1 X3.000 Y351.133 Z-42.000
G1 X92.000 Y262.133 Z-42.000
G1 X92.000 Y253.648 Z-42.000
G1 X3.000 Y342.648 Z-42.000
G1 X3.000 Y334.162 Z-42.000
G1 X92.000 Y245.162 Z-42.000
G1 X92.000 Y236.677 Z-42.000
G1 X3.000 Y325.677 Z-42.000
G1 X3.000 Y317.192 Z-42.000
G1 X92.000 Y228.192 Z-42.000
G1 X92.000 Y219.706 Z-42.000
G1 X3.000 Y308.706 Z-42.000
G1 X3.000 Y300.221 Z-42.000
G1 X92.000 Y211.221 Z-42.000
G1 X92.000 Y202.736 Z-42.000
G1 X3.000 Y291.736 Z-42.000
G1 X3.000 Y283.251 Z-42.000
G1 X92.000 Y194.251 Z-42.000
G1 X92.000 Y185.765 Z-42.000
G1 X3.000 Y274.765 Z-42.000
G1 X3.000 Y266.280 Z-42.000
G1 X92.000 Y177.280 Z-42.000
G1 X92.000 Y168.795 Z-42.000
G1 X3.000 Y257.795 Z-42.000
G1 X3.000 Y249.310 Z-42.000
G1 X92.000 Y160.310 Z-42.000
G1 X92.000 Y151.824 Z-42.000
G1 X3.000 Y240.824 Z-42.000
G1 X3.000 Y232.339 Z-42.000
G1 X92.000 Y143.339 Z-42.000
G1 X92.000 Y134.854 Z-42.000
G1 X3.000 Y223.854 Z-42.000
G1 X3.000 Y215.368 Z-42.000
G1 X92.000 Y126.368 Z-42.000
G1 X92.000 Y117.883 Z-42.000
G1 X3.000 Y206.883 Z-42.000
G1 X3.000 Y198.398 Z-42.000
G1 X92.000 Y109.398 Z-42.000
G1 X92.000 Y100.913 Z-42.000
G1 X3.000 Y189.913 Z-42.000
G1 X3.000 Y181.427 Z-42.000
G1 X91.427 Y93.000 Z-42.000
G1 X82.942 Y93.000 Z-42.000
G1 X3.000 Y172.942 Z-42.000
G1 X3.000 Y164.457 Z-42.000
G1 X74.457 Y93.000 Z-42.000
G1 X65.971 Y93.000 Z-42.000
G1 X3.000 Y155.971 Z-42.000
G1 X3.000 Y147.486 Z-42.000
G1 X57.486 Y93.000 Z-42.000
G1 X49.001 Y93.000 Z-42.000
G1 X3.000 Y139.001 Z-42.000
G1 X3.000 Y130.516 Z-42.000
G1 X40.516 Y93.000 Z-42.000
G1 X32.030 Y93.000 Z-42.000
G1 X3.000 Y122.030 Z-42.000
G1 X3.000 Y113.545 Z-42.000
G1 X23.545 Y93.000 Z-42.000
G1 X15.060 Y93.000 Z-42.000
G1 X3.000 Y105.060 Z-42.000
G1 X3.000 Y96.574 Z-42.000
G1 X6.574 Y93.000 Z-42.000
G1 X3.000 Y93.000 Z-42.000
G1 X3.000 Y96.574 Z-42.000
G1 X3.000 Y96.574 Z-45.000
G1 X3.000 Y93.000 Z-45.000
G1 X6.574 Y93.000 Z-45.000
G1 X3.000 Y96.574 Z-45.000
G1 X3.000 Y105.060 Z-45.000
G1 X15.060 Y93.000 Z-45.000
G1 X23.545 Y93.000 Z-45.000
G1 X3.000 Y113.545 Z-45.000
G1 X3.000 Y122.030 Z-45.000
G1 X32.030 Y93.000 Z-45.000
G1 X40.516 Y93.000 Z-45.000
G1 X3.000 Y130.516 Z-45.000
G1 X3.000 Y139.001 Z-45.000
G1 X49.001 Y93.000 Z-45.000
G1 X57.486 Y93.000 Z-45.000
G1 X3.000 Y147.486 Z-45.000
G1 X3.000 Y155.971 Z-45.000
G1 X65.971 Y93.000 Z-45.000
G1 X74.457 Y93.000 Z-45.000
G1 X3.000 Y164.457 Z-45.000
G1 X3.000 Y172.942 Z-45.000
G1 X82.942 Y93.000 Z-45.000
G1 X91.427 Y93.000 Z-45.000
G1 X3.000 Y181.427 Z-45.000
G1 X3.000 Y189.913 Z-45.000
G1 X92.000 Y100.913 Z-45.000
G1 X92.000 Y109.398 Z-45.000
G1 X3.000 Y198.398 Z-45.000
G1 X3.000 Y206.883 Z-45.000
G1 X92.000 Y117.883 Z-45.000
G1 X92.000 Y126.368 Z-45.000
G1 X3.000 Y215.368 Z-45.000
G1 X3.000 Y223.854 Z-45.000
G1 X92.000 Y134.854 Z-45.000
G1 X92.000 Y143.339 Z-45.000
G1 X3.000 Y232.339 Z-45.000
G1 X3.000 Y240.824 Z-45.000
G1 X92.000 Y151.824 Z-45.000
G1 X92.000 Y160.310 Z-45.000
G1 X3.000 Y249.310 Z-45.000
G1 X3.000 Y257.795 Z-45.000
G1 X92.000 Y168.795 Z-45.000
G1 X92.000 Y177.280 Z-45.000
G1 X3.000 Y266.280 Z-45.000
G1 X3.000 Y274.765 Z-45.000
G1 X92.000 Y185.765 Z-45.000
G1 X92.000 Y194.251 Z-45.000
G1 X3.000 Y283.251 Z-45.000
G1 X3.000 Y291.736 Z-45.000
G1 X92.000 Y202.736 Z-45.000
G1 X92.000 Y211.221 Z-45.000
G1 X3.000 Y300.221 Z-45.000
G1 X3.000 Y308.706 Z-45.000
G1 X92.000 Y219.706 Z-45.000
G1 X92.000 Y228.192 Z-45.000
G1 X3.000 Y317.192 Z-45.000
G1 X3.000 Y325.677 Z-45.000
G1 X92.000 Y236.677 Z-45.000
G1 X92.000 Y245.162 Z-45.000
G1 X3.000 Y334.162 Z-45.000
G1 X3.000 Y342.648 Z-45.000
G1 X92.000 Y253.648 Z-45.000
G1 X92.000 Y262.133 Z-45.000
G1 X3.000 Y351.133 Z-45.000
G1 X3.000 Y359.618 Z-45.000
G1 X92.000 Y270.618 Z-45.000
G1 X92.000 Y279.103 Z-45.000
G1 X3.000 Y368.103 Z-45.000
G1 X3.000 Y376.589 Z-45.000
G1 X92.000 Y287.589 Z-45.000
G1 X92.000 Y296.074 Z-45.000
G1 X3.000 Y385.074 Z-45.000
G1 X3.000 Y393.559 Z-45.000
G1 X92.000 Y304.559 Z-45.000
G1 X92.000 Y313.045 Z-45.000
G1 X3.000 Y402.045 Z-45.000
G1 X3.000 Y410.530 Z-45.000
G1 X92.000 Y321.530 Z-45.000
G1 X92.000 Y330.015 Z-45.000
G1 X3.000 Y419.015 Z-45.000
G1 X3.000 Y427.500 Z-45.000
G1 X92.000 Y338.500 Z-45.000
G1 X92.000 Y346.986 Z-45.000
G1 X3.000 Y435.986 Z-45.000
G1 X3.000 Y444.471 Z-45.000
G1 X92.000 Y355.471 Z-45.000
G1 X92.000 Y363.956 Z-45.000
G1 X3.000 Y452.956 Z-45.000
G1 X3.000 Y461.442 Z-45.000
G1 X92.000 Y372.442 Z-45.000
G1 X92.000 Y380.927 Z-45.000
G1 X3.000 Y469.927 Z-45.000
G1 X3.000 Y478.412 Z-45.000
G1 X92.000 Y389.412 Z-45.000
G1 X92.000 Y397.897 Z-45.000
G1 X3.000 Y486.897 Z-45.000
G1 X3.000 Y495.383 Z-45.000
G1 X92.000 Y406.383 Z-45.000
G1 X92.000 Y414.868 Z-45.000
G1 X3.000 Y503.868 Z-45.000
G1 X3.000 Y512.353 Z-45.000
G1 X92.000 Y423.353 Z-45.000
G1 X92.000 Y431.839 Z-45.000
G1 X3.000 Y520.839 Z-45.000
G1 X3.000 Y529.324 Z-45.000
G1 X92.000 Y440.324 Z-45.000
G1 X92.000 Y448.809 Z-45.000
G1 X3.000 Y537.809 Z-45.000
G1 X3.000 Y546.294 Z-45.000
G1 X92.000 Y457.294 Z-45.000
G1 X92.000 Y465.780 Z-45.000
G1 X3.000 Y554.780 Z-45.000
G1 X3.000 Y563.265 Z-45.000
G1 X92.000 Y474.265 Z-45.000
G1 X92.000 Y482.750 Z-45.000
G1 X3.000 Y571.750 Z-45.000
G1 X3.000 Y580.235 Z-45.000
G1 X92.000 Y491.235 Z-45.000
G1 X92.000 Y499.721 Z-45.000
G1 X3.000 Y588.721 Z-45.000
G1 X3.000 Y597.206 Z-45.000
G1 X92.000 Y508.206 Z-45.000
G1 X92.000 Y516.691 Z-45.000
G1 X3.000 Y605.691 Z-45.000
G1 X3.000 Y614.177 Z-45.000
G1 X92.000 Y525.177 Z-45.000
G1 X92.000 Y533.662 Z-45.000
G1 X3.000 Y622.662 Z-45.000
G1 X3.000 Y627.000 Z-45.000
G1 X7.147 Y627.000 Z-45.000
G1 X92.000 Y542.147 Z-45.000
G1 X92.000 Y550.632 Z-45.000
G1 X15.632 Y627.000 Z-45.000
G1 X24.118 Y627.000 Z-45.000
G1 X92.000 Y559.118 Z-45.000
G1 X92.000 Y567.603 Z-45.000
G1 X32.603 Y627.000 Z-45.000
G1 X41.088 Y627.000 Z-45.000
G1 X92.000 Y576.088 Z-45.000
G1 X92.000 Y584.574 Z-45.000
G1 X49.574 Y627.000 Z-45.000
G1 X58.059 Y627.000 Z-45.000
G1 X92.000 Y593.059 Z-45.000
G1 X92.000 Y601.544 Z-45.000
G1 X66.544 Y627.000 Z-45.000
G1 X75.029 Y627.000 Z-45.000
G1 X92.000 Y610.029 Z-45.000
G1 X92.000 Y618.515 Z-45.000
G1 X83.515 Y627.000 Z-45.000
G1 X92.000 Y627.000 Z-45.000
G0 Z5.000
G0 Y627.000 Z5.000
G0 Y627.000 Z3.000
G1 X92.000 Y627.000 Z-45.000
G1 X92.000 Y93.000 Z-45.000
G1 X3.000 Y93.000 Z-45.000
G1 X3.000 Y627.000 Z-45.000
G1 X92.000 Y627.000 Z-45.000
G0 Z5.000
G0 Z5.000
(Finish operation: Pocket_Shape006)
(Begin postamble)
M5
G17 G90
M2
