(Exported by FreeCAD)
(Post Processor: grbl_post)
(Output Time:2021-05-11 19:53:15.497846)
(Begin preamble)
G17 G90
G21
(Begin operation: Fixture)
(Path: Fixture)
G54
(Finish operation: Fixture)
(Begin operation: claas_6mm_endmill001)
(Path: claas_6mm_endmill001)
(claas_6mm_endmill001)
(Begin toolchange)
( M6 T1.0 )
M3 S0.0
(Finish operation: claas_6mm_endmill001)
(Begin operation: Pocket_Shape)
(Path: Pocket_Shape)
(Pocket_Shape)
G0 Z5.000
G0 X92.000 Y212.000
G0 Z3.000
G1 X92.000 Y212.000 Z-6.000
G1 X92.000 Y123.000 Z-6.000
G1 X3.000 Y123.000 Z-6.000
G1 X3.000 Y212.000 Z-6.000
G1 X92.000 Y212.000 Z-6.000
G0 Z5.000
G0 Y123.000 Z5.000
G0 Y123.000 Z3.000
G1 X92.000 Y123.000 Z-6.000
G1 X92.000 Y131.485 Z-6.000
G1 X83.515 Y123.000 Z-6.000
G1 X75.029 Y123.000 Z-6.000
G1 X92.000 Y139.971 Z-6.000
G1 X92.000 Y148.456 Z-6.000
G1 X66.544 Y123.000 Z-6.000
G1 X58.059 Y123.000 Z-6.000
G1 X92.000 Y156.941 Z-6.000
G1 X92.000 Y165.426 Z-6.000
G1 X49.574 Y123.000 Z-6.000
G1 X41.088 Y123.000 Z-6.000
G1 X92.000 Y173.912 Z-6.000
G1 X92.000 Y182.397 Z-6.000
G1 X32.603 Y123.000 Z-6.000
G1 X24.118 Y123.000 Z-6.000
G1 X92.000 Y190.882 Z-6.000
G1 X92.000 Y199.368 Z-6.000
G1 X15.632 Y123.000 Z-6.000
G1 X7.147 Y123.000 Z-6.000
G1 X92.000 Y207.853 Z-6.000
G1 X92.000 Y212.000 Z-6.000
G1 X87.662 Y212.000 Z-6.000
G1 X3.000 Y127.338 Z-6.000
G1 X3.000 Y135.823 Z-6.000
G1 X79.177 Y212.000 Z-6.000
G1 X70.691 Y212.000 Z-6.000
G1 X3.000 Y144.309 Z-6.000
G1 X3.000 Y152.794 Z-6.000
G1 X62.206 Y212.000 Z-6.000
G1 X53.721 Y212.000 Z-6.000
G1 X3.000 Y161.279 Z-6.000
G1 X3.000 Y169.765 Z-6.000
G1 X45.235 Y212.000 Z-6.000
G1 X36.750 Y212.000 Z-6.000
G1 X3.000 Y178.250 Z-6.000
G1 X3.000 Y186.735 Z-6.000
G1 X28.265 Y212.000 Z-6.000
G1 X19.780 Y212.000 Z-6.000
G1 X3.000 Y195.220 Z-6.000
G1 X3.000 Y203.706 Z-6.000
G1 X3.000 Y212.000 Z-6.000
G1 X11.294 Y212.000 Z-6.000
G1 X3.000 Y203.706 Z-6.000
G1 X3.000 Y203.706 Z-12.000
G1 X11.294 Y212.000 Z-12.000
G1 X3.000 Y212.000 Z-12.000
G1 X3.000 Y203.706 Z-12.000
G1 X3.000 Y195.220 Z-12.000
G1 X19.780 Y212.000 Z-12.000
G1 X28.265 Y212.000 Z-12.000
G1 X3.000 Y186.735 Z-12.000
G1 X3.000 Y178.250 Z-12.000
G1 X36.750 Y212.000 Z-12.000
G1 X45.235 Y212.000 Z-12.000
G1 X3.000 Y169.765 Z-12.000
G1 X3.000 Y161.279 Z-12.000
G1 X53.721 Y212.000 Z-12.000
G1 X62.206 Y212.000 Z-12.000
G1 X3.000 Y152.794 Z-12.000
G1 X3.000 Y144.309 Z-12.000
G1 X70.691 Y212.000 Z-12.000
G1 X79.177 Y212.000 Z-12.000
G1 X3.000 Y135.823 Z-12.000
G1 X3.000 Y127.338 Z-12.000
G1 X87.662 Y212.000 Z-12.000
G1 X92.000 Y212.000 Z-12.000
G1 X92.000 Y207.853 Z-12.000
G1 X7.147 Y123.000 Z-12.000
G1 X15.632 Y123.000 Z-12.000
G1 X92.000 Y199.368 Z-12.000
G1 X92.000 Y190.882 Z-12.000
G1 X24.118 Y123.000 Z-12.000
G1 X32.603 Y123.000 Z-12.000
G1 X92.000 Y182.397 Z-12.000
G1 X92.000 Y173.912 Z-12.000
G1 X41.088 Y123.000 Z-12.000
G1 X49.574 Y123.000 Z-12.000
G1 X92.000 Y165.426 Z-12.000
G1 X92.000 Y156.941 Z-12.000
G1 X58.059 Y123.000 Z-12.000
G1 X66.544 Y123.000 Z-12.000
G1 X92.000 Y148.456 Z-12.000
G1 X92.000 Y139.971 Z-12.000
G1 X75.029 Y123.000 Z-12.000
G1 X83.515 Y123.000 Z-12.000
G1 X92.000 Y131.485 Z-12.000
G1 X92.000 Y123.000 Z-12.000
G1 X92.000 Y123.000 Z-12.000
G1 X3.000 Y123.000 Z-12.000
G1 X3.000 Y212.000 Z-12.000
G1 X92.000 Y212.000 Z-12.000
G1 X92.000 Y123.000 Z-12.000
G1 X92.000 Y123.000 Z-18.000
G1 X3.000 Y123.000 Z-18.000
G1 X3.000 Y212.000 Z-18.000
G1 X92.000 Y212.000 Z-18.000
G1 X92.000 Y123.000 Z-18.000
G1 X92.000 Y123.000 Z-18.000
G1 X92.000 Y131.485 Z-18.000
G1 X83.515 Y123.000 Z-18.000
G1 X75.029 Y123.000 Z-18.000
G1 X92.000 Y139.971 Z-18.000
G1 X92.000 Y148.456 Z-18.000
G1 X66.544 Y123.000 Z-18.000
G1 X58.059 Y123.000 Z-18.000
G1 X92.000 Y156.941 Z-18.000
G1 X92.000 Y165.426 Z-18.000
G1 X49.574 Y123.000 Z-18.000
G1 X41.088 Y123.000 Z-18.000
G1 X92.000 Y173.912 Z-18.000
G1 X92.000 Y182.397 Z-18.000
G1 X32.603 Y123.000 Z-18.000
G1 X24.118 Y123.000 Z-18.000
G1 X92.000 Y190.882 Z-18.000
G1 X92.000 Y199.368 Z-18.000
G1 X15.632 Y123.000 Z-18.000
G1 X7.147 Y123.000 Z-18.000
G1 X92.000 Y207.853 Z-18.000
G1 X92.000 Y212.000 Z-18.000
G1 X87.662 Y212.000 Z-18.000
G1 X3.000 Y127.338 Z-18.000
G1 X3.000 Y135.823 Z-18.000
G1 X79.177 Y212.000 Z-18.000
G1 X70.691 Y212.000 Z-18.000
G1 X3.000 Y144.309 Z-18.000
G1 X3.000 Y152.794 Z-18.000
G1 X62.206 Y212.000 Z-18.000
G1 X53.721 Y212.000 Z-18.000
G1 X3.000 Y161.279 Z-18.000
G1 X3.000 Y169.765 Z-18.000
G1 X45.235 Y212.000 Z-18.000
G1 X36.750 Y212.000 Z-18.000
G1 X3.000 Y178.250 Z-18.000
G1 X3.000 Y186.735 Z-18.000
G1 X28.265 Y212.000 Z-18.000
G1 X19.780 Y212.000 Z-18.000
G1 X3.000 Y195.220 Z-18.000
G1 X3.000 Y203.706 Z-18.000
G1 X3.000 Y212.000 Z-18.000
G1 X11.294 Y212.000 Z-18.000
G1 X3.000 Y203.706 Z-18.000
G1 X3.000 Y203.706 Z-22.500
G1 X11.294 Y212.000 Z-22.500
G1 X3.000 Y212.000 Z-22.500
G1 X3.000 Y203.706 Z-22.500
G1 X3.000 Y195.220 Z-22.500
G1 X19.780 Y212.000 Z-22.500
G1 X28.265 Y212.000 Z-22.500
G1 X3.000 Y186.735 Z-22.500
G1 X3.000 Y178.250 Z-22.500
G1 X36.750 Y212.000 Z-22.500
G1 X45.235 Y212.000 Z-22.500
G1 X3.000 Y169.765 Z-22.500
G1 X3.000 Y161.279 Z-22.500
G1 X53.721 Y212.000 Z-22.500
G1 X62.206 Y212.000 Z-22.500
G1 X3.000 Y152.794 Z-22.500
G1 X3.000 Y144.309 Z-22.500
G1 X70.691 Y212.000 Z-22.500
G1 X79.177 Y212.000 Z-22.500
G1 X3.000 Y135.823 Z-22.500
G1 X3.000 Y127.338 Z-22.500
G1 X87.662 Y212.000 Z-22.500
G1 X92.000 Y212.000 Z-22.500
G1 X92.000 Y207.853 Z-22.500
G1 X7.147 Y123.000 Z-22.500
G1 X15.632 Y123.000 Z-22.500
G1 X92.000 Y199.368 Z-22.500
G1 X92.000 Y190.882 Z-22.500
G1 X24.118 Y123.000 Z-22.500
G1 X32.603 Y123.000 Z-22.500
G1 X92.000 Y182.397 Z-22.500
G1 X92.000 Y173.912 Z-22.500
G1 X41.088 Y123.000 Z-22.500
G1 X49.574 Y123.000 Z-22.500
G1 X92.000 Y165.426 Z-22.500
G1 X92.000 Y156.941 Z-22.500
G1 X58.059 Y123.000 Z-22.500
G1 X66.544 Y123.000 Z-22.500
G1 X92.000 Y148.456 Z-22.500
G1 X92.000 Y139.971 Z-22.500
G1 X75.029 Y123.000 Z-22.500
G1 X83.515 Y123.000 Z-22.500
G1 X92.000 Y131.485 Z-22.500
G1 X92.000 Y123.000 Z-22.500
G1 X92.000 Y123.000 Z-22.500
G1 X3.000 Y123.000 Z-22.500
G1 X3.000 Y212.000 Z-22.500
G1 X92.000 Y212.000 Z-22.500
G1 X92.000 Y123.000 Z-22.500
G0 Z5.000
G0 Z5.000
(Finish operation: Pocket_Shape)
(Begin postamble)
M5
G17 G90
M2
