(Exported by FreeCAD)
(Post Processor: grbl_post)
(Output Time:2021-05-11 19:53:27.552933)
(Begin preamble)
G17 G90
G21
(Begin operation: Fixture)
(Path: Fixture)
G54
(Finish operation: Fixture)
(Begin operation: claas_6mm_endmill007)
(Path: claas_6mm_endmill007)
(claas_6mm_endmill007)
(Begin toolchange)
( M6 T1.0 )
M3 S0.0
(Finish operation: claas_6mm_endmill007)
(Begin operation: Pocket_Shape004)
(Path: Pocket_Shape004)
(Pocket_Shape004)
G0 Z5.000
G0 X92.000 Y242.000
G0 Z3.000
G1 X92.000 Y242.000 Z-6.000
G1 X92.000 Y153.000 Z-6.000
G1 X3.000 Y153.000 Z-6.000
G1 X3.000 Y242.000 Z-6.000
G1 X92.000 Y242.000 Z-6.000
G0 Z5.000
G0 Y153.000 Z5.000
G0 Y153.000 Z3.000
G1 X92.000 Y153.000 Z-6.000
G1 X92.000 Y161.485 Z-6.000
G1 X83.515 Y153.000 Z-6.000
G1 X75.029 Y153.000 Z-6.000
G1 X92.000 Y169.971 Z-6.000
G1 X92.000 Y178.456 Z-6.000
G1 X66.544 Y153.000 Z-6.000
G1 X58.059 Y153.000 Z-6.000
G1 X92.000 Y186.941 Z-6.000
G1 X92.000 Y195.426 Z-6.000
G1 X49.574 Y153.000 Z-6.000
G1 X41.088 Y153.000 Z-6.000
G1 X92.000 Y203.912 Z-6.000
G1 X92.000 Y212.397 Z-6.000
G1 X32.603 Y153.000 Z-6.000
G1 X24.118 Y153.000 Z-6.000
G1 X92.000 Y220.882 Z-6.000
G1 X92.000 Y229.368 Z-6.000
G1 X15.632 Y153.000 Z-6.000
G1 X7.147 Y153.000 Z-6.000
G1 X92.000 Y237.853 Z-6.000
G1 X92.000 Y242.000 Z-6.000
G1 X87.662 Y242.000 Z-6.000
G1 X3.000 Y157.338 Z-6.000
G1 X3.000 Y165.823 Z-6.000
G1 X79.177 Y242.000 Z-6.000
G1 X70.691 Y242.000 Z-6.000
G1 X3.000 Y174.309 Z-6.000
G1 X3.000 Y182.794 Z-6.000
G1 X62.206 Y242.000 Z-6.000
G1 X53.721 Y242.000 Z-6.000
G1 X3.000 Y191.279 Z-6.000
G1 X3.000 Y199.765 Z-6.000
G1 X45.235 Y242.000 Z-6.000
G1 X36.750 Y242.000 Z-6.000
G1 X3.000 Y208.250 Z-6.000
G1 X3.000 Y216.735 Z-6.000
G1 X28.265 Y242.000 Z-6.000
G1 X19.780 Y242.000 Z-6.000
G1 X3.000 Y225.220 Z-6.000
G1 X3.000 Y233.706 Z-6.000
G1 X3.000 Y242.000 Z-6.000
G1 X11.294 Y242.000 Z-6.000
G1 X3.000 Y233.706 Z-6.000
G1 X3.000 Y233.706 Z-12.000
G1 X11.294 Y242.000 Z-12.000
G1 X3.000 Y242.000 Z-12.000
G1 X3.000 Y233.706 Z-12.000
G1 X3.000 Y225.220 Z-12.000
G1 X19.780 Y242.000 Z-12.000
G1 X28.265 Y242.000 Z-12.000
G1 X3.000 Y216.735 Z-12.000
G1 X3.000 Y208.250 Z-12.000
G1 X36.750 Y242.000 Z-12.000
G1 X45.235 Y242.000 Z-12.000
G1 X3.000 Y199.765 Z-12.000
G1 X3.000 Y191.279 Z-12.000
G1 X53.721 Y242.000 Z-12.000
G1 X62.206 Y242.000 Z-12.000
G1 X3.000 Y182.794 Z-12.000
G1 X3.000 Y174.309 Z-12.000
G1 X70.691 Y242.000 Z-12.000
G1 X79.177 Y242.000 Z-12.000
G1 X3.000 Y165.823 Z-12.000
G1 X3.000 Y157.338 Z-12.000
G1 X87.662 Y242.000 Z-12.000
G1 X92.000 Y242.000 Z-12.000
G1 X92.000 Y237.853 Z-12.000
G1 X7.147 Y153.000 Z-12.000
G1 X15.632 Y153.000 Z-12.000
G1 X92.000 Y229.368 Z-12.000
G1 X92.000 Y220.882 Z-12.000
G1 X24.118 Y153.000 Z-12.000
G1 X32.603 Y153.000 Z-12.000
G1 X92.000 Y212.397 Z-12.000
G1 X92.000 Y203.912 Z-12.000
G1 X41.088 Y153.000 Z-12.000
G1 X49.574 Y153.000 Z-12.000
G1 X92.000 Y195.426 Z-12.000
G1 X92.000 Y186.941 Z-12.000
G1 X58.059 Y153.000 Z-12.000
G1 X66.544 Y153.000 Z-12.000
G1 X92.000 Y178.456 Z-12.000
G1 X92.000 Y169.971 Z-12.000
G1 X75.029 Y153.000 Z-12.000
G1 X83.515 Y153.000 Z-12.000
G1 X92.000 Y161.485 Z-12.000
G1 X92.000 Y153.000 Z-12.000
G1 X92.000 Y153.000 Z-12.000
G1 X3.000 Y153.000 Z-12.000
G1 X3.000 Y242.000 Z-12.000
G1 X92.000 Y242.000 Z-12.000
G1 X92.000 Y153.000 Z-12.000
G1 X92.000 Y153.000 Z-18.000
G1 X92.000 Y161.485 Z-18.000
G1 X83.515 Y153.000 Z-18.000
G1 X75.029 Y153.000 Z-18.000
G1 X92.000 Y169.971 Z-18.000
G1 X92.000 Y178.456 Z-18.000
G1 X66.544 Y153.000 Z-18.000
G1 X58.059 Y153.000 Z-18.000
G1 X92.000 Y186.941 Z-18.000
G1 X92.000 Y195.426 Z-18.000
G1 X49.574 Y153.000 Z-18.000
G1 X41.088 Y153.000 Z-18.000
G1 X92.000 Y203.912 Z-18.000
G1 X92.000 Y212.397 Z-18.000
G1 X32.603 Y153.000 Z-18.000
G1 X24.118 Y153.000 Z-18.000
G1 X92.000 Y220.882 Z-18.000
G1 X92.000 Y229.368 Z-18.000
G1 X15.632 Y153.000 Z-18.000
G1 X7.147 Y153.000 Z-18.000
G1 X92.000 Y237.853 Z-18.000
G1 X92.000 Y242.000 Z-18.000
G1 X87.662 Y242.000 Z-18.000
G1 X3.000 Y157.338 Z-18.000
G1 X3.000 Y165.823 Z-18.000
G1 X79.177 Y242.000 Z-18.000
G1 X70.691 Y242.000 Z-18.000
G1 X3.000 Y174.309 Z-18.000
G1 X3.000 Y182.794 Z-18.000
G1 X62.206 Y242.000 Z-18.000
G1 X53.721 Y242.000 Z-18.000
G1 X3.000 Y191.279 Z-18.000
G1 X3.000 Y199.765 Z-18.000
G1 X45.235 Y242.000 Z-18.000
G1 X36.750 Y242.000 Z-18.000
G1 X3.000 Y208.250 Z-18.000
G1 X3.000 Y216.735 Z-18.000
G1 X28.265 Y242.000 Z-18.000
G1 X19.780 Y242.000 Z-18.000
G1 X3.000 Y225.220 Z-18.000
G1 X3.000 Y233.706 Z-18.000
G1 X3.000 Y242.000 Z-18.000
G1 X11.294 Y242.000 Z-18.000
G1 X3.000 Y233.706 Z-18.000
G1 X3.000 Y233.706 Z-18.000
G1 X3.000 Y242.000 Z-18.000
G1 X92.000 Y242.000 Z-18.000
G1 X92.000 Y153.000 Z-18.000
G1 X3.000 Y153.000 Z-18.000
G1 X3.000 Y233.706 Z-18.000
G1 X3.000 Y233.706 Z-22.500
G1 X11.294 Y242.000 Z-22.500
G1 X3.000 Y242.000 Z-22.500
G1 X3.000 Y233.706 Z-22.500
G1 X3.000 Y225.220 Z-22.500
G1 X19.780 Y242.000 Z-22.500
G1 X28.265 Y242.000 Z-22.500
G1 X3.000 Y216.735 Z-22.500
G1 X3.000 Y208.250 Z-22.500
G1 X36.750 Y242.000 Z-22.500
G1 X45.235 Y242.000 Z-22.500
G1 X3.000 Y199.765 Z-22.500
G1 X3.000 Y191.279 Z-22.500
G1 X53.721 Y242.000 Z-22.500
G1 X62.206 Y242.000 Z-22.500
G1 X3.000 Y182.794 Z-22.500
G1 X3.000 Y174.309 Z-22.500
G1 X70.691 Y242.000 Z-22.500
G1 X79.177 Y242.000 Z-22.500
G1 X3.000 Y165.823 Z-22.500
G1 X3.000 Y157.338 Z-22.500
G1 X87.662 Y242.000 Z-22.500
G1 X92.000 Y242.000 Z-22.500
G1 X92.000 Y237.853 Z-22.500
G1 X7.147 Y153.000 Z-22.500
G1 X15.632 Y153.000 Z-22.500
G1 X92.000 Y229.368 Z-22.500
G1 X92.000 Y220.882 Z-22.500
G1 X24.118 Y153.000 Z-22.500
G1 X32.603 Y153.000 Z-22.500
G1 X92.000 Y212.397 Z-22.500
G1 X92.000 Y203.912 Z-22.500
G1 X41.088 Y153.000 Z-22.500
G1 X49.574 Y153.000 Z-22.500
G1 X92.000 Y195.426 Z-22.500
G1 X92.000 Y186.941 Z-22.500
G1 X58.059 Y153.000 Z-22.500
G1 X66.544 Y153.000 Z-22.500
G1 X92.000 Y178.456 Z-22.500
G1 X92.000 Y169.971 Z-22.500
G1 X75.029 Y153.000 Z-22.500
G1 X83.515 Y153.000 Z-22.500
G1 X92.000 Y161.485 Z-22.500
G1 X92.000 Y153.000 Z-22.500
G1 X92.000 Y153.000 Z-22.500
G1 X3.000 Y153.000 Z-22.500
G1 X3.000 Y242.000 Z-22.500
G1 X92.000 Y242.000 Z-22.500
G1 X92.000 Y153.000 Z-22.500
G0 Z5.000
G0 Z5.000
(Finish operation: Pocket_Shape004)
(Begin postamble)
M5
G17 G90
M2
