(Exported by FreeCAD)
(Post Processor: grbl_post)
(Output Time:2021-05-11 20:14:18.655411)
(Begin preamble)
G17 G90
G21
(Begin operation: Fixture)
(Path: Fixture)
G54
(Finish operation: Fixture)
(Begin operation: claas_6mm_endmill009)
(Path: claas_6mm_endmill009)
(claas_6mm_endmill009)
(Begin toolchange)
( M6 T1.0 )
M3 S0.0
(Finish operation: claas_6mm_endmill009)
(Begin operation: MillFace)
(Path: MillFace)
(MillFace)
G0 Z5.000
G0 X92.000 Y87.000
G0 Z3.000
G1 X92.000 Y87.000 Z-6.000
G1 X92.000 Y3.000 Z-6.000
G1 X3.000 Y3.000 Z-6.000
G1 X3.000 Y87.000 Z-6.000
G1 X92.000 Y87.000 Z-6.000
G0 Z5.000
G0 Y3.000 Z5.000
G0 Y3.000 Z3.000
G1 X92.000 Y3.000 Z-6.000
G1 X92.000 Y7.243 Z-6.000
G1 X87.757 Y3.000 Z-6.000
G1 X83.515 Y3.000 Z-6.000
G1 X92.000 Y11.485 Z-6.000
G1 X92.000 Y15.728 Z-6.000
G1 X79.272 Y3.000 Z-6.000
G1 X75.029 Y3.000 Z-6.000
G1 X92.000 Y19.971 Z-6.000
G1 X92.000 Y24.213 Z-6.000
G1 X70.787 Y3.000 Z-6.000
G1 X66.544 Y3.000 Z-6.000
G1 X92.000 Y28.456 Z-6.000
G1 X92.000 Y32.698 Z-6.000
G1 X62.302 Y3.000 Z-6.000
G1 X58.059 Y3.000 Z-6.000
G1 X92.000 Y36.941 Z-6.000
G1 X92.000 Y41.184 Z-6.000
G1 X53.816 Y3.000 Z-6.000
G1 X49.574 Y3.000 Z-6.000
G1 X92.000 Y45.426 Z-6.000
G1 X92.000 Y49.669 Z-6.000
G1 X45.331 Y3.000 Z-6.000
G1 X41.088 Y3.000 Z-6.000
G1 X92.000 Y53.912 Z-6.000
G1 X92.000 Y58.154 Z-6.000
G1 X36.846 Y3.000 Z-6.000
G1 X32.603 Y3.000 Z-6.000
G1 X92.000 Y62.397 Z-6.000
G1 X92.000 Y66.640 Z-6.000
G1 X28.360 Y3.000 Z-6.000
G1 X24.118 Y3.000 Z-6.000
G1 X92.000 Y70.882 Z-6.000
G1 X92.000 Y75.125 Z-6.000
G1 X19.875 Y3.000 Z-6.000
G1 X15.632 Y3.000 Z-6.000
G1 X92.000 Y79.368 Z-6.000
G1 X92.000 Y83.610 Z-6.000
G1 X11.390 Y3.000 Z-6.000
G1 X7.147 Y3.000 Z-6.000
G1 X91.147 Y87.000 Z-6.000
G1 X86.905 Y87.000 Z-6.000
G1 X3.000 Y3.095 Z-6.000
G1 X3.000 Y7.338 Z-6.000
G1 X82.662 Y87.000 Z-6.000
G1 X78.419 Y87.000 Z-6.000
G1 X3.000 Y11.581 Z-6.000
G1 X3.000 Y15.823 Z-6.000
G1 X74.177 Y87.000 Z-6.000
G1 X69.934 Y87.000 Z-6.000
G1 X3.000 Y20.066 Z-6.000
G1 X3.000 Y24.309 Z-6.000
G1 X65.691 Y87.000 Z-6.000
G1 X61.449 Y87.000 Z-6.000
G1 X3.000 Y28.551 Z-6.000
G1 X3.000 Y32.794 Z-6.000
G1 X57.206 Y87.000 Z-6.000
G1 X52.963 Y87.000 Z-6.000
G1 X3.000 Y37.037 Z-6.000
G1 X3.000 Y41.279 Z-6.000
G1 X48.721 Y87.000 Z-6.000
G1 X44.478 Y87.000 Z-6.000
G1 X3.000 Y45.522 Z-6.000
G1 X3.000 Y49.765 Z-6.000
G1 X40.235 Y87.000 Z-6.000
G1 X35.993 Y87.000 Z-6.000
G1 X3.000 Y54.007 Z-6.000
G1 X3.000 Y58.250 Z-6.000
G1 X31.750 Y87.000 Z-6.000
G1 X27.508 Y87.000 Z-6.000
G1 X3.000 Y62.492 Z-6.000
G1 X3.000 Y66.735 Z-6.000
G1 X23.265 Y87.000 Z-6.000
G1 X19.022 Y87.000 Z-6.000
G1 X3.000 Y70.978 Z-6.000
G1 X3.000 Y75.220 Z-6.000
G1 X14.780 Y87.000 Z-6.000
G1 X10.537 Y87.000 Z-6.000
G1 X3.000 Y79.463 Z-6.000
G1 X3.000 Y83.706 Z-6.000
G1 X3.000 Y87.000 Z-6.000
G1 X6.294 Y87.000 Z-6.000
G1 X3.000 Y83.706 Z-6.000
G1 X3.000 Y83.706 Z-11.250
G1 X6.294 Y87.000 Z-11.250
G1 X3.000 Y87.000 Z-11.250
G1 X3.000 Y83.706 Z-11.250
G1 X3.000 Y79.463 Z-11.250
G1 X10.537 Y87.000 Z-11.250
G1 X14.780 Y87.000 Z-11.250
G1 X3.000 Y75.220 Z-11.250
G1 X3.000 Y70.978 Z-11.250
G1 X19.022 Y87.000 Z-11.250
G1 X23.265 Y87.000 Z-11.250
G1 X3.000 Y66.735 Z-11.250
G1 X3.000 Y62.492 Z-11.250
G1 X27.508 Y87.000 Z-11.250
G1 X31.750 Y87.000 Z-11.250
G1 X3.000 Y58.250 Z-11.250
G1 X3.000 Y54.007 Z-11.250
G1 X35.993 Y87.000 Z-11.250
G1 X40.235 Y87.000 Z-11.250
G1 X3.000 Y49.765 Z-11.250
G1 X3.000 Y45.522 Z-11.250
G1 X44.478 Y87.000 Z-11.250
G1 X48.721 Y87.000 Z-11.250
G1 X3.000 Y41.279 Z-11.250
G1 X3.000 Y37.037 Z-11.250
G1 X52.963 Y87.000 Z-11.250
G1 X57.206 Y87.000 Z-11.250
G1 X3.000 Y32.794 Z-11.250
G1 X3.000 Y28.551 Z-11.250
G1 X61.449 Y87.000 Z-11.250
G1 X65.691 Y87.000 Z-11.250
G1 X3.000 Y24.309 Z-11.250
G1 X3.000 Y20.066 Z-11.250
G1 X69.934 Y87.000 Z-11.250
G1 X74.177 Y87.000 Z-11.250
G1 X3.000 Y15.823 Z-11.250
G1 X3.000 Y11.581 Z-11.250
G1 X78.419 Y87.000 Z-11.250
G1 X82.662 Y87.000 Z-11.250
G1 X3.000 Y7.338 Z-11.250
G1 X3.000 Y3.095 Z-11.250
G1 X86.905 Y87.000 Z-11.250
G1 X91.147 Y87.000 Z-11.250
G1 X7.147 Y3.000 Z-11.250
G1 X11.390 Y3.000 Z-11.250
G1 X92.000 Y83.610 Z-11.250
G1 X92.000 Y79.368 Z-11.250
G1 X15.632 Y3.000 Z-11.250
G1 X19.875 Y3.000 Z-11.250
G1 X92.000 Y75.125 Z-11.250
G1 X92.000 Y70.882 Z-11.250
G1 X24.118 Y3.000 Z-11.250
G1 X28.360 Y3.000 Z-11.250
G1 X92.000 Y66.640 Z-11.250
G1 X92.000 Y62.397 Z-11.250
G1 X32.603 Y3.000 Z-11.250
G1 X36.846 Y3.000 Z-11.250
G1 X92.000 Y58.154 Z-11.250
G1 X92.000 Y53.912 Z-11.250
G1 X41.088 Y3.000 Z-11.250
G1 X45.331 Y3.000 Z-11.250
G1 X92.000 Y49.669 Z-11.250
G1 X92.000 Y45.426 Z-11.250
G1 X49.574 Y3.000 Z-11.250
G1 X53.816 Y3.000 Z-11.250
G1 X92.000 Y41.184 Z-11.250
G1 X92.000 Y36.941 Z-11.250
G1 X58.059 Y3.000 Z-11.250
G1 X62.302 Y3.000 Z-11.250
G1 X92.000 Y32.698 Z-11.250
G1 X92.000 Y28.456 Z-11.250
G1 X66.544 Y3.000 Z-11.250
G1 X70.787 Y3.000 Z-11.250
G1 X92.000 Y24.213 Z-11.250
G1 X92.000 Y19.971 Z-11.250
G1 X75.029 Y3.000 Z-11.250
G1 X79.272 Y3.000 Z-11.250
G1 X92.000 Y15.728 Z-11.250
G1 X92.000 Y11.485 Z-11.250
G1 X83.515 Y3.000 Z-11.250
G1 X87.757 Y3.000 Z-11.250
G1 X92.000 Y7.243 Z-11.250
G1 X92.000 Y3.000 Z-11.250
G1 X92.000 Y3.000 Z-11.250
G1 X3.000 Y3.000 Z-11.250
G1 X3.000 Y87.000 Z-11.250
G1 X92.000 Y87.000 Z-11.250
G1 X92.000 Y3.000 Z-11.250
G0 Z5.000
G0 Z5.000
(Finish operation: MillFace)
(Begin operation: MillFace001)
(Path: MillFace001)
(MillFace001)
G0 Z5.000
G0 X20.750 Y87.000
G0 Z3.000
G1 X20.750 Y87.000 Z-17.250
G1 X16.507 Y87.000 Z-17.250
G1 X20.750 Y82.757 Z-17.250
G1 X20.750 Y78.515 Z-17.250
G1 X12.265 Y87.000 Z-17.250
G1 X8.022 Y87.000 Z-17.250
G1 X20.750 Y74.272 Z-17.250
G1 X20.750 Y70.029 Z-17.250
G1 X3.779 Y87.000 Z-17.250
G1 X3.000 Y87.000 Z-17.250
G1 X3.000 Y83.537 Z-17.250
G1 X20.750 Y65.787 Z-17.250
G1 X20.750 Y61.544 Z-17.250
G1 X3.000 Y79.294 Z-17.250
G1 X3.000 Y75.052 Z-17.250
G1 X20.750 Y57.302 Z-17.250
G1 X20.750 Y53.059 Z-17.250
G1 X3.000 Y70.809 Z-17.250
G1 X3.000 Y66.566 Z-17.250
G1 X20.750 Y48.816 Z-17.250
G1 X20.750 Y44.574 Z-17.250
G1 X3.000 Y62.324 Z-17.250
G1 X3.000 Y58.081 Z-17.250
G1 X20.750 Y40.331 Z-17.250
G1 X20.750 Y36.088 Z-17.250
G1 X3.000 Y53.838 Z-17.250
G1 X3.000 Y49.596 Z-17.250
G1 X20.750 Y31.846 Z-17.250
G1 X20.750 Y27.603 Z-17.250
G1 X3.000 Y45.353 Z-17.250
G1 X3.000 Y41.110 Z-17.250
G1 X20.750 Y23.360 Z-17.250
G1 X20.750 Y19.118 Z-17.250
G1 X3.000 Y36.868 Z-17.250
G1 X3.000 Y32.625 Z-17.250
G1 X20.750 Y14.875 Z-17.250
G1 X20.750 Y10.632 Z-17.250
G1 X3.000 Y28.382 Z-17.250
G1 X3.000 Y24.140 Z-17.250
G1 X20.750 Y6.390 Z-17.250
G1 X20.750 Y3.000 Z-17.250
G1 X19.897 Y3.000 Z-17.250
G1 X3.000 Y19.897 Z-17.250
G1 X3.000 Y15.655 Z-17.250
G1 X15.655 Y3.000 Z-17.250
G1 X11.412 Y3.000 Z-17.250
G1 X3.000 Y11.412 Z-17.250
G1 X3.000 Y7.169 Z-17.250
G1 X7.169 Y3.000 Z-17.250
G1 X3.000 Y3.000 Z-17.250
G1 X3.000 Y7.169 Z-17.250
G1 X3.000 Y7.169 Z-22.500
G1 X3.000 Y3.000 Z-22.500
G1 X7.169 Y3.000 Z-22.500
G1 X3.000 Y7.169 Z-22.500
G1 X3.000 Y11.412 Z-22.500
G1 X11.412 Y3.000 Z-22.500
G1 X15.655 Y3.000 Z-22.500
G1 X3.000 Y15.655 Z-22.500
G1 X3.000 Y19.897 Z-22.500
G1 X19.897 Y3.000 Z-22.500
G1 X20.750 Y3.000 Z-22.500
G1 X20.750 Y6.390 Z-22.500
G1 X3.000 Y24.140 Z-22.500
G1 X3.000 Y28.382 Z-22.500
G1 X20.750 Y10.632 Z-22.500
G1 X20.750 Y14.875 Z-22.500
G1 X3.000 Y32.625 Z-22.500
G1 X3.000 Y36.868 Z-22.500
G1 X20.750 Y19.118 Z-22.500
G1 X20.750 Y23.360 Z-22.500
G1 X3.000 Y41.110 Z-22.500
G1 X3.000 Y45.353 Z-22.500
G1 X20.750 Y27.603 Z-22.500
G1 X20.750 Y31.846 Z-22.500
G1 X3.000 Y49.596 Z-22.500
G1 X3.000 Y53.838 Z-22.500
G1 X20.750 Y36.088 Z-22.500
G1 X20.750 Y40.331 Z-22.500
G1 X3.000 Y58.081 Z-22.500
G1 X3.000 Y62.324 Z-22.500
G1 X20.750 Y44.574 Z-22.500
G1 X20.750 Y48.816 Z-22.500
G1 X3.000 Y66.566 Z-22.500
G1 X3.000 Y70.809 Z-22.500
G1 X20.750 Y53.059 Z-22.500
G1 X20.750 Y57.302 Z-22.500
G1 X3.000 Y75.052 Z-22.500
G1 X3.000 Y79.294 Z-22.500
G1 X20.750 Y61.544 Z-22.500
G1 X20.750 Y65.787 Z-22.500
G1 X3.000 Y83.537 Z-22.500
G1 X3.000 Y87.000 Z-22.500
G1 X3.779 Y87.000 Z-22.500
G1 X20.750 Y70.029 Z-22.500
G1 X20.750 Y74.272 Z-22.500
G1 X8.022 Y87.000 Z-22.500
G1 X12.265 Y87.000 Z-22.500
G1 X20.750 Y78.515 Z-22.500
G1 X20.750 Y82.757 Z-22.500
G1 X16.507 Y87.000 Z-22.500
G1 X20.750 Y87.000 Z-22.500
G0 Z5.000
G0 Z5.000
(Finish operation: MillFace001)
(Begin operation: MillFace002)
(Path: MillFace002)
(MillFace002)
G0 Z5.000
G0 X92.000 Y87.000
G0 Z3.000
G1 X92.000 Y87.000 Z-17.250
G1 X92.000 Y3.000 Z-17.250
G1 X74.250 Y3.000 Z-17.250
G1 X74.250 Y87.000 Z-17.250
G1 X92.000 Y87.000 Z-17.250
G1 X92.000 Y87.000 Z-17.250
G1 X87.757 Y87.000 Z-17.250
G1 X92.000 Y82.757 Z-17.250
G1 X92.000 Y78.515 Z-17.250
G1 X83.515 Y87.000 Z-17.250
G1 X79.272 Y87.000 Z-17.250
G1 X92.000 Y74.272 Z-17.250
G1 X92.000 Y70.029 Z-17.250
G1 X75.029 Y87.000 Z-17.250
G1 X74.250 Y87.000 Z-17.250
G1 X74.250 Y83.537 Z-17.250
G1 X92.000 Y65.787 Z-17.250
G1 X92.000 Y61.544 Z-17.250
G1 X74.250 Y79.294 Z-17.250
G1 X74.250 Y75.052 Z-17.250
G1 X92.000 Y57.302 Z-17.250
G1 X92.000 Y53.059 Z-17.250
G1 X74.250 Y70.809 Z-17.250
G1 X74.250 Y66.566 Z-17.250
G1 X92.000 Y48.816 Z-17.250
G1 X92.000 Y44.574 Z-17.250
G1 X74.250 Y62.324 Z-17.250
G1 X74.250 Y58.081 Z-17.250
G1 X92.000 Y40.331 Z-17.250
G1 X92.000 Y36.088 Z-17.250
G1 X74.250 Y53.838 Z-17.250
G1 X74.250 Y49.596 Z-17.250
G1 X92.000 Y31.846 Z-17.250
G1 X92.000 Y27.603 Z-17.250
G1 X74.250 Y45.353 Z-17.250
G1 X74.250 Y41.110 Z-17.250
G1 X92.000 Y23.360 Z-17.250
G1 X92.000 Y19.118 Z-17.250
G1 X74.250 Y36.868 Z-17.250
G1 X74.250 Y32.625 Z-17.250
G1 X92.000 Y14.875 Z-17.250
G1 X92.000 Y10.632 Z-17.250
G1 X74.250 Y28.382 Z-17.250
G1 X74.250 Y24.140 Z-17.250
G1 X92.000 Y6.390 Z-17.250
G1 X92.000 Y3.000 Z-17.250
G1 X91.147 Y3.000 Z-17.250
G1 X74.250 Y19.897 Z-17.250
G1 X74.250 Y15.655 Z-17.250
G1 X86.905 Y3.000 Z-17.250
G1 X82.662 Y3.000 Z-17.250
G1 X74.250 Y11.412 Z-17.250
G1 X74.250 Y7.169 Z-17.250
G1 X78.419 Y3.000 Z-17.250
G1 X74.250 Y3.000 Z-17.250
G1 X74.250 Y7.169 Z-17.250
G1 X74.250 Y7.169 Z-22.500
G1 X74.250 Y3.000 Z-22.500
G1 X78.419 Y3.000 Z-22.500
G1 X74.250 Y7.169 Z-22.500
G1 X74.250 Y11.412 Z-22.500
G1 X82.662 Y3.000 Z-22.500
G1 X86.905 Y3.000 Z-22.500
G1 X74.250 Y15.655 Z-22.500
G1 X74.250 Y19.897 Z-22.500
G1 X91.147 Y3.000 Z-22.500
G1 X92.000 Y3.000 Z-22.500
G1 X92.000 Y6.390 Z-22.500
G1 X74.250 Y24.140 Z-22.500
G1 X74.250 Y28.382 Z-22.500
G1 X92.000 Y10.632 Z-22.500
G1 X92.000 Y14.875 Z-22.500
G1 X74.250 Y32.625 Z-22.500
G1 X74.250 Y36.868 Z-22.500
G1 X92.000 Y19.118 Z-22.500
G1 X92.000 Y23.360 Z-22.500
G1 X74.250 Y41.110 Z-22.500
G1 X74.250 Y45.353 Z-22.500
G1 X92.000 Y27.603 Z-22.500
G1 X92.000 Y31.846 Z-22.500
G1 X74.250 Y49.596 Z-22.500
G1 X74.250 Y53.838 Z-22.500
G1 X92.000 Y36.088 Z-22.500
G1 X92.000 Y40.331 Z-22.500
G1 X74.250 Y58.081 Z-22.500
G1 X74.250 Y62.324 Z-22.500
G1 X92.000 Y44.574 Z-22.500
G1 X92.000 Y48.816 Z-22.500
G1 X74.250 Y66.566 Z-22.500
G1 X74.250 Y70.809 Z-22.500
G1 X92.000 Y53.059 Z-22.500
G1 X92.000 Y57.302 Z-22.500
G1 X74.250 Y75.052 Z-22.500
G1 X74.250 Y79.294 Z-22.500
G1 X92.000 Y61.544 Z-22.500
G1 X92.000 Y65.787 Z-22.500
G1 X74.250 Y83.537 Z-22.500
G1 X74.250 Y87.000 Z-22.500
G1 X75.029 Y87.000 Z-22.500
G1 X92.000 Y70.029 Z-22.500
G1 X92.000 Y74.272 Z-22.500
G1 X79.272 Y87.000 Z-22.500
G1 X83.515 Y87.000 Z-22.500
G1 X92.000 Y78.515 Z-22.500
G1 X92.000 Y82.757 Z-22.500
G1 X87.757 Y87.000 Z-22.500
G1 X92.000 Y87.000 Z-22.500
G1 X92.000 Y87.000 Z-22.500
G1 X92.000 Y3.000 Z-22.500
G1 X74.250 Y3.000 Z-22.500
G1 X74.250 Y87.000 Z-22.500
G1 X92.000 Y87.000 Z-22.500
G0 Z5.000
G0 Z5.000
(Finish operation: MillFace002)
(Begin postamble)
M5
G17 G90
M2
