(Exported by FreeCAD)
(Post Processor: grbl_post)
(Output Time:2021-05-11 19:53:22.993170)
(Begin preamble)
G17 G90
G21
(Begin operation: Fixture)
(Path: Fixture)
G54
(Finish operation: Fixture)
(Begin operation: claas_6mm_endmill005)
(Path: claas_6mm_endmill005)
(claas_6mm_endmill005)
(Begin toolchange)
( M6 T1.0 )
M3 S0.0
(Finish operation: claas_6mm_endmill005)
(Begin operation: Pocket_Shape003)
(Path: Pocket_Shape003)
(Pocket_Shape003)
G0 Z5.000
G0 X92.000 Y92.000
G0 Z3.000
G1 X92.000 Y92.000 Z-6.000
G1 X92.000 Y3.000 Z-6.000
G1 X3.000 Y3.000 Z-6.000
G1 X3.000 Y92.000 Z-6.000
G1 X92.000 Y92.000 Z-6.000
G1 X92.000 Y92.000 Z-6.000
G1 X83.515 Y92.000 Z-6.000
G1 X92.000 Y83.515 Z-6.000
G1 X92.000 Y75.029 Z-6.000
G1 X75.029 Y92.000 Z-6.000
G1 X66.544 Y92.000 Z-6.000
G1 X92.000 Y66.544 Z-6.000
G1 X92.000 Y58.059 Z-6.000
G1 X58.059 Y92.000 Z-6.000
G1 X49.574 Y92.000 Z-6.000
G1 X92.000 Y49.574 Z-6.000
G1 X92.000 Y41.088 Z-6.000
G1 X41.088 Y92.000 Z-6.000
G1 X32.603 Y92.000 Z-6.000
G1 X92.000 Y32.603 Z-6.000
G1 X92.000 Y24.118 Z-6.000
G1 X24.118 Y92.000 Z-6.000
G1 X15.632 Y92.000 Z-6.000
G1 X92.000 Y15.632 Z-6.000
G1 X92.000 Y7.147 Z-6.000
G1 X7.147 Y92.000 Z-6.000
G1 X3.000 Y92.000 Z-6.000
G1 X3.000 Y87.662 Z-6.000
G1 X87.662 Y3.000 Z-6.000
G1 X79.177 Y3.000 Z-6.000
G1 X3.000 Y79.177 Z-6.000
G1 X3.000 Y70.691 Z-6.000
G1 X70.691 Y3.000 Z-6.000
G1 X62.206 Y3.000 Z-6.000
G1 X3.000 Y62.206 Z-6.000
G1 X3.000 Y53.721 Z-6.000
G1 X53.721 Y3.000 Z-6.000
G1 X45.235 Y3.000 Z-6.000
G1 X3.000 Y45.235 Z-6.000
G1 X3.000 Y36.750 Z-6.000
G1 X36.750 Y3.000 Z-6.000
G1 X28.265 Y3.000 Z-6.000
G1 X3.000 Y28.265 Z-6.000
G1 X3.000 Y19.780 Z-6.000
G1 X19.780 Y3.000 Z-6.000
G1 X11.294 Y3.000 Z-6.000
G1 X3.000 Y3.000 Z-6.000
G1 X3.000 Y11.294 Z-6.000
G1 X11.294 Y3.000 Z-6.000
G1 X11.294 Y3.000 Z-12.000
G1 X3.000 Y11.294 Z-12.000
G1 X3.000 Y3.000 Z-12.000
G1 X11.294 Y3.000 Z-12.000
G1 X19.780 Y3.000 Z-12.000
G1 X3.000 Y19.780 Z-12.000
G1 X3.000 Y28.265 Z-12.000
G1 X28.265 Y3.000 Z-12.000
G1 X36.750 Y3.000 Z-12.000
G1 X3.000 Y36.750 Z-12.000
G1 X3.000 Y45.235 Z-12.000
G1 X45.235 Y3.000 Z-12.000
G1 X53.721 Y3.000 Z-12.000
G1 X3.000 Y53.721 Z-12.000
G1 X3.000 Y62.206 Z-12.000
G1 X62.206 Y3.000 Z-12.000
G1 X70.691 Y3.000 Z-12.000
G1 X3.000 Y70.691 Z-12.000
G1 X3.000 Y79.177 Z-12.000
G1 X79.177 Y3.000 Z-12.000
G1 X87.662 Y3.000 Z-12.000
G1 X3.000 Y87.662 Z-12.000
G1 X3.000 Y92.000 Z-12.000
G1 X7.147 Y92.000 Z-12.000
G1 X92.000 Y7.147 Z-12.000
G1 X92.000 Y15.632 Z-12.000
G1 X15.632 Y92.000 Z-12.000
G1 X24.118 Y92.000 Z-12.000
G1 X92.000 Y24.118 Z-12.000
G1 X92.000 Y32.603 Z-12.000
G1 X32.603 Y92.000 Z-12.000
G1 X41.088 Y92.000 Z-12.000
G1 X92.000 Y41.088 Z-12.000
G1 X92.000 Y49.574 Z-12.000
G1 X49.574 Y92.000 Z-12.000
G1 X58.059 Y92.000 Z-12.000
G1 X92.000 Y58.059 Z-12.000
G1 X92.000 Y66.544 Z-12.000
G1 X66.544 Y92.000 Z-12.000
G1 X75.029 Y92.000 Z-12.000
G1 X92.000 Y75.029 Z-12.000
G1 X92.000 Y83.515 Z-12.000
G1 X83.515 Y92.000 Z-12.000
G1 X92.000 Y92.000 Z-12.000
G1 X92.000 Y92.000 Z-12.000
G1 X92.000 Y3.000 Z-12.000
G1 X3.000 Y3.000 Z-12.000
G1 X3.000 Y92.000 Z-12.000
G1 X92.000 Y92.000 Z-12.000
G1 X92.000 Y92.000 Z-18.000
G1 X92.000 Y3.000 Z-18.000
G1 X3.000 Y3.000 Z-18.000
G1 X3.000 Y92.000 Z-18.000
G1 X92.000 Y92.000 Z-18.000
G1 X92.000 Y92.000 Z-18.000
G1 X83.515 Y92.000 Z-18.000
G1 X92.000 Y83.515 Z-18.000
G1 X92.000 Y75.029 Z-18.000
G1 X75.029 Y92.000 Z-18.000
G1 X66.544 Y92.000 Z-18.000
G1 X92.000 Y66.544 Z-18.000
G1 X92.000 Y58.059 Z-18.000
G1 X58.059 Y92.000 Z-18.000
G1 X49.574 Y92.000 Z-18.000
G1 X92.000 Y49.574 Z-18.000
G1 X92.000 Y41.088 Z-18.000
G1 X41.088 Y92.000 Z-18.000
G1 X32.603 Y92.000 Z-18.000
G1 X92.000 Y32.603 Z-18.000
G1 X92.000 Y24.118 Z-18.000
G1 X24.118 Y92.000 Z-18.000
G1 X15.632 Y92.000 Z-18.000
G1 X92.000 Y15.632 Z-18.000
G1 X92.000 Y7.147 Z-18.000
G1 X7.147 Y92.000 Z-18.000
G1 X3.000 Y92.000 Z-18.000
G1 X3.000 Y87.662 Z-18.000
G1 X87.662 Y3.000 Z-18.000
G1 X79.177 Y3.000 Z-18.000
G1 X3.000 Y79.177 Z-18.000
G1 X3.000 Y70.691 Z-18.000
G1 X70.691 Y3.000 Z-18.000
G1 X62.206 Y3.000 Z-18.000
G1 X3.000 Y62.206 Z-18.000
G1 X3.000 Y53.721 Z-18.000
G1 X53.721 Y3.000 Z-18.000
G1 X45.235 Y3.000 Z-18.000
G1 X3.000 Y45.235 Z-18.000
G1 X3.000 Y36.750 Z-18.000
G1 X36.750 Y3.000 Z-18.000
G1 X28.265 Y3.000 Z-18.000
G1 X3.000 Y28.265 Z-18.000
G1 X3.000 Y19.780 Z-18.000
G1 X19.780 Y3.000 Z-18.000
G1 X11.294 Y3.000 Z-18.000
G1 X3.000 Y3.000 Z-18.000
G1 X3.000 Y11.294 Z-18.000
G1 X11.294 Y3.000 Z-18.000
G1 X11.294 Y3.000 Z-22.500
G1 X3.000 Y3.000 Z-22.500
G1 X3.000 Y92.000 Z-22.500
G1 X92.000 Y92.000 Z-22.500
G1 X92.000 Y3.000 Z-22.500
G1 X11.294 Y3.000 Z-22.500
G1 X11.294 Y3.000 Z-22.500
G1 X3.000 Y11.294 Z-22.500
G1 X3.000 Y3.000 Z-22.500
G1 X11.294 Y3.000 Z-22.500
G1 X19.780 Y3.000 Z-22.500
G1 X3.000 Y19.780 Z-22.500
G1 X3.000 Y28.265 Z-22.500
G1 X28.265 Y3.000 Z-22.500
G1 X36.750 Y3.000 Z-22.500
G1 X3.000 Y36.750 Z-22.500
G1 X3.000 Y45.235 Z-22.500
G1 X45.235 Y3.000 Z-22.500
G1 X53.721 Y3.000 Z-22.500
G1 X3.000 Y53.721 Z-22.500
G1 X3.000 Y62.206 Z-22.500
G1 X62.206 Y3.000 Z-22.500
G1 X70.691 Y3.000 Z-22.500
G1 X3.000 Y70.691 Z-22.500
G1 X3.000 Y79.177 Z-22.500
G1 X79.177 Y3.000 Z-22.500
G1 X87.662 Y3.000 Z-22.500
G1 X3.000 Y87.662 Z-22.500
G1 X3.000 Y92.000 Z-22.500
G1 X7.147 Y92.000 Z-22.500
G1 X92.000 Y7.147 Z-22.500
G1 X92.000 Y15.632 Z-22.500
G1 X15.632 Y92.000 Z-22.500
G1 X24.118 Y92.000 Z-22.500
G1 X92.000 Y24.118 Z-22.500
G1 X92.000 Y32.603 Z-22.500
G1 X32.603 Y92.000 Z-22.500
G1 X41.088 Y92.000 Z-22.500
G1 X92.000 Y41.088 Z-22.500
G1 X92.000 Y49.574 Z-22.500
G1 X49.574 Y92.000 Z-22.500
G1 X58.059 Y92.000 Z-22.500
G1 X92.000 Y58.059 Z-22.500
G1 X92.000 Y66.544 Z-22.500
G1 X66.544 Y92.000 Z-22.500
G1 X75.029 Y92.000 Z-22.500
G1 X92.000 Y75.029 Z-22.500
G1 X92.000 Y83.515 Z-22.500
G1 X83.515 Y92.000 Z-22.500
G1 X92.000 Y92.000 Z-22.500
G0 Z5.000
G0 Z5.000
(Finish operation: Pocket_Shape003)
(Begin postamble)
M5
G17 G90
M2
