(Exported by FreeCAD)
(Post Processor: grbl_post)
(Output Time:2021-03-25 17:44:42.482756)
(Begin preamble)
G17 G90
G21
(Begin operation: Fixture)
(Path: Fixture)
G54
(Finish operation: Fixture)
(Begin operation: claas_6mm_endmill001)
(Path: claas_6mm_endmill001)
(claas_6mm_endmill001)
(Begin toolchange)
( M6 T1.0 )
M3 S0.0
(Finish operation: claas_6mm_endmill001)
(Begin operation: Drilling)
(Path: Drilling)
(Drilling)
(Begin Drilling)
G0 Z5.000
G90
( G99 )
(G81 X0.000 Y0.000 Z-20.000 F360.000 R1.000)
G0 X0.000 Y0.000
G1 Z1.000 F360.00
G1 Z-20.000 F360.00
G0 Z1.000
( G80 )
G0 Z3.000
(G81 X90.000 Y0.000 Z-20.000 F360.000 R1.000)
G0 X90.000 Y0.000
G1 Z1.000 F360.00
G1 Z-20.000 F360.00
G0 Z1.000
( G80 )
G0 Z3.000
(G81 X90.000 Y120.000 Z-20.000 F360.000 R1.000)
G0 X90.000 Y120.000
G1 Z1.000 F360.00
G1 Z-20.000 F360.00
G0 Z1.000
( G80 )
G0 Z3.000
(G81 X0.000 Y120.000 Z-20.000 F360.000 R1.000)
G0 X0.000 Y120.000
G1 Z1.000 F360.00
G1 Z-20.000 F360.00
G0 Z1.000
( G80 )
G0 Z3.000
(G81 X0.000 Y240.000 Z-20.000 F360.000 R1.000)
G0 X0.000 Y240.000
G1 Z1.000 F360.00
G1 Z-20.000 F360.00
G0 Z1.000
( G80 )
G0 Z3.000
(G81 X90.000 Y240.000 Z-20.000 F360.000 R1.000)
G0 X90.000 Y240.000
G1 Z1.000 F360.00
G1 Z-20.000 F360.00
G0 Z1.000
( G80 )
G0 Z3.000
(G81 X90.000 Y360.000 Z-20.000 F360.000 R1.000)
G0 X90.000 Y360.000
G1 Z1.000 F360.00
G1 Z-20.000 F360.00
G0 Z1.000
( G80 )
G0 Z3.000
(G81 X0.000 Y360.000 Z-20.000 F360.000 R1.000)
G0 X0.000 Y360.000
G1 Z1.000 F360.00
G1 Z-20.000 F360.00
G0 Z1.000
( G80 )
G0 Z3.000
(G81 X0.000 Y480.000 Z-20.000 F360.000 R1.000)
G0 X0.000 Y480.000
G1 Z1.000 F360.00
G1 Z-20.000 F360.00
G0 Z1.000
( G80 )
G0 Z3.000
(G81 X90.000 Y480.000 Z-20.000 F360.000 R1.000)
G0 X90.000 Y480.000
G1 Z1.000 F360.00
G1 Z-20.000 F360.00
G0 Z1.000
( G80 )
G0 Z3.000
(G81 X267.000 Y480.000 Z-20.000 F360.000 R1.000)
G0 X267.000 Y480.000
G1 Z1.000 F360.00
G1 Z-20.000 F360.00
G0 Z1.000
( G80 )
G0 Z3.000
(G81 X357.000 Y480.000 Z-20.000 F360.000 R1.000)
G0 X357.000 Y480.000
G1 Z1.000 F360.00
G1 Z-20.000 F360.00
G0 Z1.000
( G80 )
G0 Z3.000
(G81 X357.000 Y360.000 Z-20.000 F360.000 R1.000)
G0 X357.000 Y360.000
G1 Z1.000 F360.00
G1 Z-20.000 F360.00
G0 Z1.000
( G80 )
G0 Z3.000
(G81 X267.000 Y360.000 Z-20.000 F360.000 R1.000)
G0 X267.000 Y360.000
G1 Z1.000 F360.00
G1 Z-20.000 F360.00
G0 Z1.000
( G80 )
G0 Z3.000
(G81 X267.000 Y240.000 Z-20.000 F360.000 R1.000)
G0 X267.000 Y240.000
G1 Z1.000 F360.00
G1 Z-20.000 F360.00
G0 Z1.000
( G80 )
G0 Z3.000
(G81 X357.000 Y240.000 Z-20.000 F360.000 R1.000)
G0 X357.000 Y240.000
G1 Z1.000 F360.00
G1 Z-20.000 F360.00
G0 Z1.000
( G80 )
G0 Z3.000
(G81 X357.000 Y120.000 Z-20.000 F360.000 R1.000)
G0 X357.000 Y120.000
G1 Z1.000 F360.00
G1 Z-20.000 F360.00
G0 Z1.000
( G80 )
G0 Z3.000
(G81 X267.000 Y120.000 Z-20.000 F360.000 R1.000)
G0 X267.000 Y120.000
G1 Z1.000 F360.00
G1 Z-20.000 F360.00
G0 Z1.000
( G80 )
G0 Z3.000
(G81 X267.000 Y0.000 Z-20.000 F360.000 R1.000)
G0 X267.000 Y0.000
G1 Z1.000 F360.00
G1 Z-20.000 F360.00
G0 Z1.000
( G80 )
G0 Z3.000
(G81 X357.000 Y0.000 Z-20.000 F360.000 R1.000)
G0 X357.000 Y0.000
G1 Z1.000 F360.00
G1 Z-20.000 F360.00
G0 Z1.000
( G80 )
G0 Z3.000
G0 Z5.000
(Finish operation: Drilling)
(Begin postamble)
M5
G17 G90
M2
