(Exported by FreeCAD)
(Post Processor: grbl_post)
(Output Time:2021-03-26 19:26:39.031502)
(Begin preamble)
G17 G90
G21
(Begin operation: Fixture)
(Path: Fixture)
G54
(Finish operation: Fixture)
(Begin operation: claas_3mm_endmil003)
(Path: claas_3mm_endmil003)
(claas_3mm_endmil003)
(Begin toolchange)
( M6 T1.0 )
M3 S0.0
(Finish operation: claas_3mm_endmil003)
(Begin operation: Drilling008)
(Path: Drilling008)
(Drilling008)
(Begin Drilling)
G0 Z5.000
G90
( G98 )
(G83 X225.000 Y11.000 Z-20.000 F360.000 Q10.000 R1.000)
G0 X225.000 Y11.000
G1 Z-5.000 F360.00
G0 Z5.000
G0 Z-4.500
G1 Z-15.000 F360.00
G0 Z5.000
G0 Z-14.500
G1 Z-20.000 F360.00
G0 Z5.000
( G80 )
G0 Z3.000
(G83 X235.000 Y11.000 Z-20.000 F360.000 Q10.000 R1.000)
G0 X235.000 Y11.000
G1 Z-7.000 F360.00
G0 Z3.000
G0 Z-6.500
G1 Z-17.000 F360.00
G0 Z3.000
G0 Z-16.500
G1 Z-20.000 F360.00
G0 Z3.000
( G80 )
G0 Z3.000
(G83 X245.000 Y11.000 Z-20.000 F360.000 Q10.000 R1.000)
G0 X245.000 Y11.000
G1 Z-7.000 F360.00
G0 Z3.000
G0 Z-6.500
G1 Z-17.000 F360.00
G0 Z3.000
G0 Z-16.500
G1 Z-20.000 F360.00
G0 Z3.000
( G80 )
G0 Z3.000
(G83 X255.000 Y11.000 Z-20.000 F360.000 Q10.000 R1.000)
G0 X255.000 Y11.000
G1 Z-7.000 F360.00
G0 Z3.000
G0 Z-6.500
G1 Z-17.000 F360.00
G0 Z3.000
G0 Z-16.500
G1 Z-20.000 F360.00
G0 Z3.000
( G80 )
G0 Z3.000
(G83 X265.000 Y11.000 Z-20.000 F360.000 Q10.000 R1.000)
G0 X265.000 Y11.000
G1 Z-7.000 F360.00
G0 Z3.000
G0 Z-6.500
G1 Z-17.000 F360.00
G0 Z3.000
G0 Z-16.500
G1 Z-20.000 F360.00
G0 Z3.000
( G80 )
G0 Z3.000
(G83 X275.000 Y11.000 Z-20.000 F360.000 Q10.000 R1.000)
G0 X275.000 Y11.000
G1 Z-7.000 F360.00
G0 Z3.000
G0 Z-6.500
G1 Z-17.000 F360.00
G0 Z3.000
G0 Z-16.500
G1 Z-20.000 F360.00
G0 Z3.000
( G80 )
G0 Z3.000
(G83 X285.000 Y11.000 Z-20.000 F360.000 Q10.000 R1.000)
G0 X285.000 Y11.000
G1 Z-7.000 F360.00
G0 Z3.000
G0 Z-6.500
G1 Z-17.000 F360.00
G0 Z3.000
G0 Z-16.500
G1 Z-20.000 F360.00
G0 Z3.000
( G80 )
G0 Z3.000
(G83 X285.000 Y25.000 Z-20.000 F360.000 Q10.000 R1.000)
G0 X285.000 Y25.000
G1 Z-7.000 F360.00
G0 Z3.000
G0 Z-6.500
G1 Z-17.000 F360.00
G0 Z3.000
G0 Z-16.500
G1 Z-20.000 F360.00
G0 Z3.000
( G80 )
G0 Z3.000
(G83 X275.000 Y25.000 Z-20.000 F360.000 Q10.000 R1.000)
G0 X275.000 Y25.000
G1 Z-7.000 F360.00
G0 Z3.000
G0 Z-6.500
G1 Z-17.000 F360.00
G0 Z3.000
G0 Z-16.500
G1 Z-20.000 F360.00
G0 Z3.000
( G80 )
G0 Z3.000
(G83 X265.000 Y25.000 Z-20.000 F360.000 Q10.000 R1.000)
G0 X265.000 Y25.000
G1 Z-7.000 F360.00
G0 Z3.000
G0 Z-6.500
G1 Z-17.000 F360.00
G0 Z3.000
G0 Z-16.500
G1 Z-20.000 F360.00
G0 Z3.000
( G80 )
G0 Z3.000
(G83 X255.000 Y25.000 Z-20.000 F360.000 Q10.000 R1.000)
G0 X255.000 Y25.000
G1 Z-7.000 F360.00
G0 Z3.000
G0 Z-6.500
G1 Z-17.000 F360.00
G0 Z3.000
G0 Z-16.500
G1 Z-20.000 F360.00
G0 Z3.000
( G80 )
G0 Z3.000
(G83 X245.000 Y25.000 Z-20.000 F360.000 Q10.000 R1.000)
G0 X245.000 Y25.000
G1 Z-7.000 F360.00
G0 Z3.000
G0 Z-6.500
G1 Z-17.000 F360.00
G0 Z3.000
G0 Z-16.500
G1 Z-20.000 F360.00
G0 Z3.000
( G80 )
G0 Z3.000
(G83 X235.000 Y25.000 Z-20.000 F360.000 Q10.000 R1.000)
G0 X235.000 Y25.000
G1 Z-7.000 F360.00
G0 Z3.000
G0 Z-6.500
G1 Z-17.000 F360.00
G0 Z3.000
G0 Z-16.500
G1 Z-20.000 F360.00
G0 Z3.000
( G80 )
G0 Z3.000
(G83 X225.000 Y25.000 Z-20.000 F360.000 Q10.000 R1.000)
G0 X225.000 Y25.000
G1 Z-7.000 F360.00
G0 Z3.000
G0 Z-6.500
G1 Z-17.000 F360.00
G0 Z3.000
G0 Z-16.500
G1 Z-20.000 F360.00
G0 Z3.000
( G80 )
G0 Z3.000
G0 Z5.000
(Finish operation: Drilling008)
(Begin postamble)
M5
G17 G90
M2
