(Exported by FreeCAD)
(Post Processor: grbl_post)
(Output Time:2021-03-26 19:06:17.038200)
(Begin preamble)
G17 G90
G21
(Begin operation: Fixture)
(Path: Fixture)
G54
(Finish operation: Fixture)
(Begin operation: claas_3mm_endmil003)
(Path: claas_3mm_endmil003)
(claas_3mm_endmil003)
(Begin toolchange)
( M6 T1.0 )
M3 S0.0
(Finish operation: claas_3mm_endmil003)
(Begin operation: Drilling001)
(Path: Drilling001)
(Drilling001)
(Begin Drilling)
G0 Z5.000
G90
( G98 )
(G83 X225.000 Y11.000 Z-20.000 F360.000 Q5.000 R1.000)
G0 X225.000 Y11.000
G1 Z0.000 F360.00
G0 Z5.000
G0 Z0.250
G1 Z-5.000 F360.00
G0 Z5.000
G0 Z-4.750
G1 Z-10.000 F360.00
G0 Z5.000
G0 Z-9.750
G1 Z-15.000 F360.00
G0 Z5.000
G0 Z-14.750
G1 Z-20.000 F360.00
G0 Z5.000
( G80 )
G0 Z3.000
(G83 X235.000 Y11.000 Z-20.000 F360.000 Q5.000 R1.000)
G0 X235.000 Y11.000
G1 Z-2.000 F360.00
G0 Z3.000
G0 Z-1.750
G1 Z-7.000 F360.00
G0 Z3.000
G0 Z-6.750
G1 Z-12.000 F360.00
G0 Z3.000
G0 Z-11.750
G1 Z-17.000 F360.00
G0 Z3.000
G0 Z-16.750
G1 Z-20.000 F360.00
G0 Z3.000
( G80 )
G0 Z3.000
(G83 X245.000 Y11.000 Z-20.000 F360.000 Q5.000 R1.000)
G0 X245.000 Y11.000
G1 Z-2.000 F360.00
G0 Z3.000
G0 Z-1.750
G1 Z-7.000 F360.00
G0 Z3.000
G0 Z-6.750
G1 Z-12.000 F360.00
G0 Z3.000
G0 Z-11.750
G1 Z-17.000 F360.00
G0 Z3.000
G0 Z-16.750
G1 Z-20.000 F360.00
G0 Z3.000
( G80 )
G0 Z3.000
(G83 X255.000 Y11.000 Z-20.000 F360.000 Q5.000 R1.000)
G0 X255.000 Y11.000
G1 Z-2.000 F360.00
G0 Z3.000
G0 Z-1.750
G1 Z-7.000 F360.00
G0 Z3.000
G0 Z-6.750
G1 Z-12.000 F360.00
G0 Z3.000
G0 Z-11.750
G1 Z-17.000 F360.00
G0 Z3.000
G0 Z-16.750
G1 Z-20.000 F360.00
G0 Z3.000
( G80 )
G0 Z3.000
(G83 X265.000 Y11.000 Z-20.000 F360.000 Q5.000 R1.000)
G0 X265.000 Y11.000
G1 Z-2.000 F360.00
G0 Z3.000
G0 Z-1.750
G1 Z-7.000 F360.00
G0 Z3.000
G0 Z-6.750
G1 Z-12.000 F360.00
G0 Z3.000
G0 Z-11.750
G1 Z-17.000 F360.00
G0 Z3.000
G0 Z-16.750
G1 Z-20.000 F360.00
G0 Z3.000
( G80 )
G0 Z3.000
(G83 X275.000 Y11.000 Z-20.000 F360.000 Q5.000 R1.000)
G0 X275.000 Y11.000
G1 Z-2.000 F360.00
G0 Z3.000
G0 Z-1.750
G1 Z-7.000 F360.00
G0 Z3.000
G0 Z-6.750
G1 Z-12.000 F360.00
G0 Z3.000
G0 Z-11.750
G1 Z-17.000 F360.00
G0 Z3.000
G0 Z-16.750
G1 Z-20.000 F360.00
G0 Z3.000
( G80 )
G0 Z3.000
(G83 X285.000 Y11.000 Z-20.000 F360.000 Q5.000 R1.000)
G0 X285.000 Y11.000
G1 Z-2.000 F360.00
G0 Z3.000
G0 Z-1.750
G1 Z-7.000 F360.00
G0 Z3.000
G0 Z-6.750
G1 Z-12.000 F360.00
G0 Z3.000
G0 Z-11.750
G1 Z-17.000 F360.00
G0 Z3.000
G0 Z-16.750
G1 Z-20.000 F360.00
G0 Z3.000
( G80 )
G0 Z3.000
(G83 X285.000 Y25.000 Z-20.000 F360.000 Q5.000 R1.000)
G0 X285.000 Y25.000
G1 Z-2.000 F360.00
G0 Z3.000
G0 Z-1.750
G1 Z-7.000 F360.00
G0 Z3.000
G0 Z-6.750
G1 Z-12.000 F360.00
G0 Z3.000
G0 Z-11.750
G1 Z-17.000 F360.00
G0 Z3.000
G0 Z-16.750
G1 Z-20.000 F360.00
G0 Z3.000
( G80 )
G0 Z3.000
(G83 X275.000 Y25.000 Z-20.000 F360.000 Q5.000 R1.000)
G0 X275.000 Y25.000
G1 Z-2.000 F360.00
G0 Z3.000
G0 Z-1.750
G1 Z-7.000 F360.00
G0 Z3.000
G0 Z-6.750
G1 Z-12.000 F360.00
G0 Z3.000
G0 Z-11.750
G1 Z-17.000 F360.00
G0 Z3.000
G0 Z-16.750
G1 Z-20.000 F360.00
G0 Z3.000
( G80 )
G0 Z3.000
(G83 X265.000 Y25.000 Z-20.000 F360.000 Q5.000 R1.000)
G0 X265.000 Y25.000
G1 Z-2.000 F360.00
G0 Z3.000
G0 Z-1.750
G1 Z-7.000 F360.00
G0 Z3.000
G0 Z-6.750
G1 Z-12.000 F360.00
G0 Z3.000
G0 Z-11.750
G1 Z-17.000 F360.00
G0 Z3.000
G0 Z-16.750
G1 Z-20.000 F360.00
G0 Z3.000
( G80 )
G0 Z3.000
(G83 X255.000 Y25.000 Z-20.000 F360.000 Q5.000 R1.000)
G0 X255.000 Y25.000
G1 Z-2.000 F360.00
G0 Z3.000
G0 Z-1.750
G1 Z-7.000 F360.00
G0 Z3.000
G0 Z-6.750
G1 Z-12.000 F360.00
G0 Z3.000
G0 Z-11.750
G1 Z-17.000 F360.00
G0 Z3.000
G0 Z-16.750
G1 Z-20.000 F360.00
G0 Z3.000
( G80 )
G0 Z3.000
(G83 X245.000 Y25.000 Z-20.000 F360.000 Q5.000 R1.000)
G0 X245.000 Y25.000
G1 Z-2.000 F360.00
G0 Z3.000
G0 Z-1.750
G1 Z-7.000 F360.00
G0 Z3.000
G0 Z-6.750
G1 Z-12.000 F360.00
G0 Z3.000
G0 Z-11.750
G1 Z-17.000 F360.00
G0 Z3.000
G0 Z-16.750
G1 Z-20.000 F360.00
G0 Z3.000
( G80 )
G0 Z3.000
(G83 X235.000 Y25.000 Z-20.000 F360.000 Q5.000 R1.000)
G0 X235.000 Y25.000
G1 Z-2.000 F360.00
G0 Z3.000
G0 Z-1.750
G1 Z-7.000 F360.00
G0 Z3.000
G0 Z-6.750
G1 Z-12.000 F360.00
G0 Z3.000
G0 Z-11.750
G1 Z-17.000 F360.00
G0 Z3.000
G0 Z-16.750
G1 Z-20.000 F360.00
G0 Z3.000
( G80 )
G0 Z3.000
(G83 X225.000 Y25.000 Z-20.000 F360.000 Q5.000 R1.000)
G0 X225.000 Y25.000
G1 Z-2.000 F360.00
G0 Z3.000
G0 Z-1.750
G1 Z-7.000 F360.00
G0 Z3.000
G0 Z-6.750
G1 Z-12.000 F360.00
G0 Z3.000
G0 Z-11.750
G1 Z-17.000 F360.00
G0 Z3.000
G0 Z-16.750
G1 Z-20.000 F360.00
G0 Z3.000
( G80 )
G0 Z3.000
G0 Z5.000
(Finish operation: Drilling001)
(Begin postamble)
M5
G17 G90
M2
