(Exported by FreeCAD)
(Post Processor: grbl_post)
(Output Time:2021-03-26 19:16:46.016427)
(Begin preamble)
G17 G90
G21
(Begin operation: Fixture)
(Path: Fixture)
G54
(Finish operation: Fixture)
(Begin operation: claas_6mm_endmill001)
(Path: claas_6mm_endmill001)
(claas_6mm_endmill001)
(Begin toolchange)
( M6 T1.0 )
M3 S0.0
(Finish operation: claas_6mm_endmill001)
(Begin operation: Drilling)
(Path: Drilling)
(Drilling)
(Begin Drilling)
G0 Z5.000
G90
( G98 )
(G83 X25.000 Y18.000 Z-7.000 F360.000 Q5.000 R1.000)
G0 X25.000 Y18.000
G1 Z0.000 F360.00
G0 Z5.000
G0 Z0.250
G1 Z-5.000 F360.00
G0 Z5.000
G0 Z-4.750
G1 Z-7.000 F360.00
G0 Z5.000
( G80 )
G0 Z3.000
(G83 X55.000 Y18.000 Z-7.000 F360.000 Q5.000 R1.000)
G0 X55.000 Y18.000
G1 Z-2.000 F360.00
G0 Z3.000
G0 Z-1.750
G1 Z-7.000 F360.00
G0 Z3.000
( G80 )
G0 Z3.000
(G83 X85.000 Y11.000 Z-7.000 F360.000 Q5.000 R1.000)
G0 X85.000 Y11.000
G1 Z-2.000 F360.00
G0 Z3.000
G0 Z-1.750
G1 Z-7.000 F360.00
G0 Z3.000
( G80 )
G0 Z3.000
(G83 X85.000 Y25.000 Z-7.000 F360.000 Q5.000 R1.000)
G0 X85.000 Y25.000
G1 Z-2.000 F360.00
G0 Z3.000
G0 Z-1.750
G1 Z-7.000 F360.00
G0 Z3.000
( G80 )
G0 Z3.000
(G83 X105.000 Y25.000 Z-7.000 F360.000 Q5.000 R1.000)
G0 X105.000 Y25.000
G1 Z-2.000 F360.00
G0 Z3.000
G0 Z-1.750
G1 Z-7.000 F360.00
G0 Z3.000
( G80 )
G0 Z3.000
(G83 X105.000 Y11.000 Z-7.000 F360.000 Q5.000 R1.000)
G0 X105.000 Y11.000
G1 Z-2.000 F360.00
G0 Z3.000
G0 Z-1.750
G1 Z-7.000 F360.00
G0 Z3.000
( G80 )
G0 Z3.000
(G83 X125.000 Y11.000 Z-7.000 F360.000 Q5.000 R1.000)
G0 X125.000 Y11.000
G1 Z-2.000 F360.00
G0 Z3.000
G0 Z-1.750
G1 Z-7.000 F360.00
G0 Z3.000
( G80 )
G0 Z3.000
(G83 X125.000 Y25.000 Z-7.000 F360.000 Q5.000 R1.000)
G0 X125.000 Y25.000
G1 Z-2.000 F360.00
G0 Z3.000
G0 Z-1.750
G1 Z-7.000 F360.00
G0 Z3.000
( G80 )
G0 Z3.000
(G83 X145.000 Y25.000 Z-7.000 F360.000 Q5.000 R1.000)
G0 X145.000 Y25.000
G1 Z-2.000 F360.00
G0 Z3.000
G0 Z-1.750
G1 Z-7.000 F360.00
G0 Z3.000
( G80 )
G0 Z3.000
(G83 X145.000 Y11.000 Z-7.000 F360.000 Q5.000 R1.000)
G0 X145.000 Y11.000
G1 Z-2.000 F360.00
G0 Z3.000
G0 Z-1.750
G1 Z-7.000 F360.00
G0 Z3.000
( G80 )
G0 Z3.000
(G83 X165.000 Y11.000 Z-7.000 F360.000 Q5.000 R1.000)
G0 X165.000 Y11.000
G1 Z-2.000 F360.00
G0 Z3.000
G0 Z-1.750
G1 Z-7.000 F360.00
G0 Z3.000
( G80 )
G0 Z3.000
(G83 X165.000 Y25.000 Z-7.000 F360.000 Q5.000 R1.000)
G0 X165.000 Y25.000
G1 Z-2.000 F360.00
G0 Z3.000
G0 Z-1.750
G1 Z-7.000 F360.00
G0 Z3.000
( G80 )
G0 Z3.000
(G83 X185.000 Y25.000 Z-7.000 F360.000 Q5.000 R1.000)
G0 X185.000 Y25.000
G1 Z-2.000 F360.00
G0 Z3.000
G0 Z-1.750
G1 Z-7.000 F360.00
G0 Z3.000
( G80 )
G0 Z3.000
(G83 X185.000 Y11.000 Z-7.000 F360.000 Q5.000 R1.000)
G0 X185.000 Y11.000
G1 Z-2.000 F360.00
G0 Z3.000
G0 Z-1.750
G1 Z-7.000 F360.00
G0 Z3.000
( G80 )
G0 Z3.000
(G83 X205.000 Y11.000 Z-7.000 F360.000 Q5.000 R1.000)
G0 X205.000 Y11.000
G1 Z-2.000 F360.00
G0 Z3.000
G0 Z-1.750
G1 Z-7.000 F360.00
G0 Z3.000
( G80 )
G0 Z3.000
(G83 X205.000 Y25.000 Z-7.000 F360.000 Q5.000 R1.000)
G0 X205.000 Y25.000
G1 Z-2.000 F360.00
G0 Z3.000
G0 Z-1.750
G1 Z-7.000 F360.00
G0 Z3.000
( G80 )
G0 Z3.000
G0 Z5.000
(Finish operation: Drilling)
(Begin operation: Drilling005)
(Path: Drilling005)
(Drilling005)
(Begin Drilling)
G0 Z5.000
G90
( G99 )
(G81 X25.000 Y18.000 Z-14.000 F360.000 R1.000)
G0 X25.000 Y18.000
G1 Z1.000 F360.00
G1 Z-14.000 F360.00
G0 Z1.000
( G80 )
G0 Z3.000
(G81 X55.000 Y18.000 Z-14.000 F360.000 R1.000)
G0 X55.000 Y18.000
G1 Z1.000 F360.00
G1 Z-14.000 F360.00
G0 Z1.000
( G80 )
G0 Z3.000
(G81 X85.000 Y11.000 Z-14.000 F360.000 R1.000)
G0 X85.000 Y11.000
G1 Z1.000 F360.00
G1 Z-14.000 F360.00
G0 Z1.000
( G80 )
G0 Z3.000
(G81 X85.000 Y25.000 Z-14.000 F360.000 R1.000)
G0 X85.000 Y25.000
G1 Z1.000 F360.00
G1 Z-14.000 F360.00
G0 Z1.000
( G80 )
G0 Z3.000
(G81 X105.000 Y25.000 Z-14.000 F360.000 R1.000)
G0 X105.000 Y25.000
G1 Z1.000 F360.00
G1 Z-14.000 F360.00
G0 Z1.000
( G80 )
G0 Z3.000
(G81 X105.000 Y11.000 Z-14.000 F360.000 R1.000)
G0 X105.000 Y11.000
G1 Z1.000 F360.00
G1 Z-14.000 F360.00
G0 Z1.000
( G80 )
G0 Z3.000
(G81 X125.000 Y11.000 Z-14.000 F360.000 R1.000)
G0 X125.000 Y11.000
G1 Z1.000 F360.00
G1 Z-14.000 F360.00
G0 Z1.000
( G80 )
G0 Z3.000
(G81 X125.000 Y25.000 Z-14.000 F360.000 R1.000)
G0 X125.000 Y25.000
G1 Z1.000 F360.00
G1 Z-14.000 F360.00
G0 Z1.000
( G80 )
G0 Z3.000
(G81 X145.000 Y25.000 Z-14.000 F360.000 R1.000)
G0 X145.000 Y25.000
G1 Z1.000 F360.00
G1 Z-14.000 F360.00
G0 Z1.000
( G80 )
G0 Z3.000
(G81 X145.000 Y11.000 Z-14.000 F360.000 R1.000)
G0 X145.000 Y11.000
G1 Z1.000 F360.00
G1 Z-14.000 F360.00
G0 Z1.000
( G80 )
G0 Z3.000
(G81 X165.000 Y11.000 Z-14.000 F360.000 R1.000)
G0 X165.000 Y11.000
G1 Z1.000 F360.00
G1 Z-14.000 F360.00
G0 Z1.000
( G80 )
G0 Z3.000
(G81 X165.000 Y25.000 Z-14.000 F360.000 R1.000)
G0 X165.000 Y25.000
G1 Z1.000 F360.00
G1 Z-14.000 F360.00
G0 Z1.000
( G80 )
G0 Z3.000
(G81 X185.000 Y25.000 Z-14.000 F360.000 R1.000)
G0 X185.000 Y25.000
G1 Z1.000 F360.00
G1 Z-14.000 F360.00
G0 Z1.000
( G80 )
G0 Z3.000
(G81 X185.000 Y11.000 Z-14.000 F360.000 R1.000)
G0 X185.000 Y11.000
G1 Z1.000 F360.00
G1 Z-14.000 F360.00
G0 Z1.000
( G80 )
G0 Z3.000
(G81 X205.000 Y11.000 Z-14.000 F360.000 R1.000)
G0 X205.000 Y11.000
G1 Z1.000 F360.00
G1 Z-14.000 F360.00
G0 Z1.000
( G80 )
G0 Z3.000
(G81 X205.000 Y25.000 Z-14.000 F360.000 R1.000)
G0 X205.000 Y25.000
G1 Z1.000 F360.00
G1 Z-14.000 F360.00
G0 Z1.000
( G80 )
G0 Z3.000
G0 Z5.000
(Finish operation: Drilling005)
(Begin operation: Drilling006)
(Path: Drilling006)
(Drilling006)
(Begin Drilling)
G0 Z5.000
G90
( G99 )
(G81 X25.000 Y18.000 Z-20.000 F360.000 R1.000)
G0 X25.000 Y18.000
G1 Z1.000 F360.00
G1 Z-20.000 F360.00
G0 Z1.000
( G80 )
G0 Z3.000
(G81 X55.000 Y18.000 Z-20.000 F360.000 R1.000)
G0 X55.000 Y18.000
G1 Z1.000 F360.00
G1 Z-20.000 F360.00
G0 Z1.000
( G80 )
G0 Z3.000
(G81 X85.000 Y11.000 Z-20.000 F360.000 R1.000)
G0 X85.000 Y11.000
G1 Z1.000 F360.00
G1 Z-20.000 F360.00
G0 Z1.000
( G80 )
G0 Z3.000
(G81 X85.000 Y25.000 Z-20.000 F360.000 R1.000)
G0 X85.000 Y25.000
G1 Z1.000 F360.00
G1 Z-20.000 F360.00
G0 Z1.000
( G80 )
G0 Z3.000
(G81 X105.000 Y25.000 Z-20.000 F360.000 R1.000)
G0 X105.000 Y25.000
G1 Z1.000 F360.00
G1 Z-20.000 F360.00
G0 Z1.000
( G80 )
G0 Z3.000
(G81 X105.000 Y11.000 Z-20.000 F360.000 R1.000)
G0 X105.000 Y11.000
G1 Z1.000 F360.00
G1 Z-20.000 F360.00
G0 Z1.000
( G80 )
G0 Z3.000
(G81 X125.000 Y11.000 Z-20.000 F360.000 R1.000)
G0 X125.000 Y11.000
G1 Z1.000 F360.00
G1 Z-20.000 F360.00
G0 Z1.000
( G80 )
G0 Z3.000
(G81 X125.000 Y25.000 Z-20.000 F360.000 R1.000)
G0 X125.000 Y25.000
G1 Z1.000 F360.00
G1 Z-20.000 F360.00
G0 Z1.000
( G80 )
G0 Z3.000
(G81 X145.000 Y25.000 Z-20.000 F360.000 R1.000)
G0 X145.000 Y25.000
G1 Z1.000 F360.00
G1 Z-20.000 F360.00
G0 Z1.000
( G80 )
G0 Z3.000
(G81 X145.000 Y11.000 Z-20.000 F360.000 R1.000)
G0 X145.000 Y11.000
G1 Z1.000 F360.00
G1 Z-20.000 F360.00
G0 Z1.000
( G80 )
G0 Z3.000
(G81 X165.000 Y11.000 Z-20.000 F360.000 R1.000)
G0 X165.000 Y11.000
G1 Z1.000 F360.00
G1 Z-20.000 F360.00
G0 Z1.000
( G80 )
G0 Z3.000
(G81 X165.000 Y25.000 Z-20.000 F360.000 R1.000)
G0 X165.000 Y25.000
G1 Z1.000 F360.00
G1 Z-20.000 F360.00
G0 Z1.000
( G80 )
G0 Z3.000
(G81 X185.000 Y25.000 Z-20.000 F360.000 R1.000)
G0 X185.000 Y25.000
G1 Z1.000 F360.00
G1 Z-20.000 F360.00
G0 Z1.000
( G80 )
G0 Z3.000
(G81 X185.000 Y11.000 Z-20.000 F360.000 R1.000)
G0 X185.000 Y11.000
G1 Z1.000 F360.00
G1 Z-20.000 F360.00
G0 Z1.000
( G80 )
G0 Z3.000
(G81 X205.000 Y11.000 Z-20.000 F360.000 R1.000)
G0 X205.000 Y11.000
G1 Z1.000 F360.00
G1 Z-20.000 F360.00
G0 Z1.000
( G80 )
G0 Z3.000
(G81 X205.000 Y25.000 Z-20.000 F360.000 R1.000)
G0 X205.000 Y25.000
G1 Z1.000 F360.00
G1 Z-20.000 F360.00
G0 Z1.000
( G80 )
G0 Z3.000
G0 Z5.000
(Finish operation: Drilling006)
(Begin postamble)
M5
G17 G90
M2
