(Exported by FreeCAD)
(Post Processor: grbl_post)
(Output Time:2021-03-26 19:16:33.714483)
(Begin preamble)
G17 G90
G21
(Begin operation: Fixture)
(Path: Fixture)
G54
(Finish operation: Fixture)
(Begin operation: claas_3mm_endmil003)
(Path: claas_3mm_endmil003)
(claas_3mm_endmil003)
(Begin toolchange)
( M6 T1.0 )
M3 S0.0
(Finish operation: claas_3mm_endmil003)
(Begin operation: Drilling001)
(Path: Drilling001)
(Drilling001)
(Begin Drilling)
G0 Z5.000
G90
( G98 )
(G81 X225.000 Y11.000 Z-7.000 F360.000 R1.000)
G0 X225.000 Y11.000
G1 Z-7.000 F360.00
G0 Z5.000
( G80 )
G0 Z3.000
(G81 X235.000 Y11.000 Z-7.000 F360.000 R1.000)
G0 X235.000 Y11.000
G1 Z-7.000 F360.00
G0 Z3.000
( G80 )
G0 Z3.000
(G81 X245.000 Y11.000 Z-7.000 F360.000 R1.000)
G0 X245.000 Y11.000
G1 Z-7.000 F360.00
G0 Z3.000
( G80 )
G0 Z3.000
(G81 X255.000 Y11.000 Z-7.000 F360.000 R1.000)
G0 X255.000 Y11.000
G1 Z-7.000 F360.00
G0 Z3.000
( G80 )
G0 Z3.000
(G81 X265.000 Y11.000 Z-7.000 F360.000 R1.000)
G0 X265.000 Y11.000
G1 Z-7.000 F360.00
G0 Z3.000
( G80 )
G0 Z3.000
(G81 X275.000 Y11.000 Z-7.000 F360.000 R1.000)
G0 X275.000 Y11.000
G1 Z-7.000 F360.00
G0 Z3.000
( G80 )
G0 Z3.000
(G81 X285.000 Y11.000 Z-7.000 F360.000 R1.000)
G0 X285.000 Y11.000
G1 Z-7.000 F360.00
G0 Z3.000
( G80 )
G0 Z3.000
(G81 X285.000 Y25.000 Z-7.000 F360.000 R1.000)
G0 X285.000 Y25.000
G1 Z-7.000 F360.00
G0 Z3.000
( G80 )
G0 Z3.000
(G81 X275.000 Y25.000 Z-7.000 F360.000 R1.000)
G0 X275.000 Y25.000
G1 Z-7.000 F360.00
G0 Z3.000
( G80 )
G0 Z3.000
(G81 X265.000 Y25.000 Z-7.000 F360.000 R1.000)
G0 X265.000 Y25.000
G1 Z-7.000 F360.00
G0 Z3.000
( G80 )
G0 Z3.000
(G81 X255.000 Y25.000 Z-7.000 F360.000 R1.000)
G0 X255.000 Y25.000
G1 Z-7.000 F360.00
G0 Z3.000
( G80 )
G0 Z3.000
(G81 X245.000 Y25.000 Z-7.000 F360.000 R1.000)
G0 X245.000 Y25.000
G1 Z-7.000 F360.00
G0 Z3.000
( G80 )
G0 Z3.000
(G81 X235.000 Y25.000 Z-7.000 F360.000 R1.000)
G0 X235.000 Y25.000
G1 Z-7.000 F360.00
G0 Z3.000
( G80 )
G0 Z3.000
(G81 X225.000 Y25.000 Z-7.000 F360.000 R1.000)
G0 X225.000 Y25.000
G1 Z-7.000 F360.00
G0 Z3.000
( G80 )
G0 Z3.000
G0 Z5.000
(Finish operation: Drilling001)
(Begin operation: Drilling003)
(Path: Drilling003)
(Drilling003)
(Begin Drilling)
G0 Z5.000
G90
( G99 )
(G81 X225.000 Y11.000 Z-14.000 F360.000 R1.000)
G0 X225.000 Y11.000
G1 Z1.000 F360.00
G1 Z-14.000 F360.00
G0 Z1.000
( G80 )
G0 Z3.000
(G81 X235.000 Y11.000 Z-14.000 F360.000 R1.000)
G0 X235.000 Y11.000
G1 Z1.000 F360.00
G1 Z-14.000 F360.00
G0 Z1.000
( G80 )
G0 Z3.000
(G81 X245.000 Y11.000 Z-14.000 F360.000 R1.000)
G0 X245.000 Y11.000
G1 Z1.000 F360.00
G1 Z-14.000 F360.00
G0 Z1.000
( G80 )
G0 Z3.000
(G81 X255.000 Y11.000 Z-14.000 F360.000 R1.000)
G0 X255.000 Y11.000
G1 Z1.000 F360.00
G1 Z-14.000 F360.00
G0 Z1.000
( G80 )
G0 Z3.000
(G81 X265.000 Y11.000 Z-14.000 F360.000 R1.000)
G0 X265.000 Y11.000
G1 Z1.000 F360.00
G1 Z-14.000 F360.00
G0 Z1.000
( G80 )
G0 Z3.000
(G81 X275.000 Y11.000 Z-14.000 F360.000 R1.000)
G0 X275.000 Y11.000
G1 Z1.000 F360.00
G1 Z-14.000 F360.00
G0 Z1.000
( G80 )
G0 Z3.000
(G81 X285.000 Y11.000 Z-14.000 F360.000 R1.000)
G0 X285.000 Y11.000
G1 Z1.000 F360.00
G1 Z-14.000 F360.00
G0 Z1.000
( G80 )
G0 Z3.000
(G81 X285.000 Y25.000 Z-14.000 F360.000 R1.000)
G0 X285.000 Y25.000
G1 Z1.000 F360.00
G1 Z-14.000 F360.00
G0 Z1.000
( G80 )
G0 Z3.000
(G81 X275.000 Y25.000 Z-14.000 F360.000 R1.000)
G0 X275.000 Y25.000
G1 Z1.000 F360.00
G1 Z-14.000 F360.00
G0 Z1.000
( G80 )
G0 Z3.000
(G81 X265.000 Y25.000 Z-14.000 F360.000 R1.000)
G0 X265.000 Y25.000
G1 Z1.000 F360.00
G1 Z-14.000 F360.00
G0 Z1.000
( G80 )
G0 Z3.000
(G81 X255.000 Y25.000 Z-14.000 F360.000 R1.000)
G0 X255.000 Y25.000
G1 Z1.000 F360.00
G1 Z-14.000 F360.00
G0 Z1.000
( G80 )
G0 Z3.000
(G81 X245.000 Y25.000 Z-14.000 F360.000 R1.000)
G0 X245.000 Y25.000
G1 Z1.000 F360.00
G1 Z-14.000 F360.00
G0 Z1.000
( G80 )
G0 Z3.000
(G81 X235.000 Y25.000 Z-14.000 F360.000 R1.000)
G0 X235.000 Y25.000
G1 Z1.000 F360.00
G1 Z-14.000 F360.00
G0 Z1.000
( G80 )
G0 Z3.000
(G81 X225.000 Y25.000 Z-14.000 F360.000 R1.000)
G0 X225.000 Y25.000
G1 Z1.000 F360.00
G1 Z-14.000 F360.00
G0 Z1.000
( G80 )
G0 Z3.000
G0 Z5.000
(Finish operation: Drilling003)
(Begin operation: Drilling004)
(Path: Drilling004)
(Drilling004)
(Begin Drilling)
G0 Z5.000
G90
( G99 )
(G81 X225.000 Y11.000 Z-20.000 F360.000 R1.000)
G0 X225.000 Y11.000
G1 Z1.000 F360.00
G1 Z-20.000 F360.00
G0 Z1.000
( G80 )
G0 Z3.000
(G81 X235.000 Y11.000 Z-20.000 F360.000 R1.000)
G0 X235.000 Y11.000
G1 Z1.000 F360.00
G1 Z-20.000 F360.00
G0 Z1.000
( G80 )
G0 Z3.000
(G81 X245.000 Y11.000 Z-20.000 F360.000 R1.000)
G0 X245.000 Y11.000
G1 Z1.000 F360.00
G1 Z-20.000 F360.00
G0 Z1.000
( G80 )
G0 Z3.000
(G81 X255.000 Y11.000 Z-20.000 F360.000 R1.000)
G0 X255.000 Y11.000
G1 Z1.000 F360.00
G1 Z-20.000 F360.00
G0 Z1.000
( G80 )
G0 Z3.000
(G81 X265.000 Y11.000 Z-20.000 F360.000 R1.000)
G0 X265.000 Y11.000
G1 Z1.000 F360.00
G1 Z-20.000 F360.00
G0 Z1.000
( G80 )
G0 Z3.000
(G81 X275.000 Y11.000 Z-20.000 F360.000 R1.000)
G0 X275.000 Y11.000
G1 Z1.000 F360.00
G1 Z-20.000 F360.00
G0 Z1.000
( G80 )
G0 Z3.000
(G81 X285.000 Y11.000 Z-20.000 F360.000 R1.000)
G0 X285.000 Y11.000
G1 Z1.000 F360.00
G1 Z-20.000 F360.00
G0 Z1.000
( G80 )
G0 Z3.000
(G81 X285.000 Y25.000 Z-20.000 F360.000 R1.000)
G0 X285.000 Y25.000
G1 Z1.000 F360.00
G1 Z-20.000 F360.00
G0 Z1.000
( G80 )
G0 Z3.000
(G81 X275.000 Y25.000 Z-20.000 F360.000 R1.000)
G0 X275.000 Y25.000
G1 Z1.000 F360.00
G1 Z-20.000 F360.00
G0 Z1.000
( G80 )
G0 Z3.000
(G81 X265.000 Y25.000 Z-20.000 F360.000 R1.000)
G0 X265.000 Y25.000
G1 Z1.000 F360.00
G1 Z-20.000 F360.00
G0 Z1.000
( G80 )
G0 Z3.000
(G81 X255.000 Y25.000 Z-20.000 F360.000 R1.000)
G0 X255.000 Y25.000
G1 Z1.000 F360.00
G1 Z-20.000 F360.00
G0 Z1.000
( G80 )
G0 Z3.000
(G81 X245.000 Y25.000 Z-20.000 F360.000 R1.000)
G0 X245.000 Y25.000
G1 Z1.000 F360.00
G1 Z-20.000 F360.00
G0 Z1.000
( G80 )
G0 Z3.000
(G81 X235.000 Y25.000 Z-20.000 F360.000 R1.000)
G0 X235.000 Y25.000
G1 Z1.000 F360.00
G1 Z-20.000 F360.00
G0 Z1.000
( G80 )
G0 Z3.000
(G81 X225.000 Y25.000 Z-20.000 F360.000 R1.000)
G0 X225.000 Y25.000
G1 Z1.000 F360.00
G1 Z-20.000 F360.00
G0 Z1.000
( G80 )
G0 Z3.000
G0 Z5.000
(Finish operation: Drilling004)
(Begin postamble)
M5
G17 G90
M2
