(Exported by FreeCAD)
(Post Processor: grbl_post)
(Output Time:2021-03-26 20:11:44.748229)
(Begin preamble)
G17 G90
G21
(Begin operation: Fixture)
(Path: Fixture)
G54
(Finish operation: Fixture)
(Begin operation: claas_3mm_endmil003)
(Path: claas_3mm_endmil003)
(claas_3mm_endmil003)
(Begin toolchange)
( M6 T1.0 )
M3 S0.0
(Finish operation: claas_3mm_endmil003)
(Begin operation: Pocket_3D)
(Path: Pocket_3D)
(Pocket_3D)
G0 Z5.000
G0 X285.986 Y25.986
G0 Z3.000
G1 X285.986 Y25.986 Z-3.200 F360.000
G2 X285.000 Y23.605 Z-3.200 I-0.986 J-0.986 K0.000 F360.000
G2 X285.000 Y26.395 Z-3.200 I0.000 J1.395 K0.000 F360.000
G2 X285.986 Y25.986 Z-3.200 I0.000 J-1.395 K0.000 F360.000
G0 Z5.000
G0 X276.389 Y25.125 Z5.000
G0 X276.389 Y25.125 Z3.000
G1 X276.389 Y25.125 Z-3.200 F360.000
G2 X275.000 Y23.605 Z-3.200 I-1.389 J-0.125 K0.000 F360.000
G2 X275.000 Y26.395 Z-3.200 I0.000 J1.395 K0.000 F360.000
G2 X276.389 Y25.125 Z-3.200 I0.000 J-1.395 K0.000 F360.000
G0 Z5.000
G0 X266.395 Y25.015 Z5.000
G0 X266.395 Y25.015 Z3.000
G1 X266.395 Y25.015 Z-3.200 F360.000
G2 X265.000 Y23.605 Z-3.200 I-1.395 J-0.015 K0.000 F360.000
G2 X265.000 Y26.395 Z-3.200 I-0.000 J1.395 K0.000 F360.000
G2 X266.395 Y25.015 Z-3.200 I0.000 J-1.395 K0.000 F360.000
G0 Z5.000
G0 X256.395 Y25.002 Z5.000
G0 X256.395 Y25.002 Z3.000
G1 X256.395 Y25.002 Z-3.200 F360.000
G2 X255.000 Y23.605 Z-3.200 I-1.395 J-0.002 K0.000 F360.000
G2 X255.000 Y26.395 Z-3.200 I0.000 J1.395 K0.000 F360.000
G2 X256.395 Y25.002 Z-3.200 I-0.000 J-1.395 K0.000 F360.000
G0 Z5.000
G0 X246.395 Y25.000 Z5.000
G0 X246.395 Y25.000 Z3.000
G1 X246.395 Y25.000 Z-3.200 F360.000
G2 X245.000 Y23.605 Z-3.200 I-1.395 J-0.000 K0.000 F360.000
G2 X245.000 Y26.395 Z-3.200 I0.000 J1.395 K0.000 F360.000
G2 X246.395 Y25.000 Z-3.200 I0.000 J-1.395 K0.000 F360.000
G0 Z5.000
G0 X236.395 Y25.000 Z5.000
G0 X236.395 Y25.000 Z3.000
G1 X236.395 Y25.000 Z-3.200 F360.000
G2 X235.000 Y23.605 Z-3.200 I-1.395 J-0.000 K0.000 F360.000
G2 X235.000 Y26.395 Z-3.200 I0.000 J1.395 K0.000 F360.000
G2 X236.395 Y25.000 Z-3.200 I0.000 J-1.395 K0.000 F360.000
G0 Z5.000
G0 X226.395 Y25.000 Z5.000
G0 X226.395 Y25.000 Z3.000
G1 X226.395 Y25.000 Z-3.200 F360.000
G2 X225.000 Y23.605 Z-3.200 I-1.395 J-0.000 K0.000 F360.000
G2 X225.000 Y26.395 Z-3.200 I0.000 J1.395 K0.000 F360.000
G2 X226.395 Y25.000 Z-3.200 I0.000 J-1.395 K0.000 F360.000
G0 Z5.000
G0 X225.138 Y12.388 Z5.000
G0 X225.138 Y12.388 Z3.000
G1 X225.138 Y12.388 Z-3.200 F360.000
G2 X225.000 Y9.605 Z-3.200 I-0.138 J-1.388 K0.000 F360.000
G2 X225.000 Y12.395 Z-3.200 I0.000 J1.395 K0.000 F360.000
G2 X225.138 Y12.388 Z-3.200 I0.000 J-1.395 K0.000 F360.000
G0 Z5.000
G0 X233.619 Y11.194 Z5.000
G0 X233.619 Y11.194 Z3.000
G1 X233.619 Y11.194 Z-3.200 F360.000
G2 X235.000 Y12.395 Z-3.200 I1.381 J-0.194 K0.000 F360.000
G2 X236.395 Y11.000 Z-3.200 I0.000 J-1.395 K0.000 F360.000
G2 X235.000 Y9.605 Z-3.200 I-1.395 J0.000 K0.000 F360.000
G2 X233.619 Y11.194 Z-3.200 I0.000 J1.395 K0.000 F360.000
G0 Z5.000
G0 X243.605 Y11.024 Z5.000
G0 X243.605 Y11.024 Z3.000
G1 X243.605 Y11.024 Z-3.200 F360.000
G2 X245.000 Y12.395 Z-3.200 I1.395 J-0.024 K0.000 F360.000
G2 X246.395 Y11.000 Z-3.200 I0.000 J-1.395 K0.000 F360.000
G2 X245.000 Y9.605 Z-3.200 I-1.395 J0.000 K0.000 F360.000
G2 X243.605 Y11.024 Z-3.200 I0.000 J1.395 K0.000 F360.000
G0 Z5.000
G0 X253.605 Y11.003 Z5.000
G0 X253.605 Y11.003 Z3.000
G1 X253.605 Y11.003 Z-3.200 F360.000
G2 X255.000 Y12.395 Z-3.200 I1.395 J-0.003 K0.000 F360.000
G2 X255.000 Y9.605 Z-3.200 I-0.000 J-1.395 K0.000 F360.000
G2 X253.605 Y11.003 Z-3.200 I0.000 J1.395 K0.000 F360.000
G0 Z5.000
G0 X263.605 Y11.000 Z5.000
G0 X263.605 Y11.000 Z3.000
G1 X263.605 Y11.000 Z-3.200 F360.000
G2 X265.000 Y12.395 Z-3.200 I1.395 J-0.000 K0.000 F360.000
G2 X266.395 Y11.000 Z-3.200 I0.000 J-1.395 K0.000 F360.000
G2 X265.000 Y9.605 Z-3.200 I-1.395 J0.000 K0.000 F360.000
G2 X263.605 Y11.000 Z-3.200 I0.000 J1.395 K0.000 F360.000
G0 Z5.000
G0 X273.605 Y11.000 Z5.000
G0 X273.605 Y11.000 Z3.000
G1 X273.605 Y11.000 Z-3.200 F360.000
G2 X275.000 Y12.395 Z-3.200 I1.395 J-0.000 K0.000 F360.000
G2 X276.395 Y11.000 Z-3.200 I0.000 J-1.395 K0.000 F360.000
G2 X275.000 Y9.605 Z-3.200 I-1.395 J0.000 K0.000 F360.000
G2 X273.605 Y11.000 Z-3.200 I0.000 J1.395 K0.000 F360.000
G0 Z5.000
G0 X283.605 Y11.000 Z5.000
G0 X283.605 Y11.000 Z3.000
G1 X283.605 Y11.000 Z-3.200 F360.000
G2 X285.000 Y12.395 Z-3.200 I1.395 J-0.000 K0.000 F360.000
G2 X286.395 Y11.000 Z-3.200 I0.000 J-1.395 K0.000 F360.000
G2 X285.000 Y9.605 Z-3.200 I-1.395 J0.000 K0.000 F360.000
G2 X283.605 Y11.000 Z-3.200 I0.000 J1.395 K0.000 F360.000
G1 X283.605 Y11.000 Z-6.400 F360.000
G2 X285.000 Y12.395 Z-6.400 I1.395 J-0.000 K0.000 F360.000
G2 X286.395 Y11.000 Z-6.400 I0.000 J-1.395 K0.000 F360.000
G2 X285.000 Y9.605 Z-6.400 I-1.395 J0.000 K0.000 F360.000
G2 X283.605 Y11.000 Z-6.400 I0.000 J1.395 K0.000 F360.000
G0 Z5.000
G0 X276.395 Y11.000 Z5.000
G0 X276.395 Y11.000 Z3.000
G1 X276.395 Y11.000 Z-6.400 F360.000
G2 X275.000 Y9.605 Z-6.400 I-1.395 J-0.000 K0.000 F360.000
G2 X275.000 Y12.395 Z-6.400 I0.000 J1.395 K0.000 F360.000
G2 X276.395 Y11.000 Z-6.400 I0.000 J-1.395 K0.000 F360.000
G0 Z5.000
G0 X266.395 Y11.000 Z5.000
G0 X266.395 Y11.000 Z3.000
G1 X266.395 Y11.000 Z-6.400 F360.000
G2 X265.000 Y9.605 Z-6.400 I-1.395 J-0.000 K0.000 F360.000
G2 X265.000 Y12.395 Z-6.400 I0.000 J1.395 K0.000 F360.000
G2 X266.395 Y11.000 Z-6.400 I0.000 J-1.395 K0.000 F360.000
G0 Z5.000
G0 X256.395 Z5.000
G0 X256.395 Z3.000
G1 X256.395 Y11.000 Z-6.400 F360.000
G2 X255.000 Y9.605 Z-6.400 I-1.395 J-0.000 K0.000 F360.000
G2 X255.000 Y12.395 Z-6.400 I0.000 J1.395 K0.000 F360.000
G2 X256.395 Y11.000 Z-6.400 I-0.000 J-1.395 K0.000 F360.000
G0 Z5.000
G0 X246.395 Z5.000
G0 X246.395 Z3.000
G1 X246.395 Y11.000 Z-6.400 F360.000
G2 X245.000 Y9.605 Z-6.400 I-1.395 J-0.000 K0.000 F360.000
G2 X245.000 Y12.395 Z-6.400 I0.000 J1.395 K0.000 F360.000
G2 X246.395 Y11.000 Z-6.400 I0.000 J-1.395 K0.000 F360.000
G0 Z5.000
G0 X236.395 Z5.000
G0 X236.395 Z3.000
G1 X236.395 Y11.000 Z-6.400 F360.000
G2 X235.000 Y9.605 Z-6.400 I-1.395 J-0.000 K0.000 F360.000
G2 X235.000 Y12.395 Z-6.400 I0.000 J1.395 K0.000 F360.000
G2 X236.395 Y11.000 Z-6.400 I0.000 J-1.395 K0.000 F360.000
G0 Z5.000
G0 X226.395 Z5.000
G0 X226.395 Z3.000
G1 X226.395 Y11.000 Z-6.400 F360.000
G2 X225.000 Y9.605 Z-6.400 I-1.395 J-0.000 K0.000 F360.000
G2 X225.000 Y12.395 Z-6.400 I0.000 J1.395 K0.000 F360.000
G2 X226.395 Y11.000 Z-6.400 I0.000 J-1.395 K0.000 F360.000
G0 Z5.000
G0 X225.138 Y23.612 Z5.000
G0 X225.138 Y23.612 Z3.000
G1 X225.138 Y23.612 Z-6.400 F360.000
G2 X225.000 Y23.605 Z-6.400 I-0.138 J1.388 K0.000 F360.000
G2 X225.000 Y26.395 Z-6.400 I0.000 J1.395 K0.000 F360.000
G2 X225.138 Y23.612 Z-6.400 I0.000 J-1.395 K0.000 F360.000
G0 Z5.000
G0 X233.619 Y24.806 Z5.000
G0 X233.619 Y24.806 Z3.000
G1 X233.619 Y24.806 Z-6.400 F360.000
G2 X235.000 Y26.395 Z-6.400 I1.381 J0.194 K0.000 F360.000
G2 X236.395 Y25.000 Z-6.400 I0.000 J-1.395 K0.000 F360.000
G2 X235.000 Y23.605 Z-6.400 I-1.395 J0.000 K0.000 F360.000
G2 X233.619 Y24.806 Z-6.400 I0.000 J1.395 K0.000 F360.000
G0 Z5.000
G0 X243.605 Y24.976 Z5.000
G0 X243.605 Y24.976 Z3.000
G1 X243.605 Y24.976 Z-6.400 F360.000
G2 X245.000 Y26.395 Z-6.400 I1.395 J0.024 K0.000 F360.000
G2 X246.395 Y25.000 Z-6.400 I0.000 J-1.395 K0.000 F360.000
G2 X245.000 Y23.605 Z-6.400 I-1.395 J0.000 K0.000 F360.000
G2 X243.605 Y24.976 Z-6.400 I0.000 J1.395 K0.000 F360.000
G0 Z5.000
G0 X253.605 Y24.997 Z5.000
G0 X253.605 Y24.997 Z3.000
G1 X253.605 Y24.997 Z-6.400 F360.000
G2 X255.000 Y26.395 Z-6.400 I1.395 J0.003 K0.000 F360.000
G2 X255.000 Y23.605 Z-6.400 I-0.000 J-1.395 K0.000 F360.000
G2 X253.605 Y24.997 Z-6.400 I0.000 J1.395 K0.000 F360.000
G0 Z5.000
G0 X263.605 Y25.000 Z5.000
G0 X263.605 Y25.000 Z3.000
G1 X263.605 Y25.000 Z-6.400 F360.000
G2 X265.000 Y26.395 Z-6.400 I1.395 J0.000 K0.000 F360.000
G2 X265.000 Y23.605 Z-6.400 I0.000 J-1.395 K0.000 F360.000
G2 X263.605 Y25.000 Z-6.400 I-0.000 J1.395 K0.000 F360.000
G0 Z5.000
G0 X273.605 Y25.000 Z5.000
G0 X273.605 Y25.000 Z3.000
G1 X273.605 Y25.000 Z-6.400 F360.000
G2 X275.000 Y26.395 Z-6.400 I1.395 J0.000 K0.000 F360.000
G2 X276.395 Y25.000 Z-6.400 I0.000 J-1.395 K0.000 F360.000
G2 X275.000 Y23.605 Z-6.400 I-1.395 J0.000 K0.000 F360.000
G2 X273.605 Y25.000 Z-6.400 I0.000 J1.395 K0.000 F360.000
G0 Z5.000
G0 X283.605 Y25.000 Z5.000
G0 X283.605 Y25.000 Z3.000
G1 X283.605 Y25.000 Z-6.400 F360.000
G2 X285.000 Y26.395 Z-6.400 I1.395 J0.000 K0.000 F360.000
G2 X285.000 Y23.605 Z-6.400 I0.000 J-1.395 K0.000 F360.000
G2 X283.605 Y25.000 Z-6.400 I-0.000 J1.395 K0.000 F360.000
G1 X283.605 Y25.000 Z-7.000 F360.000
G2 X285.000 Y26.395 Z-7.000 I1.395 J0.000 K0.000 F360.000
G2 X285.000 Y23.605 Z-7.000 I0.000 J-1.395 K0.000 F360.000
G2 X283.605 Y25.000 Z-7.000 I-0.000 J1.395 K0.000 F360.000
G0 Z5.000
G0 X276.395 Y25.000 Z5.000
G0 X276.395 Y25.000 Z3.000
G1 X276.395 Y25.000 Z-7.000 F360.000
G2 X275.000 Y23.605 Z-7.000 I-1.395 J0.000 K0.000 F360.000
G2 X275.000 Y26.395 Z-7.000 I0.000 J1.395 K0.000 F360.000
G2 X276.395 Y25.000 Z-7.000 I0.000 J-1.395 K0.000 F360.000
G0 Z5.000
G0 X266.395 Y25.000 Z5.000
G0 X266.395 Y25.000 Z3.000
G1 X266.395 Y25.000 Z-7.000 F360.000
G2 X265.000 Y23.605 Z-7.000 I-1.395 J0.000 K0.000 F360.000
G2 X265.000 Y26.395 Z-7.000 I-0.000 J1.395 K0.000 F360.000
G2 X266.395 Y25.000 Z-7.000 I0.000 J-1.395 K0.000 F360.000
G0 Z5.000
G0 X256.395 Z5.000
G0 X256.395 Z3.000
G1 X256.395 Y25.000 Z-7.000 F360.000
G2 X255.000 Y23.605 Z-7.000 I-1.395 J0.000 K0.000 F360.000
G2 X255.000 Y26.395 Z-7.000 I0.000 J1.395 K0.000 F360.000
G2 X256.395 Y25.000 Z-7.000 I-0.000 J-1.395 K0.000 F360.000
G0 Z5.000
G0 X246.395 Z5.000
G0 X246.395 Z3.000
G1 X246.395 Y25.000 Z-7.000 F360.000
G2 X245.000 Y23.605 Z-7.000 I-1.395 J0.000 K0.000 F360.000
G2 X245.000 Y26.395 Z-7.000 I0.000 J1.395 K0.000 F360.000
G2 X246.395 Y25.000 Z-7.000 I0.000 J-1.395 K0.000 F360.000
G0 Z5.000
G0 X236.395 Z5.000
G0 X236.395 Z3.000
G1 X236.395 Y25.000 Z-7.000 F360.000
G2 X235.000 Y23.605 Z-7.000 I-1.395 J0.000 K0.000 F360.000
G2 X235.000 Y26.395 Z-7.000 I0.000 J1.395 K0.000 F360.000
G2 X236.395 Y25.000 Z-7.000 I0.000 J-1.395 K0.000 F360.000
G0 Z5.000
G0 X226.395 Z5.000
G0 X226.395 Z3.000
G1 X226.395 Y25.000 Z-7.000 F360.000
G2 X225.000 Y23.605 Z-7.000 I-1.395 J0.000 K0.000 F360.000
G2 X225.000 Y26.395 Z-7.000 I0.000 J1.395 K0.000 F360.000
G2 X226.395 Y25.000 Z-7.000 I0.000 J-1.395 K0.000 F360.000
G0 Z5.000
G0 X225.138 Y12.388 Z5.000
G0 X225.138 Y12.388 Z3.000
G1 X225.138 Y12.388 Z-7.000 F360.000
G2 X225.000 Y9.605 Z-7.000 I-0.138 J-1.388 K0.000 F360.000
G2 X225.000 Y12.395 Z-7.000 I0.000 J1.395 K0.000 F360.000
G2 X225.138 Y12.388 Z-7.000 I0.000 J-1.395 K0.000 F360.000
G0 Z5.000
G0 X233.619 Y11.194 Z5.000
G0 X233.619 Y11.194 Z3.000
G1 X233.619 Y11.194 Z-7.000 F360.000
G2 X235.000 Y12.395 Z-7.000 I1.381 J-0.194 K0.000 F360.000
G2 X236.395 Y11.000 Z-7.000 I0.000 J-1.395 K0.000 F360.000
G2 X235.000 Y9.605 Z-7.000 I-1.395 J0.000 K0.000 F360.000
G2 X233.619 Y11.194 Z-7.000 I0.000 J1.395 K0.000 F360.000
G0 Z5.000
G0 X243.605 Y11.024 Z5.000
G0 X243.605 Y11.024 Z3.000
G1 X243.605 Y11.024 Z-7.000 F360.000
G2 X245.000 Y12.395 Z-7.000 I1.395 J-0.024 K0.000 F360.000
G2 X246.395 Y11.000 Z-7.000 I0.000 J-1.395 K0.000 F360.000
G2 X245.000 Y9.605 Z-7.000 I-1.395 J0.000 K0.000 F360.000
G2 X243.605 Y11.024 Z-7.000 I0.000 J1.395 K0.000 F360.000
G0 Z5.000
G0 X253.605 Y11.003 Z5.000
G0 X253.605 Y11.003 Z3.000
G1 X253.605 Y11.003 Z-7.000 F360.000
G2 X255.000 Y12.395 Z-7.000 I1.395 J-0.003 K0.000 F360.000
G2 X255.000 Y9.605 Z-7.000 I-0.000 J-1.395 K0.000 F360.000
G2 X253.605 Y11.003 Z-7.000 I0.000 J1.395 K0.000 F360.000
G0 Z5.000
G0 X263.605 Y11.000 Z5.000
G0 X263.605 Y11.000 Z3.000
G1 X263.605 Y11.000 Z-7.000 F360.000
G2 X265.000 Y12.395 Z-7.000 I1.395 J-0.000 K0.000 F360.000
G2 X266.395 Y11.000 Z-7.000 I0.000 J-1.395 K0.000 F360.000
G2 X265.000 Y9.605 Z-7.000 I-1.395 J0.000 K0.000 F360.000
G2 X263.605 Y11.000 Z-7.000 I0.000 J1.395 K0.000 F360.000
G0 Z5.000
G0 X273.605 Y11.000 Z5.000
G0 X273.605 Y11.000 Z3.000
G1 X273.605 Y11.000 Z-7.000 F360.000
G2 X275.000 Y12.395 Z-7.000 I1.395 J-0.000 K0.000 F360.000
G2 X276.395 Y11.000 Z-7.000 I0.000 J-1.395 K0.000 F360.000
G2 X275.000 Y9.605 Z-7.000 I-1.395 J0.000 K0.000 F360.000
G2 X273.605 Y11.000 Z-7.000 I0.000 J1.395 K0.000 F360.000
G0 Z5.000
G0 X283.605 Y11.000 Z5.000
G0 X283.605 Y11.000 Z3.000
G1 X283.605 Y11.000 Z-7.000 F360.000
G2 X285.000 Y12.395 Z-7.000 I1.395 J-0.000 K0.000 F360.000
G2 X286.395 Y11.000 Z-7.000 I0.000 J-1.395 K0.000 F360.000
G2 X285.000 Y9.605 Z-7.000 I-1.395 J0.000 K0.000 F360.000
G2 X283.605 Y11.000 Z-7.000 I0.000 J1.395 K0.000 F360.000
G0 Z5.000
G0 Z5.000
(Finish operation: Pocket_3D)
(Begin operation: Drilling008)
(Path: Drilling008)
(Drilling008)
(Begin Drilling)
G0 Z5.000
G90
( G98 )
(G83 X225.000 Y11.000 Z-7.000 F360.000 Q10.000 R1.000)
G0 X225.000 Y11.000
G1 Z-5.000 F360.00
G0 Z5.000
G0 Z-4.500
G1 Z-7.000 F360.00
G0 Z5.000
( G80 )
G0 Z3.000
(G83 X235.000 Y11.000 Z-7.000 F360.000 Q10.000 R1.000)
G0 X235.000 Y11.000
G1 Z-7.000 F360.00
G0 Z3.000
( G80 )
G0 Z3.000
(G83 X245.000 Y11.000 Z-7.000 F360.000 Q10.000 R1.000)
G0 X245.000 Y11.000
G1 Z-7.000 F360.00
G0 Z3.000
( G80 )
G0 Z3.000
(G83 X255.000 Y11.000 Z-7.000 F360.000 Q10.000 R1.000)
G0 X255.000 Y11.000
G1 Z-7.000 F360.00
G0 Z3.000
( G80 )
G0 Z3.000
(G83 X265.000 Y11.000 Z-7.000 F360.000 Q10.000 R1.000)
G0 X265.000 Y11.000
G1 Z-7.000 F360.00
G0 Z3.000
( G80 )
G0 Z3.000
(G83 X275.000 Y11.000 Z-7.000 F360.000 Q10.000 R1.000)
G0 X275.000 Y11.000
G1 Z-7.000 F360.00
G0 Z3.000
( G80 )
G0 Z3.000
(G83 X285.000 Y11.000 Z-7.000 F360.000 Q10.000 R1.000)
G0 X285.000 Y11.000
G1 Z-7.000 F360.00
G0 Z3.000
( G80 )
G0 Z3.000
(G83 X285.000 Y25.000 Z-7.000 F360.000 Q10.000 R1.000)
G0 X285.000 Y25.000
G1 Z-7.000 F360.00
G0 Z3.000
( G80 )
G0 Z3.000
(G83 X275.000 Y25.000 Z-7.000 F360.000 Q10.000 R1.000)
G0 X275.000 Y25.000
G1 Z-7.000 F360.00
G0 Z3.000
( G80 )
G0 Z3.000
(G83 X265.000 Y25.000 Z-7.000 F360.000 Q10.000 R1.000)
G0 X265.000 Y25.000
G1 Z-7.000 F360.00
G0 Z3.000
( G80 )
G0 Z3.000
(G83 X255.000 Y25.000 Z-7.000 F360.000 Q10.000 R1.000)
G0 X255.000 Y25.000
G1 Z-7.000 F360.00
G0 Z3.000
( G80 )
G0 Z3.000
(G83 X245.000 Y25.000 Z-7.000 F360.000 Q10.000 R1.000)
G0 X245.000 Y25.000
G1 Z-7.000 F360.00
G0 Z3.000
( G80 )
G0 Z3.000
(G83 X235.000 Y25.000 Z-7.000 F360.000 Q10.000 R1.000)
G0 X235.000 Y25.000
G1 Z-7.000 F360.00
G0 Z3.000
( G80 )
G0 Z3.000
(G83 X225.000 Y25.000 Z-7.000 F360.000 Q10.000 R1.000)
G0 X225.000 Y25.000
G1 Z-7.000 F360.00
G0 Z3.000
( G80 )
G0 Z3.000
G0 Z5.000
(Finish operation: Drilling008)
(Begin postamble)
M5
G17 G90
M2
