(Exported by FreeCAD)
(Post Processor: grbl_post)
(Output Time:2021-03-27 09:30:56.750929)
(Begin preamble)
G17 G90
G21
(Begin operation: Fixture)
(Path: Fixture)
G54
(Finish operation: Fixture)
(Begin operation: claas_3mm_endmil003)
(Path: claas_3mm_endmil003)
(claas_3mm_endmil003)
(Begin toolchange)
( M6 T1.0 )
M3 S0.0
(Finish operation: claas_3mm_endmil003)
(Begin operation: Pocket_3D)
(Path: Pocket_3D)
(Pocket_3D)
G0 Z5.000
G0 X286.164 Y26.164
G0 Z3.000
G1 X286.164 Y26.164 Z-3.200 F360.000
G2 X285.123 Y23.359 Z-3.200 I-1.164 J-1.164 K0.000 F360.000
G2 X283.359 Y24.877 Z-3.200 I-0.123 J1.641 K0.000 F360.000
G2 X284.877 Y26.641 Z-3.200 I1.641 J0.123 K0.000 F360.000
G2 X286.164 Y26.164 Z-3.200 I0.123 J-1.641 K0.000 F360.000
G0 Z5.000
G0 X276.637 Y25.171 Z5.000
G0 X276.637 Y25.171 Z3.000
G1 X276.637 Y25.171 Z-3.200 F360.000
G2 X274.430 Y23.456 Z-3.200 I-1.637 J-0.171 K0.000 F360.000
G1 X274.216 Y23.553 Z-3.200 F360.000
G2 X275.601 Y26.532 Z-3.200 I0.784 J1.447 K0.000 F360.000
G2 X276.637 Y25.171 Z-3.200 I-0.601 J-1.532 K0.000 F360.000
G0 Z5.000
G0 X266.645 Y25.024 Z5.000
G0 X266.645 Y25.024 Z3.000
G1 X266.645 Y25.024 Z-3.200 F360.000
G2 X264.430 Y23.456 Z-3.200 I-1.646 J-0.024 K0.000 F360.000
G1 X264.216 Y23.553 Z-3.200 F360.000
G2 X265.601 Y26.532 Z-3.200 I0.784 J1.447 K0.000 F360.000
G2 X266.645 Y25.024 Z-3.200 I-0.601 J-1.532 K0.000 F360.000
G0 Z5.000
G0 X256.645 Y25.003 Z5.000
G0 X256.645 Y25.003 Z3.000
G1 X256.645 Y25.003 Z-3.200 F360.000
G2 X254.430 Y23.456 Z-3.200 I-1.646 J-0.003 K0.000 F360.000
G1 X254.216 Y23.553 Z-3.200 F360.000
G2 X255.601 Y26.532 Z-3.200 I0.784 J1.447 K0.000 F360.000
G2 X256.645 Y25.003 Z-3.200 I-0.601 J-1.532 K0.000 F360.000
G0 Z5.000
G0 X246.645 Y25.000 Z5.000
G0 X246.645 Y25.000 Z3.000
G1 X246.645 Y25.000 Z-3.200 F360.000
G2 X244.430 Y23.456 Z-3.200 I-1.646 J-0.000 K0.000 F360.000
G1 X244.216 Y23.553 Z-3.200 F360.000
G2 X245.601 Y26.532 Z-3.200 I0.784 J1.447 K0.000 F360.000
G2 X246.645 Y25.000 Z-3.200 I-0.601 J-1.532 K0.000 F360.000
G0 Z5.000
G0 X236.645 Y25.000 Z5.000
G0 X236.645 Y25.000 Z3.000
G1 X236.645 Y25.000 Z-3.200 F360.000
G2 X234.430 Y23.456 Z-3.200 I-1.646 J-0.000 K0.000 F360.000
G1 X234.216 Y23.553 Z-3.200 F360.000
G2 X235.601 Y26.532 Z-3.200 I0.784 J1.447 K0.000 F360.000
G2 X236.645 Y25.000 Z-3.200 I-0.601 J-1.532 K0.000 F360.000
G0 Z5.000
G0 X226.645 Y25.000 Z5.000
G0 X226.645 Y25.000 Z3.000
G1 X226.645 Y25.000 Z-3.200 F360.000
G2 X224.430 Y23.456 Z-3.200 I-1.646 J-0.000 K0.000 F360.000
G1 X224.216 Y23.553 Z-3.200 F360.000
G2 X225.601 Y26.532 Z-3.200 I0.784 J1.447 K0.000 F360.000
G2 X226.645 Y25.000 Z-3.200 I-0.601 J-1.532 K0.000 F360.000
G0 Z5.000
G0 X225.192 Y12.634 Z5.000
G0 X225.192 Y12.634 Z3.000
G1 X225.192 Y12.634 Z-3.200 F360.000
G2 X225.601 Y12.532 Z-3.200 I-0.192 J-1.634 K0.000 F360.000
G2 X224.430 Y9.456 Z-3.200 I-0.601 J-1.532 K0.000 F360.000
G1 X224.216 Y9.553 Z-3.200 F360.000
G2 X225.192 Y12.634 Z-3.200 I0.784 J1.447 K0.000 F360.000
G0 Z5.000
G0 X233.376 Y11.270 Z5.000
G0 X233.376 Y11.270 Z3.000
G1 X233.376 Y11.270 Z-3.200 F360.000
G2 X235.601 Y12.532 Z-3.200 I1.623 J-0.271 K0.000 F360.000
G2 X234.430 Y9.456 Z-3.200 I-0.601 J-1.532 K0.000 F360.000
G1 X234.216 Y9.553 Z-3.200 F360.000
G2 X233.376 Y11.270 Z-3.200 I0.784 J1.447 K0.000 F360.000
G0 Z5.000
G0 X243.354 Y11.038 Z5.000
G0 X243.354 Y11.038 Z3.000
G1 X243.354 Y11.038 Z-3.200 F360.000
G2 X245.601 Y12.532 Z-3.200 I1.645 J-0.038 K0.000 F360.000
G2 X244.430 Y9.456 Z-3.200 I-0.601 J-1.532 K0.000 F360.000
G1 X244.216 Y9.553 Z-3.200 F360.000
G2 X243.354 Y11.038 Z-3.200 I0.784 J1.447 K0.000 F360.000
G0 Z5.000
G0 X253.354 Y11.005 Z5.000
G0 X253.354 Y11.005 Z3.000
G1 X253.354 Y11.005 Z-3.200 F360.000
G2 X255.601 Y12.532 Z-3.200 I1.646 J-0.005 K0.000 F360.000
G2 X254.430 Y9.456 Z-3.200 I-0.601 J-1.532 K0.000 F360.000
G1 X254.216 Y9.553 Z-3.200 F360.000
G2 X253.354 Y11.005 Z-3.200 I0.784 J1.447 K0.000 F360.000
G0 Z5.000
G0 X263.354 Y11.001 Z5.000
G0 X263.354 Y11.001 Z3.000
G1 X263.354 Y11.001 Z-3.200 F360.000
G2 X265.601 Y12.532 Z-3.200 I1.646 J-0.001 K0.000 F360.000
G2 X264.430 Y9.456 Z-3.200 I-0.601 J-1.532 K0.000 F360.000
G1 X264.216 Y9.553 Z-3.200 F360.000
G2 X263.354 Y11.001 Z-3.200 I0.784 J1.447 K0.000 F360.000
G0 Z5.000
G0 X273.354 Y11.000 Z5.000
G0 X273.354 Y11.000 Z3.000
G1 X273.354 Y11.000 Z-3.200 F360.000
G2 X275.601 Y12.532 Z-3.200 I1.646 J-0.000 K0.000 F360.000
G2 X274.430 Y9.456 Z-3.200 I-0.601 J-1.532 K0.000 F360.000
G1 X274.216 Y9.553 Z-3.200 F360.000
G2 X273.354 Y11.000 Z-3.200 I0.784 J1.447 K0.000 F360.000
G0 Z5.000
G0 X283.354 Y11.000 Z5.000
G0 X283.354 Y11.000 Z3.000
G1 X283.354 Y11.000 Z-3.200 F360.000
G2 X284.877 Y12.641 Z-3.200 I1.646 J-0.000 K0.000 F360.000
G2 X286.641 Y11.123 Z-3.200 I0.123 J-1.641 K0.000 F360.000
G2 X285.123 Y9.359 Z-3.200 I-1.641 J-0.123 K0.000 F360.000
G2 X283.354 Y11.000 Z-3.200 I-0.123 J1.641 K0.000 F360.000
G1 X283.354 Y11.000 Z-6.400 F360.000
G2 X284.877 Y12.641 Z-6.400 I1.646 J-0.000 K0.000 F360.000
G2 X286.641 Y11.123 Z-6.400 I0.123 J-1.641 K0.000 F360.000
G2 X285.123 Y9.359 Z-6.400 I-1.641 J-0.123 K0.000 F360.000
G2 X283.354 Y11.000 Z-6.400 I-0.123 J1.641 K0.000 F360.000
G0 Z5.000
G0 X276.645 Y11.000 Z5.000
G0 X276.645 Y11.000 Z3.000
G1 X276.645 Y11.000 Z-6.400 F360.000
G2 X274.430 Y9.456 Z-6.400 I-1.646 J-0.000 K0.000 F360.000
G1 X274.216 Y9.553 Z-6.400 F360.000
G2 X275.601 Y12.532 Z-6.400 I0.784 J1.447 K0.000 F360.000
G2 X276.645 Y11.000 Z-6.400 I-0.601 J-1.532 K0.000 F360.000
G0 Z5.000
G0 X266.645 Y11.000 Z5.000
G0 X266.645 Y11.000 Z3.000
G1 X266.645 Y11.000 Z-6.400 F360.000
G2 X264.430 Y9.456 Z-6.400 I-1.646 J-0.000 K0.000 F360.000
G1 X264.216 Y9.553 Z-6.400 F360.000
G2 X265.601 Y12.532 Z-6.400 I0.784 J1.447 K0.000 F360.000
G2 X266.645 Y11.000 Z-6.400 I-0.601 J-1.532 K0.000 F360.000
G0 Z5.000
G0 X256.645 Y11.000 Z5.000
G0 X256.645 Y11.000 Z3.000
G1 X256.645 Y11.000 Z-6.400 F360.000
G2 X254.430 Y9.456 Z-6.400 I-1.646 J-0.000 K0.000 F360.000
G1 X254.216 Y9.553 Z-6.400 F360.000
G2 X255.601 Y12.532 Z-6.400 I0.784 J1.447 K0.000 F360.000
G2 X256.645 Y11.000 Z-6.400 I-0.601 J-1.532 K0.000 F360.000
G0 Z5.000
G0 X246.645 Y11.000 Z5.000
G0 X246.645 Y11.000 Z3.000
G1 X246.645 Y11.000 Z-6.400 F360.000
G2 X244.430 Y9.456 Z-6.400 I-1.646 J-0.000 K0.000 F360.000
G1 X244.216 Y9.553 Z-6.400 F360.000
G2 X245.601 Y12.532 Z-6.400 I0.784 J1.447 K0.000 F360.000
G2 X246.645 Y11.000 Z-6.400 I-0.601 J-1.532 K0.000 F360.000
G0 Z5.000
G0 X236.645 Z5.000
G0 X236.645 Z3.000
G1 X236.645 Y11.000 Z-6.400 F360.000
G2 X234.430 Y9.456 Z-6.400 I-1.646 J-0.000 K0.000 F360.000
G1 X234.216 Y9.553 Z-6.400 F360.000
G2 X235.601 Y12.532 Z-6.400 I0.784 J1.447 K0.000 F360.000
G2 X236.645 Y11.000 Z-6.400 I-0.601 J-1.532 K0.000 F360.000
G0 Z5.000
G0 X226.645 Z5.000
G0 X226.645 Z3.000
G1 X226.645 Y11.000 Z-6.400 F360.000
G2 X224.430 Y9.456 Z-6.400 I-1.646 J-0.000 K0.000 F360.000
G1 X224.216 Y9.553 Z-6.400 F360.000
G2 X225.601 Y12.532 Z-6.400 I0.784 J1.447 K0.000 F360.000
G2 X226.645 Y11.000 Z-6.400 I-0.601 J-1.532 K0.000 F360.000
G0 Z5.000
G0 X225.192 Y23.365 Z5.000
G0 X225.192 Y23.365 Z3.000
G1 X225.192 Y23.365 Z-6.400 F360.000
G2 X224.430 Y23.456 Z-6.400 I-0.192 J1.634 K0.000 F360.000
G1 X224.216 Y23.553 Z-6.400 F360.000
G2 X225.601 Y26.532 Z-6.400 I0.784 J1.447 K0.000 F360.000
G2 X225.192 Y23.365 Z-6.400 I-0.601 J-1.532 K0.000 F360.000
G0 Z5.000
G0 X233.376 Y24.729 Z5.000
G0 X233.376 Y24.729 Z3.000
G1 X233.376 Y24.729 Z-6.400 F360.000
G2 X235.601 Y26.532 Z-6.400 I1.623 J0.271 K0.000 F360.000
G2 X234.430 Y23.456 Z-6.400 I-0.601 J-1.532 K0.000 F360.000
G1 X234.216 Y23.553 Z-6.400 F360.000
G2 X233.376 Y24.729 Z-6.400 I0.784 J1.447 K0.000 F360.000
G0 Z5.000
G0 X243.354 Y24.962 Z5.000
G0 X243.354 Y24.962 Z3.000
G1 X243.354 Y24.962 Z-6.400 F360.000
G2 X245.601 Y26.532 Z-6.400 I1.645 J0.038 K0.000 F360.000
G2 X244.430 Y23.456 Z-6.400 I-0.601 J-1.532 K0.000 F360.000
G1 X244.216 Y23.553 Z-6.400 F360.000
G2 X243.354 Y24.962 Z-6.400 I0.784 J1.447 K0.000 F360.000
G0 Z5.000
G0 X253.354 Y24.994 Z5.000
G0 X253.354 Y24.994 Z3.000
G1 X253.354 Y24.994 Z-6.400 F360.000
G2 X255.601 Y26.532 Z-6.400 I1.646 J0.005 K0.000 F360.000
G2 X254.430 Y23.456 Z-6.400 I-0.601 J-1.532 K0.000 F360.000
G1 X254.216 Y23.553 Z-6.400 F360.000
G2 X253.354 Y24.994 Z-6.400 I0.784 J1.447 K0.000 F360.000
G0 Z5.000
G0 X263.354 Y24.999 Z5.000
G0 X263.354 Y24.999 Z3.000
G1 X263.354 Y24.999 Z-6.400 F360.000
G2 X265.601 Y26.532 Z-6.400 I1.646 J0.001 K0.000 F360.000
G2 X264.430 Y23.456 Z-6.400 I-0.601 J-1.532 K0.000 F360.000
G1 X264.216 Y23.553 Z-6.400 F360.000
G2 X263.354 Y24.999 Z-6.400 I0.784 J1.447 K0.000 F360.000
G0 Z5.000
G0 X273.354 Y25.000 Z5.000
G0 X273.354 Y25.000 Z3.000
G1 X273.354 Y25.000 Z-6.400 F360.000
G2 X275.601 Y26.532 Z-6.400 I1.646 J0.000 K0.000 F360.000
G2 X274.430 Y23.456 Z-6.400 I-0.601 J-1.532 K0.000 F360.000
G1 X274.216 Y23.553 Z-6.400 F360.000
G2 X273.354 Y25.000 Z-6.400 I0.784 J1.447 K0.000 F360.000
G0 Z5.000
G0 X283.354 Y25.000 Z5.000
G0 X283.354 Y25.000 Z3.000
G1 X283.354 Y25.000 Z-6.400 F360.000
G2 X284.877 Y26.641 Z-6.400 I1.646 J0.000 K0.000 F360.000
G2 X285.123 Y23.359 Z-6.400 I0.123 J-1.641 K0.000 F360.000
G2 X283.354 Y25.000 Z-6.400 I-0.123 J1.641 K0.000 F360.000
G1 X283.354 Y25.000 Z-7.000 F360.000
G2 X284.877 Y26.641 Z-7.000 I1.646 J0.000 K0.000 F360.000
G2 X285.123 Y23.359 Z-7.000 I0.123 J-1.641 K0.000 F360.000
G2 X283.354 Y25.000 Z-7.000 I-0.123 J1.641 K0.000 F360.000
G0 Z5.000
G0 X276.645 Y25.000 Z5.000
G0 X276.645 Y25.000 Z3.000
G1 X276.645 Y25.000 Z-7.000 F360.000
G2 X274.430 Y23.456 Z-7.000 I-1.646 J-0.000 K0.000 F360.000
G1 X274.216 Y23.553 Z-7.000 F360.000
G2 X275.601 Y26.532 Z-7.000 I0.784 J1.447 K0.000 F360.000
G2 X276.645 Y25.000 Z-7.000 I-0.601 J-1.532 K0.000 F360.000
G0 Z5.000
G0 X266.645 Y25.000 Z5.000
G0 X266.645 Y25.000 Z3.000
G1 X266.645 Y25.000 Z-7.000 F360.000
G2 X264.430 Y23.456 Z-7.000 I-1.646 J-0.000 K0.000 F360.000
G1 X264.216 Y23.553 Z-7.000 F360.000
G2 X265.601 Y26.532 Z-7.000 I0.784 J1.447 K0.000 F360.000
G2 X266.645 Y25.000 Z-7.000 I-0.601 J-1.532 K0.000 F360.000
G0 Z5.000
G0 X256.645 Y25.000 Z5.000
G0 X256.645 Y25.000 Z3.000
G1 X256.645 Y25.000 Z-7.000 F360.000
G2 X254.430 Y23.456 Z-7.000 I-1.646 J-0.000 K0.000 F360.000
G1 X254.216 Y23.553 Z-7.000 F360.000
G2 X255.601 Y26.532 Z-7.000 I0.784 J1.447 K0.000 F360.000
G2 X256.645 Y25.000 Z-7.000 I-0.601 J-1.532 K0.000 F360.000
G0 Z5.000
G0 X246.645 Y25.000 Z5.000
G0 X246.645 Y25.000 Z3.000
G1 X246.645 Y25.000 Z-7.000 F360.000
G2 X244.430 Y23.456 Z-7.000 I-1.646 J-0.000 K0.000 F360.000
G1 X244.216 Y23.553 Z-7.000 F360.000
G2 X245.601 Y26.532 Z-7.000 I0.784 J1.447 K0.000 F360.000
G2 X246.645 Y25.000 Z-7.000 I-0.601 J-1.532 K0.000 F360.000
G0 Z5.000
G0 X236.645 Z5.000
G0 X236.645 Z3.000
G1 X236.645 Y25.000 Z-7.000 F360.000
G2 X234.430 Y23.456 Z-7.000 I-1.646 J-0.000 K0.000 F360.000
G1 X234.216 Y23.553 Z-7.000 F360.000
G2 X235.601 Y26.532 Z-7.000 I0.784 J1.447 K0.000 F360.000
G2 X236.645 Y25.000 Z-7.000 I-0.601 J-1.532 K0.000 F360.000
G0 Z5.000
G0 X226.645 Z5.000
G0 X226.645 Z3.000
G1 X226.645 Y25.000 Z-7.000 F360.000
G2 X224.430 Y23.456 Z-7.000 I-1.646 J-0.000 K0.000 F360.000
G1 X224.216 Y23.553 Z-7.000 F360.000
G2 X225.601 Y26.532 Z-7.000 I0.784 J1.447 K0.000 F360.000
G2 X226.645 Y25.000 Z-7.000 I-0.601 J-1.532 K0.000 F360.000
G0 Z5.000
G0 X225.192 Y12.634 Z5.000
G0 X225.192 Y12.634 Z3.000
G1 X225.192 Y12.634 Z-7.000 F360.000
G2 X225.601 Y12.532 Z-7.000 I-0.192 J-1.634 K0.000 F360.000
G2 X224.430 Y9.456 Z-7.000 I-0.601 J-1.532 K0.000 F360.000
G1 X224.216 Y9.553 Z-7.000 F360.000
G2 X225.192 Y12.634 Z-7.000 I0.784 J1.447 K0.000 F360.000
G0 Z5.000
G0 X233.376 Y11.270 Z5.000
G0 X233.376 Y11.270 Z3.000
G1 X233.376 Y11.270 Z-7.000 F360.000
G2 X235.601 Y12.532 Z-7.000 I1.623 J-0.271 K0.000 F360.000
G2 X234.430 Y9.456 Z-7.000 I-0.601 J-1.532 K0.000 F360.000
G1 X234.216 Y9.553 Z-7.000 F360.000
G2 X233.376 Y11.270 Z-7.000 I0.784 J1.447 K0.000 F360.000
G0 Z5.000
G0 X243.354 Y11.038 Z5.000
G0 X243.354 Y11.038 Z3.000
G1 X243.354 Y11.038 Z-7.000 F360.000
G2 X245.601 Y12.532 Z-7.000 I1.645 J-0.038 K0.000 F360.000
G2 X244.430 Y9.456 Z-7.000 I-0.601 J-1.532 K0.000 F360.000
G1 X244.216 Y9.553 Z-7.000 F360.000
G2 X243.354 Y11.038 Z-7.000 I0.784 J1.447 K0.000 F360.000
G0 Z5.000
G0 X253.354 Y11.005 Z5.000
G0 X253.354 Y11.005 Z3.000
G1 X253.354 Y11.005 Z-7.000 F360.000
G2 X255.601 Y12.532 Z-7.000 I1.646 J-0.005 K0.000 F360.000
G2 X254.430 Y9.456 Z-7.000 I-0.601 J-1.532 K0.000 F360.000
G1 X254.216 Y9.553 Z-7.000 F360.000
G2 X253.354 Y11.005 Z-7.000 I0.784 J1.447 K0.000 F360.000
G0 Z5.000
G0 X263.354 Y11.001 Z5.000
G0 X263.354 Y11.001 Z3.000
G1 X263.354 Y11.001 Z-7.000 F360.000
G2 X265.601 Y12.532 Z-7.000 I1.646 J-0.001 K0.000 F360.000
G2 X264.430 Y9.456 Z-7.000 I-0.601 J-1.532 K0.000 F360.000
G1 X264.216 Y9.553 Z-7.000 F360.000
G2 X263.354 Y11.001 Z-7.000 I0.784 J1.447 K0.000 F360.000
G0 Z5.000
G0 X273.354 Y11.000 Z5.000
G0 X273.354 Y11.000 Z3.000
G1 X273.354 Y11.000 Z-7.000 F360.000
G2 X275.601 Y12.532 Z-7.000 I1.646 J-0.000 K0.000 F360.000
G2 X274.430 Y9.456 Z-7.000 I-0.601 J-1.532 K0.000 F360.000
G1 X274.216 Y9.553 Z-7.000 F360.000
G2 X273.354 Y11.000 Z-7.000 I0.784 J1.447 K0.000 F360.000
G0 Z5.000
G0 X283.354 Y11.000 Z5.000
G0 X283.354 Y11.000 Z3.000
G1 X283.354 Y11.000 Z-7.000 F360.000
G2 X284.877 Y12.641 Z-7.000 I1.646 J-0.000 K0.000 F360.000
G2 X286.641 Y11.123 Z-7.000 I0.123 J-1.641 K0.000 F360.000
G2 X285.123 Y9.359 Z-7.000 I-1.641 J-0.123 K0.000 F360.000
G2 X283.354 Y11.000 Z-7.000 I-0.123 J1.641 K0.000 F360.000
G0 Z5.000
G0 Z5.000
(Finish operation: Pocket_3D)
(Begin operation: Drilling008)
(Path: Drilling008)
(Drilling008)
(Begin Drilling)
G0 Z5.000
G90
( G98 )
(G83 X225.000 Y11.000 Z-7.000 F360.000 Q10.000 R1.000)
G0 X225.000 Y11.000
G1 Z-5.000 F360.00
G0 Z5.000
G0 Z-4.500
G1 Z-7.000 F360.00
G0 Z5.000
( G80 )
G0 Z3.000
(G83 X235.000 Y11.000 Z-7.000 F360.000 Q10.000 R1.000)
G0 X235.000 Y11.000
G1 Z-7.000 F360.00
G0 Z3.000
( G80 )
G0 Z3.000
(G83 X245.000 Y11.000 Z-7.000 F360.000 Q10.000 R1.000)
G0 X245.000 Y11.000
G1 Z-7.000 F360.00
G0 Z3.000
( G80 )
G0 Z3.000
(G83 X255.000 Y11.000 Z-7.000 F360.000 Q10.000 R1.000)
G0 X255.000 Y11.000
G1 Z-7.000 F360.00
G0 Z3.000
( G80 )
G0 Z3.000
(G83 X265.000 Y11.000 Z-7.000 F360.000 Q10.000 R1.000)
G0 X265.000 Y11.000
G1 Z-7.000 F360.00
G0 Z3.000
( G80 )
G0 Z3.000
(G83 X275.000 Y11.000 Z-7.000 F360.000 Q10.000 R1.000)
G0 X275.000 Y11.000
G1 Z-7.000 F360.00
G0 Z3.000
( G80 )
G0 Z3.000
(G83 X285.000 Y11.000 Z-7.000 F360.000 Q10.000 R1.000)
G0 X285.000 Y11.000
G1 Z-7.000 F360.00
G0 Z3.000
( G80 )
G0 Z3.000
(G83 X285.000 Y25.000 Z-7.000 F360.000 Q10.000 R1.000)
G0 X285.000 Y25.000
G1 Z-7.000 F360.00
G0 Z3.000
( G80 )
G0 Z3.000
(G83 X275.000 Y25.000 Z-7.000 F360.000 Q10.000 R1.000)
G0 X275.000 Y25.000
G1 Z-7.000 F360.00
G0 Z3.000
( G80 )
G0 Z3.000
(G83 X265.000 Y25.000 Z-7.000 F360.000 Q10.000 R1.000)
G0 X265.000 Y25.000
G1 Z-7.000 F360.00
G0 Z3.000
( G80 )
G0 Z3.000
(G83 X255.000 Y25.000 Z-7.000 F360.000 Q10.000 R1.000)
G0 X255.000 Y25.000
G1 Z-7.000 F360.00
G0 Z3.000
( G80 )
G0 Z3.000
(G83 X245.000 Y25.000 Z-7.000 F360.000 Q10.000 R1.000)
G0 X245.000 Y25.000
G1 Z-7.000 F360.00
G0 Z3.000
( G80 )
G0 Z3.000
(G83 X235.000 Y25.000 Z-7.000 F360.000 Q10.000 R1.000)
G0 X235.000 Y25.000
G1 Z-7.000 F360.00
G0 Z3.000
( G80 )
G0 Z3.000
(G83 X225.000 Y25.000 Z-7.000 F360.000 Q10.000 R1.000)
G0 X225.000 Y25.000
G1 Z-7.000 F360.00
G0 Z3.000
( G80 )
G0 Z3.000
G0 Z5.000
(Finish operation: Drilling008)
(Begin postamble)
M5
G17 G90
M2
