(Exported by FreeCAD)
(Post Processor: grbl_post)
(Output Time:2021-03-27 09:36:05.708783)
(Begin preamble)
G17 G90
G21
(Begin operation: Fixture)
(Path: Fixture)
G54
(Finish operation: Fixture)
(Begin operation: TC: claas_6mm_endmill)
(Path: TC: claas_6mm_endmill)
(TC: claas_6mm_endmill)
(Begin toolchange)
( M6 T10.0 )
M3 S0.0
(Finish operation: TC: claas_6mm_endmill)
(Begin operation: Drilling)
(Path: Drilling)
(Drilling)
(Begin Drilling)
G0 Z12.000
G90
( G98 )
(G81 X26.697 Y26.229 Z0.000 F360.000 R8.000)
G0 X26.697 Y26.229
G1 Z0.000 F360.00
G0 Z12.000
( G80 )
G0 Z10.000
(G81 X66.303 Y149.771 Z0.000 F360.000 R8.000)
G0 X66.303 Y149.771
G1 Z0.000 F360.00
G0 Z10.000
( G80 )
G0 Z10.000
(G81 X190.562 Y134.765 Z0.000 F360.000 R8.000)
G0 X190.562 Y134.765
G1 Z0.000 F360.00
G0 Z10.000
( G80 )
G0 Z10.000
G0 Z12.000
(Finish operation: Drilling)
(Begin operation: Fixture)
(Path: Fixture)
G54
G0 Z12.000
(Finish operation: Fixture)
(Begin operation: DogboneDressupLegHiddenGroove)
(Path: DogboneDressupLegHiddenGroove)
(Pocket_LegHiddenGroove)
G0 Z12.000
G0 X188.833 Y65.399
G0 Z10.000
G1 X188.833 Y65.399 Z4.000 F360.000
G1 X136.833 Y65.399 Z4.000 F360.000
G2 X134.235 Y66.899 Z4.000 I-0.000 J3.000 K0.000 F360.000
G1 X120.735 Y90.282 Z4.000 F360.000
G1 X121.057 Y91.482 Z4.000 F360.000
G1 X120.735 Y90.282 Z4.000 F360.000
G1 X119.869 Y89.782 Z4.000 F360.000
G1 X119.869 Y89.782 Z4.000 F360.000
G1 X118.669 Y90.103 Z4.000 F360.000
G1 X119.869 Y89.782 Z4.000 F360.000
G1 X145.869 Y44.748 Z4.000 F360.000
G2 X145.869 Y41.748 Z4.000 I-2.598 J-1.500 K0.000 F360.000
G1 X132.369 Y18.366 Z4.000 F360.000
G1 X131.169 Y18.044 Z4.000 F360.000
G1 X132.369 Y18.366 Z4.000 F360.000
G1 X133.235 Y17.866 Z4.000 F360.000
G1 X133.235 Y17.866 Z4.000 F360.000
G1 X133.557 Y16.665 Z4.000 F360.000
G1 X133.235 Y17.866 Z4.000 F360.000
G1 X159.235 Y62.899 Z4.000 F360.000
G2 X161.833 Y64.399 Z4.000 I2.598 J-1.500 K0.000 F360.000
G1 X188.833 Y64.399 Z4.000 F360.000
G1 X189.712 Y63.520 Z4.000 F360.000
G1 X188.833 Y64.399 Z4.000 F360.000
G1 X188.833 Y65.399 Z4.000 F360.000
G1 X188.833 Y65.399 Z4.000 F360.000
G1 X189.712 Y66.278 Z4.000 F360.000
G1 X188.833 Y65.399 Z4.000 F360.000
G0 Z12.000
G0 X150.286 Y59.399 Z12.000
G0 X150.286 Y59.399 Z10.000
G1 X150.286 Y59.399 Z4.000 F360.000
G1 X144.339 Y59.399 Z4.000 F360.000
G1 X141.741 Y60.899 Z4.000 F360.000
G1 X144.339 Y59.399 Z4.000 F360.000
G1 X147.313 Y54.248 Z4.000 F360.000
G1 X147.313 Y54.248 Z4.000 F360.000
G1 X147.313 Y51.248 Z4.000 F360.000
G1 X147.313 Y54.248 Z4.000 F360.000
G1 X150.286 Y59.399 Z4.000 F360.000
G1 X150.286 Y59.399 Z4.000 F360.000
G1 X152.884 Y60.899 Z4.000 F360.000
G1 X150.286 Y59.399 Z4.000 F360.000
G0 Z12.000
G0 X147.688 Y57.899 Z12.000
G0 X147.688 Y57.899 Z10.000
G1 X147.688 Y57.899 Z4.000 F360.000
G1 X146.937 Y57.899 Z4.000 F360.000
G1 X144.339 Y59.399 Z4.000 F360.000
G1 X146.937 Y57.899 Z4.000 F360.000
G1 X147.313 Y57.248 Z4.000 F360.000
G1 X147.313 Y57.248 Z4.000 F360.000
G1 X147.313 Y54.248 Z4.000 F360.000
G1 X147.313 Y57.248 Z4.000 F360.000
G1 X147.688 Y57.899 Z4.000 F360.000
G1 X147.688 Y57.899 Z4.000 F360.000
G1 X150.286 Y59.399 Z4.000 F360.000
G1 X147.688 Y57.899 Z4.000 F360.000
G0 Z12.000
G0 Z12.000
(Finish operation: DogboneDressupLegHiddenGroove)
(Begin operation: Fixture)
(Path: Fixture)
G54
G0 Z12.000
(Finish operation: Fixture)
(Begin operation: DogboneDressupLegVisibleGroove)
(Path: DogboneDressupLegVisibleGroove)
(Pocket_LegVisibleGroove)
G0 Z12.000
G0 X158.833 Y65.399
G0 Z10.000
G1 X158.833 Y65.399 Z0.000 F360.000
G1 X137.637 Y65.399 Z0.000 F360.000
G1 X137.610 Y65.501 Z0.000 F360.000
G1 X137.637 Y65.399 Z0.000 F360.000
G1 X134.869 Y63.801 Z0.000 F360.000
G1 X134.869 Y63.801 Z0.000 F360.000
G1 X133.669 Y64.122 Z0.000 F360.000
G1 X134.869 Y63.801 Z0.000 F360.000
G1 X145.467 Y45.444 Z0.000 F360.000
G1 X145.467 Y45.444 Z0.000 F360.000
G1 X145.392 Y45.370 Z0.000 F360.000
G1 X145.467 Y45.444 Z0.000 F360.000
G1 X148.235 Y43.846 Z0.000 F360.000
G1 X148.235 Y43.846 Z0.000 F360.000
G1 X148.557 Y42.646 Z0.000 F360.000
G1 X148.235 Y43.846 Z0.000 F360.000
G1 X158.833 Y62.203 Z0.000 F360.000
G1 X158.833 Y62.203 Z0.000 F360.000
G1 X158.935 Y62.175 Z0.000 F360.000
G1 X158.833 Y62.203 Z0.000 F360.000
G1 X158.833 Y65.399 Z0.000 F360.000
G1 X158.833 Y65.399 Z0.000 F360.000
G1 X159.712 Y66.278 Z0.000 F360.000
G1 X158.833 Y65.399 Z0.000 F360.000
G0 Z12.000
G0 X150.286 Y59.399 Z12.000
G0 X150.286 Y59.399 Z10.000
G1 X150.286 Y59.399 Z0.000 F360.000
G1 X144.339 Y59.399 Z0.000 F360.000
G1 X141.741 Y60.899 Z0.000 F360.000
G1 X144.339 Y59.399 Z0.000 F360.000
G1 X147.313 Y54.248 Z0.000 F360.000
G1 X147.313 Y54.248 Z0.000 F360.000
G1 X147.313 Y51.248 Z0.000 F360.000
G1 X147.313 Y54.248 Z0.000 F360.000
G1 X150.286 Y59.399 Z0.000 F360.000
G1 X150.286 Y59.399 Z0.000 F360.000
G1 X152.884 Y60.899 Z0.000 F360.000
G1 X150.286 Y59.399 Z0.000 F360.000
G0 Z12.000
G0 X147.688 Y57.899 Z12.000
G0 X147.688 Y57.899 Z10.000
G1 X147.688 Y57.899 Z0.000 F360.000
G1 X146.937 Y57.899 Z0.000 F360.000
G1 X144.339 Y59.399 Z0.000 F360.000
G1 X146.937 Y57.899 Z0.000 F360.000
G1 X147.313 Y57.248 Z0.000 F360.000
G1 X147.313 Y57.248 Z0.000 F360.000
G1 X147.313 Y54.248 Z0.000 F360.000
G1 X147.313 Y57.248 Z0.000 F360.000
G1 X147.688 Y57.899 Z0.000 F360.000
G1 X147.688 Y57.899 Z0.000 F360.000
G1 X150.286 Y59.399 Z0.000 F360.000
G1 X147.688 Y57.899 Z0.000 F360.000
G0 Z12.000
G0 Z12.000
(Finish operation: DogboneDressupLegVisibleGroove)
(Begin operation: Fixture)
(Path: Fixture)
G54
G0 Z12.000
(Finish operation: Fixture)
(Begin operation: MillFace)
(Path: MillFace)
(MillFace)
G0 Z12.000
G0 X11.215 Y44.659
G0 Z10.000
G1 X11.215 Y44.659 Z6.000 F360.000
G3 X8.978 Y44.881 Z6.000 I-1.460 J-3.316 K0.000 F360.000
G2 X5.611 Y44.703 Z6.000 I-3.319 J30.795 K0.000 F360.000
G3 X2.138 Y41.034 Z6.000 I0.163 J-3.633 K0.000 F360.000
G3 X2.138 Y11.178 Z6.000 I5167.993 J-14.943 K0.000 F360.000
G3 X5.689 Y7.494 Z6.000 I3.611 J-0.074 K0.000 F360.000
G3 X10.155 Y7.516 Z6.000 I1.872 J70.934 K0.000 F360.000
G3 X11.753 Y8.093 Z6.000 I-0.344 J3.458 K0.000 F360.000
G1 X9.202 Y8.093 Z6.000 F360.000
G2 X6.202 Y11.093 Z6.000 I0.000 J3.000 K0.000 F360.000
G1 X6.202 Y41.293 Z6.000 F360.000
G2 X8.784 Y44.264 Z6.000 I3.000 J-0.000 K0.000 F360.000
G3 X11.215 Y44.659 Z6.000 I-2.897 J25.511 K0.000 F360.000
G0 Z12.000
G0 X5.080 Y43.086 Z12.000
G0 X5.080 Y43.086 Z10.000
G1 X5.080 Y43.086 Z6.000 F360.000
G3 X3.638 Y40.986 Z6.000 I0.695 J-2.022 K0.000 F360.000
G3 X3.658 Y10.863 Z6.000 I2822.084 J-13.219 K0.000 F360.000
G3 X5.191 Y9.074 Z6.000 I2.076 J0.228 K0.000 F360.000
G2 X4.702 Y11.093 Z6.000 I3.820 J1.994 K0.000 F360.000
G1 X4.702 Y41.293 Z6.000 F360.000
G2 X5.080 Y43.086 Z6.000 I4.358 J0.019 K0.000 F360.000
G0 Z12.000
G0 X4.374 Y42.679 Z12.000
G0 X4.374 Y42.679 Z10.000
G1 X4.374 Y42.679 Z5.000 F360.000
G3 X3.638 Y40.986 Z5.000 I1.419 J-1.623 K0.000 F360.000
G3 X3.658 Y10.863 Z5.000 I2822.084 J-13.219 K0.000 F360.000
G3 X4.439 Y9.454 Z5.000 I2.067 J0.225 K0.000 F360.000
G2 X4.125 Y11.093 Z5.000 I4.079 J1.632 K0.000 F360.000
G1 X4.125 Y41.232 Z5.000 F360.000
G2 X4.374 Y42.679 Z5.000 I3.762 J0.097 K0.000 F360.000
G0 Z12.000
G0 X5.785 Y42.199 Z12.000
G0 X5.785 Y42.199 Z10.000
G1 X5.785 Y42.199 Z5.000 F360.000
G2 X8.272 Y44.211 Z5.000 I2.840 J-0.967 K0.000 F360.000
G3 X11.212 Y44.660 Z5.000 I-1.962 J22.674 K0.000 F360.000
G3 X8.978 Y44.881 Z5.000 I-1.456 J-3.319 K0.000 F360.000
G2 X5.611 Y44.703 Z5.000 I-3.319 J30.795 K0.000 F360.000
G3 X2.138 Y41.034 Z5.000 I0.163 J-3.633 K0.000 F360.000
G3 X2.138 Y11.178 Z5.000 I5167.993 J-14.943 K0.000 F360.000
G3 X5.689 Y7.494 Z5.000 I3.611 J-0.074 K0.000 F360.000
G3 X10.155 Y7.516 Z5.000 I1.872 J70.934 K0.000 F360.000
G3 X11.753 Y8.093 Z5.000 I-0.344 J3.458 K0.000 F360.000
G1 X8.625 Y8.093 Z5.000 F360.000
G2 X5.625 Y11.093 Z5.000 I0.000 J3.000 K0.000 F360.000
G1 X5.625 Y41.232 Z5.000 F360.000
G2 X5.785 Y42.199 Z5.000 I3.000 J0.000 K0.000 F360.000
G0 Z12.000
G0 X5.311 Y42.411 Z12.000
G0 X5.311 Y42.411 Z10.000
G1 X5.311 Y42.411 Z4.000 F360.000
G2 X7.747 Y44.167 Z4.000 I2.736 J-1.230 K0.000 F360.000
G3 X11.212 Y44.660 Z4.000 I-1.773 J24.868 K0.000 F360.000
G3 X8.978 Y44.881 Z4.000 I-1.457 J-3.318 K0.000 F360.000
G2 X5.611 Y44.703 Z4.000 I-3.319 J30.795 K0.000 F360.000
G3 X2.138 Y41.034 Z4.000 I0.163 J-3.633 K0.000 F360.000
G3 X2.138 Y11.178 Z4.000 I5167.993 J-14.943 K0.000 F360.000
G3 X5.689 Y7.494 Z4.000 I3.611 J-0.074 K0.000 F360.000
G3 X10.155 Y7.516 Z4.000 I1.872 J70.934 K0.000 F360.000
G3 X11.753 Y8.093 Z4.000 I-0.344 J3.458 K0.000 F360.000
G1 X8.047 Y8.093 Z4.000 F360.000
G2 X5.047 Y11.093 Z4.000 I0.000 J3.000 K0.000 F360.000
G1 X5.047 Y41.182 Z4.000 F360.000
G2 X5.311 Y42.411 Z4.000 I3.000 J-0.000 K0.000 F360.000
G0 Z12.000
G0 X4.884 Y42.663 Z12.000
G0 X4.884 Y42.663 Z10.000
G1 X4.884 Y42.663 Z3.000 F360.000
G2 X7.223 Y44.132 Z3.000 I2.586 J-1.520 K0.000 F360.000
G3 X11.219 Y44.657 Z3.000 I-1.488 J26.809 K0.000 F360.000
G3 X8.978 Y44.881 Z3.000 I-1.463 J-3.314 K0.000 F360.000
G2 X5.611 Y44.703 Z3.000 I-3.319 J30.795 K0.000 F360.000
G3 X2.138 Y41.034 Z3.000 I0.163 J-3.633 K0.000 F360.000
G3 X2.138 Y11.178 Z3.000 I5167.993 J-14.943 K0.000 F360.000
G3 X5.689 Y7.494 Z3.000 I3.611 J-0.074 K0.000 F360.000
G3 X10.155 Y7.516 Z3.000 I1.872 J70.934 K0.000 F360.000
G3 X11.753 Y8.093 Z3.000 I-0.344 J3.458 K0.000 F360.000
G1 X7.470 Y8.093 Z3.000 F360.000
G2 X4.470 Y11.093 Z3.000 I0.000 J3.000 K0.000 F360.000
G1 X4.470 Y41.143 Z3.000 F360.000
G2 X4.884 Y42.663 Z3.000 I3.000 J-0.000 K0.000 F360.000
G0 Z12.000
G0 X4.516 Y42.946 Z12.000
G0 X4.516 Y42.946 Z10.000
G1 X4.516 Y42.946 Z2.000 F360.000
G2 X6.709 Y44.109 Z2.000 I2.377 J-1.831 K0.000 F360.000
G3 X11.212 Y44.660 Z2.000 I-0.926 J26.225 K0.000 F360.000
G3 X8.978 Y44.881 Z2.000 I-1.456 J-3.319 K0.000 F360.000
G2 X5.611 Y44.703 Z2.000 I-3.319 J30.795 K0.000 F360.000
G3 X2.138 Y41.034 Z2.000 I0.163 J-3.633 K0.000 F360.000
G3 X2.138 Y11.178 Z2.000 I5167.993 J-14.943 K0.000 F360.000
G3 X5.689 Y7.494 Z2.000 I3.611 J-0.074 K0.000 F360.000
G3 X10.155 Y7.516 Z2.000 I1.872 J70.934 K0.000 F360.000
G3 X11.753 Y8.093 Z2.000 I-0.344 J3.458 K0.000 F360.000
G1 X6.893 Y8.093 Z2.000 F360.000
G2 X3.893 Y11.093 Z2.000 I0.000 J3.000 K0.000 F360.000
G1 X3.893 Y41.115 Z2.000 F360.000
G2 X4.516 Y42.946 Z2.000 I3.000 J-0.000 K0.000 F360.000
G0 Z12.000
G0 X4.222 Y43.247 Z12.000
G0 X4.222 Y43.247 Z10.000
G1 X4.222 Y43.247 Z1.000 F360.000
G2 X6.186 Y44.095 Z1.000 I2.093 J-2.149 K0.000 F360.000
G3 X11.215 Y44.659 Z1.000 I-0.448 J26.723 K0.000 F360.000
G3 X8.978 Y44.881 Z1.000 I-1.460 J-3.316 K0.000 F360.000
G2 X5.611 Y44.703 Z1.000 I-3.319 J30.795 K0.000 F360.000
G3 X2.138 Y41.034 Z1.000 I0.163 J-3.633 K0.000 F360.000
G3 X2.138 Y11.178 Z1.000 I5167.993 J-14.943 K0.000 F360.000
G3 X5.689 Y7.494 Z1.000 I3.611 J-0.074 K0.000 F360.000
G3 X10.155 Y7.516 Z1.000 I1.872 J70.934 K0.000 F360.000
G3 X11.753 Y8.093 Z1.000 I-0.344 J3.458 K0.000 F360.000
G1 X6.315 Y8.093 Z1.000 F360.000
G2 X3.315 Y11.093 Z1.000 I0.000 J3.000 K0.000 F360.000
G1 X3.315 Y41.098 Z1.000 F360.000
G2 X4.222 Y43.247 Z1.000 I3.000 J-0.000 K0.000 F360.000
G0 Z12.000
G0 X4.012 Y43.546 Z12.000
G0 X4.012 Y43.546 Z10.000
G1 X4.012 Y43.546 Z-0.000 F360.000
G2 X5.662 Y44.092 Z-0.000 I1.726 J-2.454 K0.000 F360.000
G3 X11.219 Y44.657 Z-0.000 I0.065 J26.970 K-0.000 F360.000
G3 X8.978 Y44.881 Z-0.000 I-1.464 J-3.313 K0.000 F360.000
G2 X5.611 Y44.703 Z-0.000 I-3.319 J30.795 K-0.000 F360.000
G3 X2.138 Y41.034 Z-0.000 I0.163 J-3.633 K0.000 F360.000
G3 X2.138 Y11.178 Z0.000 I5167.993 J-14.943 K0.000 F360.000
G3 X5.689 Y7.494 Z0.000 I3.611 J-0.074 K0.000 F360.000
G3 X10.155 Y7.516 Z0.000 I1.872 J70.934 K-0.000 F360.000
G3 X11.753 Y8.093 Z0.000 I-0.344 J3.458 K-0.000 F360.000
G1 X5.738 Y8.093 Z0.000 F360.000
G2 X2.738 Y11.093 Z0.000 I0.000 J3.000 K-0.000 F360.000
G1 X2.738 Y41.093 Z-0.000 F360.000
G2 X4.012 Y43.546 Z-0.000 I3.000 J-0.000 K0.000 F360.000
G0 Z12.000
G0 Z12.000
(Finish operation: MillFace)
(Begin operation: Fixture)
(Path: Fixture)
G54
G0 Z12.000
(Finish operation: Fixture)
(Begin operation: MillFace001)
(Path: MillFace001)
(MillFace001)
G0 Z12.000
G0 X89.804 Y167.450
G0 Z10.000
G1 X89.804 Y167.450 Z6.000 F360.000
G3 X87.311 Y168.506 Z6.000 I-2.553 J-2.555 K0.000 F360.000
G3 X82.845 Y168.484 Z6.000 I-1.872 J-70.934 K0.000 F360.000
G3 X81.247 Y167.907 Z6.000 I0.344 J-3.458 K0.000 F360.000
G1 X83.798 Y167.907 Z6.000 F360.000
G2 X86.798 Y164.907 Z6.000 I-0.000 J-3.000 K0.000 F360.000
G1 X86.798 Y134.707 Z6.000 F360.000
G2 X84.216 Y131.736 Z6.000 I-3.000 J0.000 K0.000 F360.000
G3 X81.780 Y131.340 Z6.000 I2.905 J-25.565 K0.000 F360.000
G3 X84.022 Y131.119 Z6.000 I1.463 J3.347 K0.000 F360.000
G1 X84.921 Y131.198 Z6.000 F360.000
G2 X87.389 Y131.297 Z6.000 I1.992 J-18.949 K0.000 F360.000
G3 X90.862 Y134.966 Z6.000 I-0.163 J3.633 K0.000 F360.000
G3 X90.862 Y164.822 Z6.000 I-5167.969 J14.943 K0.000 F360.000
G3 X89.804 Y167.450 Z6.000 I-3.611 J0.074 K0.000 F360.000
G0 Z12.000
G0 X88.742 Y166.387 Z12.000
G0 X88.742 Y166.387 Z10.000
G1 X88.742 Y166.387 Z6.000 F360.000
G3 X87.809 Y166.926 Z6.000 I-1.476 J-1.478 K0.000 F360.000
G2 X88.298 Y164.907 Z6.000 I-3.820 J-1.994 K0.000 F360.000
G1 X88.298 Y134.707 Z6.000 F360.000
G2 X87.920 Y132.914 Z6.000 I-4.358 J-0.019 K0.000 F360.000
G3 X89.362 Y135.014 Z6.000 I-0.695 J2.022 K0.000 F360.000
G3 X89.342 Y165.137 Z6.000 I-2822.075 J13.219 K0.000 F360.000
G3 X88.742 Y166.387 Z6.000 I-2.076 J-0.228 K0.000 F360.000
G0 Z12.000
G0 X88.742 Y166.386 Z12.000
G0 X88.742 Y166.386 Z10.000
G1 X88.742 Y166.386 Z5.000 F360.000
G3 X88.561 Y166.546 Z5.000 I-1.466 J-1.475 K0.000 F360.000
G2 X88.875 Y164.907 Z5.000 I-4.079 J-1.632 K0.000 F360.000
G1 X88.875 Y134.768 Z5.000 F360.000
G2 X88.626 Y133.321 Z5.000 I-3.762 J-0.097 K0.000 F360.000
G3 X89.362 Y135.014 Z5.000 I-1.419 J1.623 K0.000 F360.000
G3 X89.342 Y165.137 Z5.000 I-2822.075 J13.219 K0.000 F360.000
G3 X88.742 Y166.386 Z5.000 I-2.067 J-0.225 K0.000 F360.000
G0 Z12.000
G0 X89.804 Y167.450 Z12.000
G0 X89.804 Y167.450 Z10.000
G1 X89.804 Y167.450 Z5.000 F360.000
G3 X87.311 Y168.506 Z5.000 I-2.553 J-2.555 K0.000 F360.000
G3 X82.845 Y168.484 Z5.000 I-1.872 J-70.934 K0.000 F360.000
G3 X81.247 Y167.907 Z5.000 I0.344 J-3.458 K0.000 F360.000
G1 X84.375 Y167.907 Z5.000 F360.000
G2 X87.375 Y164.907 Z5.000 I-0.000 J-3.000 K0.000 F360.000
G1 X87.375 Y134.768 Z5.000 F360.000
G2 X84.728 Y131.789 Z5.000 I-3.000 J-0.000 K0.000 F360.000
G3 X81.783 Y131.339 Z5.000 I1.967 J-22.714 K0.000 F360.000
G3 X84.022 Y131.119 Z5.000 I1.460 J3.351 K0.000 F360.000
G1 X84.921 Y131.198 Z5.000 F360.000
G2 X87.389 Y131.297 Z5.000 I1.992 J-18.949 K0.000 F360.000
G3 X90.862 Y134.966 Z5.000 I-0.163 J3.633 K0.000 F360.000
G3 X90.862 Y164.822 Z5.000 I-5167.969 J14.943 K0.000 F360.000
G3 X89.804 Y167.450 Z5.000 I-3.611 J0.074 K0.000 F360.000
G1 X89.804 Y167.450 Z4.000 F360.000
G3 X87.311 Y168.506 Z4.000 I-2.553 J-2.555 K0.000 F360.000
G3 X82.845 Y168.484 Z4.000 I-1.872 J-70.934 K0.000 F360.000
G3 X81.247 Y167.907 Z4.000 I0.344 J-3.458 K0.000 F360.000
G1 X84.953 Y167.907 Z4.000 F360.000
G2 X87.953 Y164.907 Z4.000 I-0.000 J-3.000 K0.000 F360.000
G1 X87.953 Y134.818 Z4.000 F360.000
G2 X85.253 Y131.833 Z4.000 I-3.000 J0.000 K0.000 F360.000
G3 X81.782 Y131.339 Z4.000 I1.778 J-24.905 K0.000 F360.000
G3 X84.022 Y131.119 Z4.000 I1.461 J3.350 K0.000 F360.000
G1 X84.921 Y131.198 Z4.000 F360.000
G2 X87.389 Y131.297 Z4.000 I1.992 J-18.949 K0.000 F360.000
G3 X90.862 Y134.966 Z4.000 I-0.163 J3.633 K0.000 F360.000
G3 X90.862 Y164.822 Z4.000 I-5167.969 J14.943 K0.000 F360.000
G3 X89.804 Y167.450 Z4.000 I-3.611 J0.074 K0.000 F360.000
G1 X89.804 Y167.450 Z3.000 F360.000
G3 X87.311 Y168.506 Z3.000 I-2.553 J-2.555 K0.000 F360.000
G3 X82.845 Y168.484 Z3.000 I-1.872 J-70.934 K0.000 F360.000
G3 X81.247 Y167.907 Z3.000 I0.344 J-3.458 K0.000 F360.000
G1 X85.530 Y167.907 Z3.000 F360.000
G2 X88.530 Y164.907 Z3.000 I-0.000 J-3.000 K0.000 F360.000
G1 X88.530 Y134.857 Z3.000 F360.000
G2 X85.777 Y131.868 Z3.000 I-3.000 J0.000 K0.000 F360.000
G3 X81.776 Y131.342 Z3.000 I1.491 J-26.843 K0.000 F360.000
G3 X84.022 Y131.119 Z3.000 I1.467 J3.342 K0.000 F360.000
G1 X84.921 Y131.198 Z3.000 F360.000
G2 X87.389 Y131.297 Z3.000 I1.992 J-18.949 K0.000 F360.000
G3 X90.862 Y134.966 Z3.000 I-0.163 J3.633 K0.000 F360.000
G3 X90.862 Y164.822 Z3.000 I-5167.969 J14.943 K0.000 F360.000
G3 X89.804 Y167.450 Z3.000 I-3.611 J0.074 K0.000 F360.000
G1 X89.804 Y167.450 Z2.000 F360.000
G3 X87.311 Y168.506 Z2.000 I-2.553 J-2.555 K0.000 F360.000
G3 X82.845 Y168.484 Z2.000 I-1.872 J-70.934 K0.000 F360.000
G3 X81.247 Y167.907 Z2.000 I0.344 J-3.458 K0.000 F360.000
G1 X86.107 Y167.907 Z2.000 F360.000
G2 X89.107 Y164.907 Z2.000 I-0.000 J-3.000 K0.000 F360.000
G1 X89.107 Y134.885 Z2.000 F360.000
G2 X86.291 Y131.891 Z2.000 I-3.000 J0.000 K0.000 F360.000
G3 X81.783 Y131.339 Z2.000 I0.926 J-26.234 K0.000 F360.000
G3 X84.022 Y131.119 Z2.000 I1.460 J3.351 K0.000 F360.000
G1 X84.921 Y131.198 Z2.000 F360.000
G2 X87.389 Y131.297 Z2.000 I1.992 J-18.949 K0.000 F360.000
G3 X90.862 Y134.966 Z2.000 I-0.163 J3.633 K0.000 F360.000
G3 X90.862 Y164.822 Z2.000 I-5167.969 J14.943 K0.000 F360.000
G3 X89.804 Y167.450 Z2.000 I-3.611 J0.074 K0.000 F360.000
G1 X89.804 Y167.450 Z1.000 F360.000
G3 X87.311 Y168.506 Z1.000 I-2.553 J-2.555 K0.000 F360.000
G3 X82.845 Y168.484 Z1.000 I-1.872 J-70.934 K0.000 F360.000
G3 X81.247 Y167.907 Z1.000 I0.344 J-3.458 K0.000 F360.000
G1 X86.685 Y167.907 Z1.000 F360.000
G2 X89.685 Y164.907 Z1.000 I-0.000 J-3.000 K0.000 F360.000
G1 X89.685 Y134.902 Z1.000 F360.000
G2 X86.814 Y131.905 Z1.000 I-3.000 J0.000 K0.000 F360.000
G3 X81.780 Y131.340 Z1.000 I0.449 J-26.735 K0.000 F360.000
G3 X84.022 Y131.119 Z1.000 I1.463 J3.347 K0.000 F360.000
G1 X84.921 Y131.198 Z1.000 F360.000
G2 X87.389 Y131.297 Z1.000 I1.992 J-18.949 K0.000 F360.000
G3 X90.862 Y134.966 Z1.000 I-0.163 J3.633 K0.000 F360.000
G3 X90.862 Y164.822 Z1.000 I-5167.969 J14.943 K0.000 F360.000
G3 X89.804 Y167.450 Z1.000 I-3.611 J0.074 K0.000 F360.000
G1 X89.804 Y167.450 Z0.000 F360.000
G3 X87.311 Y168.506 Z0.000 I-2.553 J-2.555 K0.000 F360.000
G3 X82.845 Y168.484 Z0.000 I-1.872 J-70.934 K0.000 F360.000
G3 X81.247 Y167.907 Z0.000 I0.344 J-3.458 K0.000 F360.000
G1 X87.262 Y167.907 Z0.000 F360.000
G2 X90.262 Y164.907 Z0.000 I-0.000 J-3.000 K0.000 F360.000
G1 X90.262 Y134.907 Z0.000 F360.000
G2 X87.338 Y131.908 Z0.000 I-3.000 J0.000 K0.000 F360.000
G3 X81.776 Y131.342 Z0.000 I-0.067 J-26.949 K0.000 F360.000
G3 X84.022 Y131.119 Z0.000 I1.467 J3.342 K0.000 F360.000
G1 X84.921 Y131.198 Z0.000 F360.000
G2 X87.389 Y131.297 Z0.000 I1.992 J-18.949 K0.000 F360.000
G3 X90.862 Y134.966 Z0.000 I-0.163 J3.633 K0.000 F360.000
G3 X90.862 Y164.822 Z0.000 I-5167.969 J14.943 K0.000 F360.000
G3 X89.804 Y167.450 Z0.000 I-3.611 J0.074 K0.000 F360.000
G0 Z12.000
G0 Z12.000
(Finish operation: MillFace001)
(Begin operation: Fixture)
(Path: Fixture)
G54
G0 Z12.000
(Finish operation: Fixture)
(Begin operation: MillFace002)
(Path: MillFace002)
(MillFace002)
G0 Z12.000
G0 X217.262 Y134.596
G0 Z10.000
G1 X217.262 Y134.596 Z6.000 F360.000
G3 X215.490 Y136.301 Z6.000 I-50.080 J-50.272 K0.000 F360.000
G3 X213.953 Y137.023 Z6.000 I-2.202 J-2.689 K0.000 F360.000
G1 X215.757 Y135.220 Z6.000 F360.000
G2 X215.757 Y130.977 Z6.000 I-2.121 J-2.121 K0.000 F360.000
G1 X194.402 Y109.622 Z6.000 F360.000
G2 X190.475 Y109.347 Z6.000 I-2.121 J2.121 K0.000 F360.000
G3 X188.478 Y110.786 Z6.000 I-15.990 J-20.088 K0.000 F360.000
G3 X189.902 Y109.047 Z6.000 I3.377 J1.313 K0.000 F360.000
G2 X192.395 Y106.809 Z6.000 I-19.968 J-24.754 K0.000 F360.000
G3 X197.451 Y106.923 Z6.000 I2.469 J2.655 K0.000 F360.000
G3 X218.570 Y128.042 Z6.000 I-3646.131 J3667.277 K0.000 F360.000
G3 X219.605 Y131.380 Z6.000 I-2.506 J2.607 K0.000 F360.000
G3 X218.665 Y133.159 Z6.000 I-3.575 J-0.753 K0.000 F360.000
G3 X217.262 Y134.596 Z6.000 I-51.482 J-48.834 K0.000 F360.000
G0 Z12.000
G0 X217.900 Y131.690 Z12.000
G0 X217.900 Y131.690 Z10.000
G1 X217.900 Y131.690 Z6.000 F360.000
G2 X216.818 Y129.916 Z6.000 I-4.111 J1.291 K0.000 F360.000
G1 X195.463 Y108.561 Z6.000 F360.000
G2 X193.937 Y107.563 Z6.000 I-3.102 J3.078 K0.000 F360.000
G3 X196.420 Y108.014 Z6.000 I0.940 J1.887 K0.000 F360.000
G3 X217.719 Y129.340 Z6.000 I-1987.349 J2006.060 K0.000 F360.000
G3 X218.135 Y131.075 Z6.000 I-1.634 J1.309 K0.000 F360.000
G3 X217.900 Y131.690 Z6.000 I-1.963 J-0.398 K0.000 F360.000
G0 Z12.000
G0 X218.163 Y130.889 Z12.000
G0 X218.163 Y130.889 Z10.000
G1 X218.163 Y130.889 Z5.000 F360.000
G2 X217.226 Y129.508 Z5.000 I-4.039 J1.731 K0.000 F360.000
G1 X195.914 Y108.196 Z5.000 F360.000
G2 X194.719 Y107.351 Z5.000 I-2.722 J2.583 K0.000 F360.000
G3 X196.420 Y108.014 Z5.000 I0.161 J2.103 K0.000 F360.000
G3 X217.719 Y129.340 Z5.000 I-1987.349 J2006.060 K0.000 F360.000
G3 X218.163 Y130.889 Z5.000 I-1.621 J1.302 K0.000 F360.000
G0 Z12.000
G0 X216.793 Y131.488 Z12.000
G0 X216.793 Y131.488 Z10.000
G1 X216.793 Y131.488 Z5.000 F360.000
G2 X216.165 Y130.569 Z5.000 I-2.749 J1.202 K0.000 F360.000
G1 X194.854 Y109.257 Z5.000 F360.000
G2 X190.875 Y109.022 Z5.000 I-2.121 J2.121 K0.000 F360.000
G3 X188.479 Y110.783 Z5.000 I-14.646 J-17.421 K0.000 F360.000
G3 X189.902 Y109.047 Z5.000 I3.377 J1.317 K0.000 F360.000
G2 X192.395 Y106.809 Z5.000 I-19.968 J-24.754 K0.000 F360.000
G3 X197.451 Y106.923 Z5.000 I2.469 J2.655 K0.000 F360.000
G3 X218.570 Y128.042 Z5.000 I-3646.131 J3667.277 K0.000 F360.000
G3 X219.605 Y131.380 Z5.000 I-2.506 J2.607 K0.000 F360.000
G3 X218.665 Y133.159 Z5.000 I-3.575 J-0.753 K0.000 F360.000
G3 X215.490 Y136.301 Z5.000 I-51.482 J-48.834 K0.000 F360.000
G3 X213.953 Y137.023 Z5.000 I-2.202 J-2.689 K0.000 F360.000
G1 X216.165 Y134.811 Z5.000 F360.000
G2 X216.793 Y131.488 Z5.000 I-2.121 J-2.121 K0.000 F360.000
G0 Z12.000
G0 X217.293 Y131.318 Z12.000
G0 X217.293 Y131.318 Z10.000
G1 X217.293 Y131.318 Z4.000 F360.000
G2 X216.574 Y130.160 Z4.000 I-2.841 J0.963 K0.000 F360.000
G1 X195.297 Y108.884 Z4.000 F360.000
G2 X191.278 Y108.683 Z4.000 I-2.121 J2.121 K0.000 F360.000
G3 X188.479 Y110.784 Z4.000 I-16.331 J-18.838 K0.000 F360.000
G3 X189.902 Y109.047 Z4.000 I3.377 J1.316 K0.000 F360.000
G2 X192.395 Y106.809 Z4.000 I-19.968 J-24.754 K0.000 F360.000
G3 X197.451 Y106.923 Z4.000 I2.469 J2.655 K0.000 F360.000
G3 X218.570 Y128.042 Z4.000 I-3646.131 J3667.277 K0.000 F360.000
G3 X219.605 Y131.380 Z4.000 I-2.506 J2.607 K0.000 F360.000
G3 X218.665 Y133.159 Z4.000 I-3.575 J-0.753 K0.000 F360.000
G3 X215.490 Y136.301 Z4.000 I-51.482 J-48.834 K0.000 F360.000
G3 X213.953 Y137.023 Z4.000 I-2.202 J-2.689 K0.000 F360.000
G1 X216.574 Y134.403 Z4.000 F360.000
G2 X217.293 Y131.318 Z4.000 I-2.121 J-2.121 K0.000 F360.000
G0 Z12.000
G0 X217.785 Y131.206 Z12.000
G0 X217.785 Y131.206 Z10.000
G1 X217.785 Y131.206 Z3.000 F360.000
G2 X216.982 Y129.752 Z3.000 I-2.925 J0.667 K0.000 F360.000
G1 X195.733 Y108.504 Z3.000 F360.000
G2 X191.673 Y108.336 Z3.000 I-2.121 J2.121 K0.000 F360.000
G3 X188.476 Y110.790 Z3.000 I-17.905 J-20.009 K0.000 F360.000
G3 X189.902 Y109.047 Z3.000 I3.378 J1.308 K0.000 F360.000
G2 X192.395 Y106.809 Z3.000 I-19.968 J-24.754 K0.000 F360.000
G3 X197.451 Y106.923 Z3.000 I2.469 J2.655 K0.000 F360.000
G3 X218.570 Y128.042 Z3.000 I-3646.131 J3667.277 K0.000 F360.000
G3 X219.605 Y131.380 Z3.000 I-2.506 J2.607 K0.000 F360.000
G3 X218.665 Y133.159 Z3.000 I-3.575 J-0.753 K0.000 F360.000
G3 X215.490 Y136.301 Z3.000 I-51.482 J-48.834 K0.000 F360.000
G3 X213.953 Y137.023 Z3.000 I-2.202 J-2.689 K0.000 F360.000
G1 X216.982 Y133.995 Z3.000 F360.000
G2 X217.785 Y131.206 Z3.000 I-2.121 J-2.121 K0.000 F360.000
G0 Z12.000
G0 X218.253 Y131.158 Z12.000
G0 X218.253 Y131.158 Z10.000
G1 X218.253 Y131.158 Z2.000 F360.000
G2 X217.390 Y129.344 Z2.000 I-2.984 J0.307 K0.000 F360.000
G1 X196.161 Y108.115 Z2.000 F360.000
G2 X192.052 Y107.989 Z2.000 I-2.121 J2.121 K0.000 F360.000
G3 X188.479 Y110.783 Z2.000 I-17.889 J-19.199 K0.000 F360.000
G3 X189.902 Y109.047 Z2.000 I3.377 J1.317 K0.000 F360.000
G2 X192.395 Y106.809 Z2.000 I-19.968 J-24.754 K0.000 F360.000
G3 X197.451 Y106.923 Z2.000 I2.469 J2.655 K0.000 F360.000
G3 X218.570 Y128.042 Z2.000 I-3646.131 J3667.277 K0.000 F360.000
G3 X219.605 Y131.380 Z2.000 I-2.506 J2.607 K0.000 F360.000
G3 X218.665 Y133.159 Z2.000 I-3.575 J-0.753 K0.000 F360.000
G3 X215.490 Y136.301 Z2.000 I-51.482 J-48.834 K0.000 F360.000
G3 X213.953 Y137.023 Z2.000 I-2.202 J-2.689 K0.000 F360.000
G1 X217.390 Y133.587 Z2.000 F360.000
G2 X218.253 Y131.158 Z2.000 I-2.121 J-2.121 K0.000 F360.000
G0 Z12.000
G0 X218.675 Y131.175 Z12.000
G0 X218.675 Y131.175 Z10.000
G1 X218.675 Y131.175 Z1.000 F360.000
G2 X217.798 Y128.936 Z1.000 I-2.998 J-0.118 K0.000 F360.000
G1 X196.581 Y107.719 Z1.000 F360.000
G2 X192.432 Y107.629 Z1.000 I-2.121 J2.121 K0.000 F360.000
G3 X188.478 Y110.787 Z1.000 I-18.580 J-19.213 K0.000 F360.000
G3 X189.902 Y109.047 Z1.000 I3.377 J1.313 K0.000 F360.000
G2 X192.395 Y106.809 Z1.000 I-19.968 J-24.754 K0.000 F360.000
G3 X197.451 Y106.923 Z1.000 I2.469 J2.655 K0.000 F360.000
G3 X218.570 Y128.042 Z1.000 I-3646.131 J3667.277 K0.000 F360.000
G3 X219.605 Y131.380 Z1.000 I-2.506 J2.607 K0.000 F360.000
G3 X218.665 Y133.159 Z1.000 I-3.575 J-0.753 K0.000 F360.000
G3 X215.490 Y136.301 Z1.000 I-51.482 J-48.834 K0.000 F360.000
G3 X213.953 Y137.023 Z1.000 I-2.202 J-2.689 K0.000 F360.000
G1 X217.798 Y133.178 Z1.000 F360.000
G2 X218.675 Y131.175 Z1.000 I-2.121 J-2.121 K0.000 F360.000
G0 Z12.000
G0 X219.025 Y131.246 Z12.000
G0 X219.025 Y131.246 Z10.000
G1 X219.025 Y131.246 Z-0.000 F360.000
G2 X218.207 Y128.527 Z-0.000 I-2.940 J-0.597 K0.000 F360.000
G1 X196.993 Y107.314 Z0.000 F360.000
G2 X192.805 Y107.261 Z0.000 I-2.121 J2.121 K-0.000 F360.000
G3 X188.476 Y110.791 Z0.000 I-19.117 J-19.024 K0.000 F360.000
G3 X189.902 Y109.047 Z0.000 I3.378 J1.307 K-0.000 F360.000
G2 X192.395 Y106.809 Z0.000 I-19.968 J-24.754 K0.000 F360.000
G3 X197.451 Y106.923 Z0.000 I2.469 J2.655 K-0.000 F360.000
G3 X218.570 Y128.042 Z-0.000 I-3646.131 J3667.277 K-0.000 F360.000
G3 X219.605 Y131.380 Z-0.000 I-2.506 J2.607 K-0.000 F360.000
G3 X218.665 Y133.159 Z-0.000 I-3.575 J-0.753 K0.000 F360.000
G3 X215.490 Y136.301 Z-0.000 I-51.482 J-48.834 K0.000 F360.000
G3 X213.953 Y137.023 Z-0.000 I-2.202 J-2.689 K0.000 F360.000
G1 X218.207 Y132.770 Z-0.000 F360.000
G2 X219.025 Y131.246 Z-0.000 I-2.121 J-2.121 K0.000 F360.000
G0 Z12.000
G0 Z12.000
(Finish operation: MillFace002)
(Begin operation: Fixture)
(Path: Fixture)
G54
G0 Z12.000
(Finish operation: Fixture)
(Begin operation: DogboneDressupProfile)
(Path: DogboneDressupProfile)
(Profile)
(Compensated Tool Path. Diameter: 6.0)
G0 Z12.000
G0 X90.190 Y109.191
G0 Z10.000
G1 X90.190 Y109.191 Z0.000 F360.000
G2 X93.258 Y95.678 Z0.000 I-9.192 J-9.192 K0.000 F360.000
G1 X63.557 Y14.067 Z0.000 F360.000
G2 X60.738 Y12.093 Z0.000 I-2.819 J1.026 K0.000 F360.000
G1 X33.738 Y12.093 Z0.000 F360.000
G1 X32.859 Y12.971 Z0.000 F360.000
G1 X33.738 Y12.093 Z0.000 F360.000
G1 X33.738 Y11.093 Z0.000 F360.000
G2 X30.738 Y8.093 Z0.000 I-3.000 J0.000 K0.000 F360.000
G1 X5.738 Y8.093 Z0.000 F360.000
G2 X2.738 Y11.093 Z0.000 I0.000 J3.000 K0.000 F360.000
G1 X2.738 Y41.093 Z0.000 F360.000
G2 X5.664 Y44.092 Z0.000 I3.000 J0.000 K0.000 F360.000
G3 X26.672 Y54.040 Z0.000 I0.067 J27.014 K0.000 F360.000
G1 X70.932 Y108.224 Z0.000 F360.000
G2 X90.190 Y109.191 Z0.000 I10.066 J-8.225 K0.000 F360.000
G0 Z12.000
G0 Z12.000
G0 X90.190 Y109.191
G0 X87.601 Y131.927
G0 X87.601 Y131.927 Z10.000
G1 X87.601 Y131.927 Z0.000 F360.000
G2 X87.336 Y131.908 Z0.000 I-0.339 J2.981 K0.000 F360.000
G3 X66.328 Y121.960 Z0.000 I-0.067 J-27.014 K0.000 F360.000
G1 X22.068 Y67.776 Z0.000 F360.000
G2 X13.125 Y63.051 Z0.000 I-10.072 J8.237 K0.000 F360.000
G2 X-0.258 Y80.322 Z0.000 I-1.125 J12.949 K0.000 F360.000
G1 X29.443 Y161.933 Z0.000 F360.000
G2 X32.262 Y163.907 Z0.000 I2.819 J-1.026 K0.000 F360.000
G1 X59.262 Y163.907 Z0.000 F360.000
G1 X60.141 Y163.029 Z0.000 F360.000
G1 X59.262 Y163.907 Z0.000 F360.000
G1 X59.262 Y164.907 Z0.000 F360.000
G2 X62.262 Y167.907 Z0.000 I3.000 J-0.000 K0.000 F360.000
G1 X87.262 Y167.907 Z0.000 F360.000
G2 X90.262 Y164.907 Z0.000 I-0.000 J-3.000 K0.000 F360.000
G1 X90.262 Y134.907 Z0.000 F360.000
G2 X87.601 Y131.927 Z0.000 I-3.000 J0.000 K0.000 F360.000
G0 Z12.000
G0 Z12.000
G0 X87.601 Y131.927
G0 X114.097 Y98.982
G0 X114.097 Y98.982 Z10.000
G1 X114.097 Y98.982 Z0.000 F360.000
G2 X144.120 Y110.585 Z0.000 I33.215 J-41.300 K0.000 F360.000
G2 X150.532 Y4.780 Z0.000 I3.192 J-52.903 K0.000 F360.000
G2 X114.097 Y98.982 Z0.000 I-3.219 J52.902 K0.000 F360.000
G0 Z12.000
G0 Z12.000
G0 X114.097 Y98.982
G0 X113.062 Y109.251
G0 X113.062 Y109.251 Z10.000
G1 X113.062 Y109.251 Z0.000 F360.000
G1 X101.304 Y108.066 Z0.000 F360.000
G2 X94.388 Y132.724 Z0.000 I-1.302 J12.934 K0.000 F360.000
G1 X173.098 Y169.430 Z0.000 F360.000
G2 X176.487 Y168.833 Z0.000 I1.268 J-2.719 K0.000 F360.000
G1 X195.579 Y149.741 Z0.000 F360.000
G1 X195.579 Y148.498 Z0.000 F360.000
G1 X195.579 Y149.741 Z0.000 F360.000
G1 X196.286 Y150.448 Z0.000 F360.000
G2 X200.529 Y150.448 Z0.000 I2.121 J-2.121 K0.000 F360.000
G1 X218.207 Y132.770 Z0.000 F360.000
G2 X218.207 Y128.527 Z0.000 I-2.121 J-2.121 K0.000 F360.000
G1 X196.993 Y107.314 Z0.000 F360.000
G2 X195.948 Y106.635 Z0.000 I-2.121 J2.121 K0.000 F360.000
G2 X192.804 Y107.263 Z0.000 I-1.076 J2.800 K0.000 F360.000
G3 X170.914 Y115.082 Z0.000 I-19.149 J-19.055 K0.000 F360.000
G1 X113.062 Y109.251 Z0.000 F360.000
G0 Z12.000
G0 Z12.000
(Finish operation: DogboneDressupProfile)
(Begin postamble)
M5
G17 G90
M2
